/* XPM */
static char *Asphalt_64[] = {
/* columns rows colors chars-per-pixel */
"64 64 63 1 ",
"  c black",
". c #151617",
"X c #242524",
"o c #28292A",
"O c #303132",
"+ c #363639",
"@ c #37383B",
"# c #3C3D3E",
"$ c #3D403F",
"% c #3E3E41",
"& c #444446",
"* c #464847",
"= c #484847",
"- c #464649",
"; c #48474A",
": c #47494A",
"> c #4A4A4C",
", c #4C4C4D",
"< c #4C4D4D",
"1 c #4C4C4E",
"2 c #4D4C4E",
"3 c #4E4F4E",
"4 c #514F4F",
"5 c #4C504F",
"6 c #51504F",
"7 c #4B4B50",
"8 c #4E4B50",
"9 c #4B4C50",
"0 c #4F4E52",
"q c #514F50",
"w c #504F52",
"e c #4E5052",
"r c #4F5053",
"t c #535152",
"y c #525155",
"u c #525354",
"i c #545357",
"p c #525455",
"a c #565656",
"s c #565857",
"d c #535558",
"f c #545658",
"g c #58575A",
"h c #565859",
"j c #58585A",
"k c #5A5A5B",
"l c #5C5B5F",
"z c #605F61",
"x c #5F6060",
"c c #626363",
"v c #666867",
"b c #696967",
"n c #656669",
"m c #68676A",
"M c #666869",
"N c #686969",
"B c gray42",
"V c #6B6C6B",
"C c #6C6C6F",
"Z c #6E7070",
"A c #727373",
"S c #797C7B",
"D c #7C7D7E",
/* pixels */
" 79;1>y>>;1 >>8;> >t1>:;1;t>a;;:>s>>>f:>>f:>>>>>>;>>1> 1y:11q0 >",
"1>>:>je:101 >:>> >>>t:>1>>001>>>f;-:f>;5;1;0;;;;  >>>> -:>>1> >;",
">:;>   :;>:; >>y >h>>>y0t1>>01>  &p> 11;>>&:>pt Nt 0a> >f;:;110>",
">>p CVV  ;>a>   >:y>71::->:>1: mZ &>>;>>;>1 d>>a  1>>7  >>;ea:>t",
">>> Z1>t >;:ia>th>>>f:Ve0>>f0fe   10>;p>>t: #>>1:;>>- :>a1>nN:  ",
"1y>     #>a1:1>qa>>>f>;;:1;ty>f&tf0t>1t >0 > ;>>1;tyf>f>>>:   1f",
"0 p1&&#t1>t>11:1;>:;:>;1  >0>>>p>>;>1;;1a1:>y  1;> 1>10>:y>;1;>>",
"e>;>1>>;e>:>  1:11> >>>0n> 0>:0:0e>1 >f>>>:0a;;   1fy>;>>>>;:->;",
"h:>->0;>y>1 M1 ;e>>1y>;1l  01:0;y  p >>eeDe1>>5eet>>f>1;> >1>t 1",
">>&;f>>:>>1>  :>yfy:;>0;>-a y:j: >e ;>91   1:>>>a>1>1y>p>>>;>>>:",
"1>>1ye&p>-;>;>1;>    e0e1:>y f:1ef1>>10>>;>tee1a;a>a;;j   1;>1>>",
">9;:0-1:11;>>at0 VM>> >&0>>f >>00tef>p>j-t>>   1:>>ty; VNN >;::>",
"-;;l1>11;ye&:11: >1O. >e>:a>::>>>yyfhf:>f;  >1a>1>:>a; 6v=1 01>d",
"a>;1>    1>1>>;>-    >0>>;11>>:01  f1>>>  ;aft;a;: 1>>:     >ff>",
"d:>te ly1 >:; >;>>>1a:h1;>y>-:;1>>>:>y  >yf>;e::jt:>;>:p>;a:1 q0",
"f1p>> 1a>y:;>0; >>>t>>1>: M>#:>;  p>> ;>;e>0  11:f:>0:t0101>>0i>",
"yq00 t>1t>:>t01;>::eat0>;   %a10:y 0 >:0>yq NA 1>0>t1>g:>>:>>>>>",
";>  y>>-p0  ::;>:0>>e>a>>>1::>>:0:1 >t>q>;1>  #1>0;>>11t>;>  1fe",
"&>>; ->>;1 # 1>>;1>1&;p0>;>10>e1::af   p>>:;1:>>jt;aNc;>t1y> #;>",
">y:1 >>eh:    ;>;q;;-;>1>aj1>py1:>;ty>t >0>;>->1>e01X  0;>;;;>y>",
">>h>>  :>1>1>0;1d:>>1>p1&>>100->>>;;:tt>  00p;  p>a>:5>>01>>;>>>",
"1;>::0y 01:>1;;y>1;;i>>j>>>    1>>:;#:>->>    0>;>>;>>:>:0;- q00",
":>10 ;>e e:>;:;1::>>1>:y>>: 0>>>>;   >>;>>a>a>>p1:t>0>;;>;;>1>:>",
">>>at>>a0 >:>;- &>;-f>;;p>y h>-10 NNl 1>;Cfe1p>y11>>p  :>>>>:t1y",
">e1    ;1;       >>1   >:> >a;t> NNz1 10:>>a0;> >01t Nl 1:pyq0>:",
">> NNga q>> i:;;:t> vNb 0g>t1 >> >>=>   >:;;>  >-;>::  #;:>0>>:e",
">>>    >>qt> 1;>;:> >>1 +>ffga:>>    @e;     1;t>hf11;:>1t0  ;>>",
">s>e;;0>>;::; 1>;:>p   00>>>0;1:::1e:>e>::>>9>>>:>>>;0>tf: N% ;>",
"1 0>>ee::>>y:y:y>>111ayat>>1101>   yp:>->yp0:;>>0  >j:1;;;> ## i",
";>1:> 1-   >>:;>10>;0y1j1f N >>>1>: 0> eay0p>>>> NA ea>>p0>:  t>",
"f>>>1>0 CNx >pa:>>:1::>py>e :1>p>>1>  y :;:>>>>f *>o >:>;11>0 ;;",
";1a01>; >=>   f1ay0>>>;>10;>:1::e;>1;;1p ff> 1>>0   1;:> >>11> >",
"    t;pa    10t>>0e>>> j :>>8t 0>j:>:0:p: >>>:0t>;>yh>1:;h>:>:; ",
">>1:>>y>1h>10>;0> a>h:   t1>0>e:1>>>>1:>>f  e1>1>>1;1>;:>>1:1>c0",
">>t:>1>y-;>>::>>>: ;;>>;;t>>   >:>>;:>;>1yad >>y>e>; 0>s>    ;:;",
";>>:;>a;a>::0:1 >;* >:>>>f  ;;1 1>; >>y>1;yg>>>ht;> 1>0h ANN1 :1",
">;e1   >> :1>f: 0;:   :>  1>t>1y>:   >>>N>0f>1>t0   1a09 NV1> :>",
"0 > CN> >>1>;;0 00>::>  0:tj> ;;>y t  0>-;::>>:- ;:> >:>f    #yy",
"> 1     >0>>cc ;>00>>>e -;>0p>:>>:: >>>a1::e;>:t >:>: e;;>-::>:>",
"   >>1ey>00:1 ::>>;&>>> 1>e1:;f1>;1-t> 1   0a0:;; >1>a  -y01:1  ",
">>h :y>&1>1>;1;>1>>>>>>>&:y;  >e >;i;10 SNV >10:h>  t>tf t    >a",
">01> :>;;;0>>t1;>1-0:e>>10t0 &;>>y>00>> MM >&;:>>eN1 >>>: >>>p1>",
"1>;> 1;:>t>:::::>1> 1>t>a;>>>&>1q0q111>;  1  ;>1>>  >>1j1>>>>:>a",
";a>y >>1ft>0   :11t1>>0:tt>1ga>;e;>cqfj:;t&1> >;1;>y :;i>>>p1>>>",
":>>t; >11>1 VMN a>:>:> ;;>f0;;11t ay   p>::f; ;1>:;>p ap: q;1t>:",
"   h >>;10 1N 1c 0>:>>y0apjt>1;> 1>;>ffp>:;1:>:;>>:t;:   M      ",
">>1 :t>::0>  0  >0>>e;:>    0a>y;>e1>0>e :>>f>;;0;e>;>9>1:j-;>1;",
">:> >:1;11:>1;1q;>>t>;0> :1  ;y>a>> :>p0>1:>>>-  >t>:>>h;:;;>:>t",
"1911;>>;>f1>e>>1>1te>>:1    #1>>j>;1;:;1>t>a1> Nn p10t;11:0;S :>",
"1>;0>;>>>>:f1>>1e:>>;&y;>:;>f>>;10  a>g >>10;>%  #1;>>:;;;;&  %y",
"ay>0y  :>>1>>>1>t >:;>:>>;>>;>;>> N1 e>:>1>0:>;;>0ej1>0>>jp;&11;",
"qt>* 1> :e>;>;1:1>;>>1:> 0>:>1>>>-   ;a>>0;:e->>;>1a;   :ht>>:y>",
":>:>:  t>>q10t>f;>;0>>10>1>>tf1>:>->;>1>j10f>>>>>>:> V>> ;;>>>>f",
";t>1e;>>:  0>p:>> -p->:10>>>p 0>t>>0;0>>et>: :>>10>a;    :e0>:>1",
"  ;>>;y0:ayif>t>;1t1;;0  tj>t1 1t>>>;1>if10 A >:0y1>>:1:y1:h    ",
";0 ;>:;>>:1>f>;e;:>0;0>0 &s:>p>>: 0;;:::1>>> 1>1:>>;1f>>>;11;>>1",
"  -&::1:;:>e1>  >1t01:a;1>e::;:11y 1>;>:>:>>:>::y  -1e>:>:t     ",
">>11>pp:>:1:1 c1 >1>1>if1>t;j>00::p:j  0a;>1:e0ye>0 f0>0   ;ff>;",
"1ee:>  >>y1yy;  @>>>>>> >1::>>10>>:1 >>> >a9>>>>:>ay8   >0>a>1>;",
"1q1; NC et>>:;f:>y:  t;>;f  ;:01:;>>f>a>>  >>1t C >>1>g>>>a>> ;>",
"1>> MN > yy>ayf>>1> %10>>yvNy t>>10j>  ;>t>>>>;1>> ;:01y:;::>> >",
">:;6  e4 >;>0 >>>1:>;>1011  & y>:>q>: -$y>0>>>1;&% f>> y>a :>>0>",
">>-1>    >ey t f  >> 1:>t1>a>>p;>a0 >e;1>:f>1>>>y;:d;> 01>>1>>>1",
"y>0001y:>0> 00> 1> >;>>>>1y:1;1>>0-1:t1>;1>>>yt>ef>>>> t>:y1>1; "
};
