/* XPM */
static char *Bookshelf_64[] = {
/* columns rows colors chars-per-pixel */
"64 64 241 2 ",
"   c black",
".  c #3A1E0F",
"X  c #132A14",
"o  c #133A1C",
"O  c #173D23",
"+  c #392C36",
"@  c #3C333B",
"#  c #4D1911",
"$  c #601B0F",
"%  c #671F16",
"&  c #452509",
"*  c #4C2C0D",
"=  c #5F2E01",
"-  c #532E0D",
";  c #55310F",
":  c #5C340E",
">  c #4D2D11",
",  c #532F11",
"<  c #5C2019",
"1  c #553212",
"2  c #5B3514",
"3  c #5D3916",
"4  c #593718",
"5  c #5E3919",
"6  c #763D02",
"7  c #682319",
"8  c #75261A",
"9  c #623715",
"0  c #643B15",
"q  c #693E16",
"w  c #633C1A",
"e  c #6A3F19",
"r  c #44353E",
"t  c #79262B",
"y  c #1B4826",
"u  c #1E542C",
"i  c #144738",
"p  c #1B4B3C",
"a  c #1A5C31",
"s  c #284926",
"d  c #2A552B",
"f  c #2C5D2A",
"g  c #33572B",
"h  c #285F31",
"j  c #305A32",
"k  c #1B6836",
"l  c #35642D",
"z  c #36652C",
"x  c #2D6233",
"c  c #2A673B",
"v  c #336534",
"b  c #396635",
"n  c #376937",
"m  c #3D6C34",
"M  c #346639",
"N  c #3A653A",
"B  c #356A3A",
"V  c #3B6B3C",
"C  c #3E7036",
"Z  c #3E713E",
"A  c #7E540C",
"S  c #6B4116",
"D  c #65401C",
"F  c #6C431C",
"G  c #724315",
"H  c #794817",
"J  c #72461C",
"K  c #734A1D",
"L  c #7B4B1C",
"P  c #6E4520",
"I  c #714620",
"U  c #744A22",
"Y  c #7A4D22",
"T  c #7F5023",
"R  c #43622C",
"E  c #416E39",
"W  c #43733B",
"Q  c #45743A",
"!  c #49793F",
"~  c #557C3B",
"^  c #597E3C",
"/  c #4A3945",
"(  c #1E5D4E",
")  c #265A47",
"_  c #245D4B",
"`  c #305D4C",
"'  c #26604D",
"]  c #29614E",
"[  c #376E41",
"{  c #3C6E41",
"}  c #3C7242",
"|  c #256454",
" . c #2B6453",
".. c #2C6856",
"X. c #276558",
"o. c #2A6659",
"O. c #2C6B5B",
"+. c #316956",
"@. c #376955",
"#. c #336C5C",
"$. c #2E705E",
"%. c #31715F",
"&. c #01576B",
"*. c #0E6F67",
"=. c #326F61",
"-. c #326E68",
";. c #2F7061",
":. c #337262",
">. c #387869",
",. c #53434D",
"<. c #564652",
"1. c #594752",
"2. c #564953",
"3. c #5A4A55",
"4. c #5D4E59",
"5. c #5F5059",
"6. c #624F5A",
"7. c #62525C",
"8. c #416C44",
"9. c #427443",
"0. c #4B7A43",
"q. c #487947",
"w. c #537F45",
"e. c #675761",
"r. c #477561",
"t. c #74646E",
"y. c #852719",
"u. c #8A2E1E",
"i. c #8E311E",
"p. c #832A22",
"a. c #8C2F21",
"s. c #912F22",
"d. c #8D3122",
"f. c #8B3528",
"g. c #933425",
"h. c #9A3727",
"j. c #953926",
"k. c #953629",
"l. c #96392A",
"z. c #9A3B2C",
"x. c #963730",
"c. c #9C3E30",
"v. c #A13D2D",
"b. c #A03F31",
"n. c #864708",
"m. c #924E0A",
"M. c #95520D",
"N. c #99560D",
"B. c #884D17",
"V. c #844E1C",
"C. c #83521F",
"Z. c #8D531D",
"A. c #945618",
"S. c #A75C09",
"D. c #B36812",
"F. c #B86B16",
"G. c #824F21",
"H. c #9D412E",
"J. c #845222",
"K. c #8B5524",
"L. c #8D5927",
"P. c #925722",
"I. c #945A23",
"U. c #995D25",
"Y. c #935C2B",
"T. c #9B5E2A",
"R. c #9E4131",
"E. c #A24333",
"W. c #A94838",
"Q. c #996129",
"!. c #9D622A",
"~. c #9B6431",
"^. c #A2642C",
"/. c #A8662B",
"(. c #A4682D",
"). c #B36D2B",
"_. c #BC6D2C",
"`. c #B87029",
"'. c #BB722D",
"]. c #A26431",
"[. c #A46832",
"{. c #AB6A33",
"}. c #B16D33",
"|. c #BA7333",
" X c #CB6E11",
".X c #C57217",
"XX c #C5731A",
"oX c #C9751D",
"OX c #CB791E",
"+X c #D57A17",
"@X c #C25A26",
"#X c #C96B25",
"$X c #CC7522",
"%X c #CD7B22",
"&X c #C7762A",
"*X c #D57726",
"=X c #D27D24",
"-X c #D37529",
";X c #D56736",
":X c #C37432",
">X c #C87933",
",X c #CB7B33",
"<X c #D57D34",
"1X c #B65241",
"2X c #5C843E",
"3X c #63893F",
"4X c #5D8442",
"5X c #5B8747",
"6X c #54834C",
"7X c #538B4C",
"8X c #5A8853",
"9X c #5B8A53",
"0X c #638A44",
"qX c #648845",
"wX c #648C4A",
"eX c #73974A",
"rX c #689759",
"tX c #729851",
"yX c #7AA04F",
"uX c #A3933F",
"iX c #FD9C10",
"pX c #CA832A",
"aX c #D48226",
"sX c #D5832A",
"dX c #DA852C",
"fX c #D88829",
"gX c #DB892D",
"hX c #C98431",
"jX c #DF8637",
"kX c #DE8B32",
"lX c #DF9939",
"zX c #E68926",
"xX c #E38B2C",
"cX c #EC972F",
"vX c #F79729",
"bX c #E38E33",
"nX c #E89337",
"mX c #FAA72C",
"MX c #F9A439",
"NX c #81A34E",
"BX c #F8A640",
/* pixels */
"Q l l             0 e 0 q S           I I U F F F q Y F J e S 9             0 w F F w I           e           q J F F F   Q l l ",
"wX0X2X  _ :.'  .  F F I F q   =.:.o.  J U q J D w F S F F e F e   ,.r ,.t.  0 F J F q F   k.z.g.  >   B c c   : S e F U   wX0X2X",
"s g s   @X;X#X/.  0 0 F F J   O.%.O.          F F q U             ,.2.1.e.  F             t t x.  F   M } x               s g s ",
"s s d   E.H.z.k.              :.=.O.  6X9X6X  F 0 F F   a.i.g.g.  + + @ /   0   .X%XdXsX  -X*X-X  I   ~ 5X5X  d.z.W.d.E.  s s d ",
"l m Q   z.E.z.E.  _ ] _ #.+.  =.:.:.  uXlX*.  F F S 0   cXzXMXzX  4.7.3.7.  D   =X%XsXsX  <X-X-X  3   M M }   j.k.g.k.z.  l m Q ",
"m m 0.  v.k.E.z.  +..._ ] +.   .>.X.  A gXaX  ; 9 9 &   <X-XjX#X  ,.1.7.7.  J   M.N.m.M.  g.g.z.  F   } B M   l.k.h.f.h.  m m 0.",
"! C Q   l.W.z.W.  @...@._ O.  O.O.|   s 6X9X            l.k.z.l.  4./ 2.e.  F   6 M.6 %X  a.g.z.  w   x x M   7 7 8 7 #   ! C Q ",
"! m l   j.z.g.l.  +. ._ _  .  | O.O.  s 6X9X  bX=XdX=X  z.g.s.u.  4.<.4.e.  U   = %X%X&X  l.z.l.  S   B x M   z.g.v.k.p.  ! m l ",
"! l C   k.k.g.z.   .+.'  .'   | O.O.  N 9X6X  bXdXzX=X  E.g.z.g.  3.2.7./   J   n.kX=XsX  z.l.z.  S   [ [ B   z.k.z.z.d.  ! l C ",
"m Q f   W.k.z.k.  +.+.) ) +.  X.=.O.  b 9.6X  dXdXF.%X  k.g.W.g.  <.,.,.<.  4   nX=XaXdX  z.z.z.  q   B B {   c.z.k.z.8   m Q f ",
"m m m   d.E.E.R.  ) ) ] _ _   o.O.;.  9X9X6X  bXaX%X=X  u.E.l.c.  4.7.4.2.  U   BXXXOXnX  z.E.z.  F   { x x   z.z.z.z.8   m m m ",
"m W l   $ u.h.j.  ] _ ]  ._   #.X.%.  rX0.6X  %XgX%X%X  y.z.z.z.  4.,.e.4.  F   nX=X%XsX  y.z.z.  F   B [ h   j.g.l.z.$   m W l ",
"l l l   7 z.E.h.  #.] _ .. .  ..O.|   rXw.9X  %XdXsXbX  g.g.z.z.  1.6.7.4.  F   nXOXdXMX  g.z.g.  I   M B h   g.u.k.W.$   l l l ",
"0X~ ~   8 z.g.k.  _ _ #. ._   O.:.>.  9X0.6X  sX=XoXXX  z.k.g.z.  / 4.4.3.  e   $XMX%XMX  E.u.z.  0   M x }   z.l.z.z.7   4X~ ~ ",
"o y o   8 @X;X#X  +. .]  ._   |  .O.  6X9X6X  sX=XdXoX  u.g.h.d.  6.4.7.r   q   6 sX&XM.  l.k.g.  J   4Xw.eX  7 7 # 7 #   o y o ",
"W C m   8 d.z.v.  +. ._ _ _   >.>.;.  w.9X0.  aXaX%XOX  H.d.g.c.  3.e.2.4.  e   aXdXnX$X  k.z.z.  U   [ B Z   l.z.k.z.7   W C m ",
"                                                                                                                                ",
"I.U.!.^.{.T.].U.^.Y.Q.Y.I.~.K.Y.L.].I.V.Q.~.!.P.K.^.~.K.Y.U.Y.J.J.J.Y.Y.Y.Y.K.P.I.K.L.U.L.Y.Y.J.Y.L.G.K.T.!.!.^.].K.T.P.^.T.~.!.",
"I.I.T.U.(.T.U.T.S V.J.G T./.G L T.I.U.U.U.P.I.U.U.I.T.U.U.U.{.H J.H T }.^.U.T.Q.G q J V.{.Z.I.{.J.L.G }.P.A.U.^.(.U.^.I.T.(.I.^.",
"                                                                                                                                ",
"3 3 w 2 1 1 0 2 3 0 5 3 5 w 2 2 w ; w 2 2 1 1 1 - , 1 1 4 1 * , 3 2 1 , 1 w 3 2 1 4             3 5 w 2 ; 2 5 2 0 3 3 3 2 5 5 1 ",
"w - 1 2 2           - 1 3 * -             2 1 w 2 2             3           5 - 2 5   g.R.d.W.  1 w 5 1 3         3 - 3         ",
"3 2 w w -   aXfXxX  q F w K L   V M N 8.  e F q F F   B B V k   U   <.,./   F e q q   g.z.z.b.          I   O. .  w : S   n b b ",
"P S S I F   dXOXxX              X y O y   1 J q q I   x Z B a   J   ,.,.,.            mXvXcXdX  z.H.y.  F   :.|   F F F   V m V ",
"            @.) @.   . .' ] ..  V V V M         0 0   qXtXqX7X  3   2./ 3.  f.z.l.l.  W.z.f.z.  h.g.8   I   p p           ^ 2XeX",
"  l.l.z.H.  iX=XvX  ] _ +. . .  M q.{ 8.  9X6X  I U   x } d u   e   2./ 2.  z.z.g.u.  u.k.j.h.  O s X   F   O.>.  iXdXaX  n m b ",
"  k.k.c.i.  .XsXxX  wXwXtXeXqX  B x V 9.  8.s   1 3   M 9.V u   w   ,.4.,.  #X#X-X#X  g.E.l.k.  g.l.%   U   O.>.  D.dX=X  b n m ",
"  mXzXoX*X  dX%XgX   .] ] ..#.  N B 9.V   9X6X  U F   M V x y   1   2.5.4.  R.l.g.d.  k.R.k.z.  z.j.%   ;   O.O.  n.N.N.  n b V ",
"  _.$X*Xh.  dXaXbX   .tXwXwX4X  { V V V   6X6X  S F   B x B u   w   2.7.,.  c.a.l.g.  R.z.k.g.  g.g.%   U   %.(   m.XXsX  B n W ",
"  g.z.d.g.  dXOXbX  ) #.] ]  .  B V V v   9X9X  S P   M B x y   F   <.2.3.  W.z.z.k.  R.a.z.d.  d.z.8   w   :.|   A.dX%X  } B m ",
"  z.c.g.R.  %XsXnX  _ +.+. ...  V V M 9.  6X0.  e F   { M b u   S   5.4.3.  z.g.i.u.  z.z.c.l.  z.u.7   F   O.O.  N.sX$X  n n v ",
"  H.j.g.z.  OX=XkX  ) ] _ _  .  Z V V {   W 6X  J S   { x B a   4   ,.3.2.  z.k.g.z.  d.g.z.j.  k.k.8   1   ..:.  N.oXsX  n v V ",
"  x.8 d.g.  nXOXkX  ] _ .... .  V B } M   rX6X  J 9   B V n a   G.  <.1.,.  g.z.l.W.  H.c.g.z.  k.g.8   I   >.O.  F.XXOX  V v N ",
"  zXcXaXz.  dX%XxX  ) ] +.+._   N V B V   d 0.  U q   x 9.B k   L   2.7.4.  k.d.l.1X  y.l.E.k.  z.g.8   2   _ X.  S.sXOX  B B V ",
"  z.k.d.g.  dXnXsX   .eXeXeXNX  } V { b   j 9X  F J   M M V k   0   3.,.4.  d.g.z.W.  >X*X$X-X  k.l.8   U   O.:.  S.sXgX  8.V v ",
"  -X#X-X#X  ` ` 8.   .]  . .]   q.Z Q W   y N   F I   0X2X^ 7X  G   + @ +   u.c.l.v.  z.E.z.k.  z.g.8   S   | :.  6 M.m.  4X4X4X",
"  g.l.z.z.  sX&XdX  _ ]  ..._   { v V q.  E 0.  F q   x B B c   F   3.4.3.  a.l.z.z.  l.z.z.l.  c.z.8   ,   O.X.  S.gXsX  M b B ",
"                                                                                                                                ",
">X:X>X:X_.:X>X<X>X>X:X:X>X>X|._.:X>X>X:X'.:X'.|.`.:X:X>X'.>X).>X}.`.`.>X>X:X>XjX<X>X).'.>X:X|.:X_.'.'._.).:X>X)._.>X'.&XhX>X'.U.",
"V.L V.L L ^.^.I.I.T.^.q C.C.G J L.G H B.I.I.V.U.^.(.{.!.F L L.^.U.A.T.Z.I./.V.L L G P.{.I.!.I.Z.G C.I.U.{.G C.V.A.Z.!.L J U.}.(.",
"                                                                                                                                ",
"2 1 w 1 2 3 5 1 2 1 2 3 w w 5 2 2 0 * w 3             2 1 w 3 3 3 1 0 0 w 2 3 2 2 1 2 1 2 1 1 3 2 3 ; 3 3 1 w 3 2 w 3 3 2 5 w 1 ",
"; 3 1 3             - 1 1 3 5 - 2 1 F 5 w   | O.o. .  1 w 1 3               2 2 1 5 1             3 - 5 2 2                     ",
"I J F q   R E m !   J q F F F         q J   O.| =.:.  J I 2 3   hX%X=XbXvX  2 1 > D q   O._ O.(   e F I 0 q   b V b 9.  z.l.E.  ",
"2 w 0 1   m b l E   U F U e 0   X.O.  Y K   &.&.&.*.  q P q K   sXsXsX$X+X  e P F F S   O.O.X.|   q S U F J   n n l Q   z.z.z.  ",
"          ! eX3XeX  J.J J S Y    .:.  S F   -.r.#.@.            #X$XxXxX+X  1 > 1 & &   hX%XOXF.  1 2 w - F   u a 6XyX  8 % <   ",
"W.g.z.z.  g s d s           F   | O.  q U   pXhX&XpX  b M M x   `.aXdXgX+X        q F   #.O. .(         w F   d g d N   7 % 7   ",
"z.d.h.j.  v m b m   zXzXaX  U   | o.  U F   O.O. .X.  V 9.h }   dXsX=X%X X  2.4.  w 3   ;.:.:.:.  kX%X  F I   tX~ yXE   l.d.z.  ",
"=X<X-X$X  E W l m   bXsXkX  F   | %.  0 Y   O.O.O.:.  wXwXqX2X  gXXXXXgXD.  7.t.  S F   O.#.O.O.  %XaX  U 0   V V v f   g.z.l.  ",
"z.g.l.z.  b m Q m   M.M.N.  F   O.X.  F S   O.| #.$.  x B B M   dXdXsXdXD.  7.3.  - J   X.O.O.O.  gXdX  U J   b v v f   g.g.a.  ",
"E.z.g.z.  W l E W   sXD.n.  F   #.X.  w ;   ..O.X.O.  M f B v   &XsXsXaXD.  3.,.  U U   O.:.o.|   M.M.  F e   m b W V   y.E.k.  ",
"g.z.a.g.  W m m l   aX=X%X  K   O.O.  F 2   ..O.%.:.  M B B B   sX%XsXaXD.  2.<.  J e   O.| O.O.  dX%X  0 P   9.v 9.m   z.l.z.  ",
"z.z.g.g.  E m m l   sXgX%X  q    .O.  0 J   O.>...:.  M M V B   pXaX.X=XS.  2.,.  q U   :. .O.O.  aXXX  J U   Z W f V   f.l.g.  ",
"g.z.R.h.  b m m l   %X%X%X  S   O.O.  F q   | :.O.O.  { v q.}   %XsX=XdXS.  2.3.  q S   O.O.:.O.  sX%X  e I   B V n q.  z.k.g.  ",
"l.H.y.g.  g W m l   sXbXkX  1   | =.  S F   :. . .O.  B x B B   sXdXaXdXS.  ,.4.  e P   :.( X.O.  kXaX  1 1   B 9.V q.  z.k.z.  ",
"f.E.z.v.  C l l E   kXaXkX  :   ( |   S 9   o.O.:.:.  M M B B   OXkX=XXXS.  ,.3.  3 5   p i p i   oX%X  F U   b B B 0.  d.g.g.  ",
"j.g.l.a.  l W l Q   sXbXdX  S   >.:.  w F   %X`.fXhX  ~ 4X4X2X  M.B.= n.+X  3.<.  q F   i i i i   sX%X  U U   c h h V   . # 8   ",
"z.g.z.g.  0X4X0XtX  aX%XsX  :   O.O.  F F   #.:._ >.  v B x B   aXXXkXaX+X  4.,.  > *   X.O.O.O.  sXkX  U S   V v V W   R.l.g.  ",
"z.E.z.z.  V m m !   dXdX=X  1   O.|   e 0   O.;...>.  x B B V   dX=XoXOX X  3.<.  q U   ..O.O.|   dXaX  9 1   Z B V 0.  z.z.k.  ",
"                                                                                                                                ",
"U.U.U.U.I.I.U.U.T.U.(.U.{.^.!.P.Q.[.U.Z.^.I.I.Z.V.H Z.[.{.!.!.!.U.{.(.{.T.!.Z.Z.^.).}.}.I.^.T.[.A.U.!.U.T.U.T.U.U.T.{.(.I.U.I.P.",
"I.Z.P.I.P.I.!.!.!.!.I.!.^.I.U.U.!.^.(.K.G L L.J.L !.!.Q.!.Q.^.U.I.^.U.I.!.I.!.U.!.!.^.(.^.^.!.!.!.!.I.^.{.^.B.I.!.[.U.(.P.I.^.T.",
"                                                                                                                                ",
"        3 2 - 1 3 2 - 1 , 1 2 2 2 2 - 3 - ; ; 0 , w 1 2 w * 1 1 * , & 1 * 1 , * , * 2 3 1 1 0 5 3 w w 5 9 0 w 0 w 0 w 3 2       "
};
