/* XPM */
static char *Bricks_64[] = {
/* columns rows colors chars-per-pixel */
"64 64 140 2 ",
"   c black",
".  c #561C05",
"X  c #6F1F09",
"o  c #63260B",
"O  c #71250F",
"+  c #75290F",
"@  c #7C2E0E",
"#  c #742711",
"$  c #752C14",
"%  c #7A2E15",
"&  c #762E19",
"*  c #7A2E18",
"=  c #7C3116",
"-  c #76331D",
";  c #7C321A",
":  c #7B3622",
">  c #812F0F",
",  c #80300E",
"<  c #822E15",
"1  c #833415",
"2  c #8A3516",
"3  c #853817",
"4  c #8B3916",
"5  c #83351A",
"6  c #8A361A",
"7  c #86391B",
"8  c #8C3B1C",
"9  c #913615",
"0  c #933A15",
"q  c #9A3F17",
"w  c #94371A",
"e  c #923C1D",
"r  c #9B3D1E",
"t  c #813622",
"y  c #853C22",
"u  c #8D3D21",
"i  c #943E21",
"p  c #993F22",
"a  c #8D411F",
"s  c #9F4517",
"d  c #94411D",
"f  c #9C431C",
"g  c #A94315",
"h  c #A2461D",
"j  c #A4491E",
"k  c #AA4B1F",
"l  c #B24C1D",
"z  c #8E4121",
"x  c #954123",
"c  c #9A4324",
"v  c #9D4923",
"b  c #944429",
"n  c #9C4529",
"m  c #91492D",
"M  c #9C492A",
"N  c #A24522",
"B  c #AA4723",
"V  c #A54B23",
"C  c #AA4D25",
"Z  c #A94F25",
"A  c #A84C26",
"S  c #AB4D27",
"D  c #AC4C25",
"F  c #AC4F24",
"G  c #A1462A",
"H  c #A94728",
"J  c #A14A28",
"K  c #A44C2A",
"L  c #A0492C",
"P  c #A94F29",
"I  c #AC4E29",
"U  c #AC4F29",
"Y  c #B14E24",
"T  c #B04E27",
"R  c #B14E29",
"E  c #A75126",
"W  c #A95027",
"Q  c #A95327",
"!  c #AD5025",
"~  c #AF5024",
"^  c #AD5126",
"/  c #A75229",
"(  c #AE5228",
")  c #AD532B",
"_  c #AF522B",
"`  c #AE532B",
"'  c #AF542B",
"]  c #B25226",
"[  c #B35326",
"{  c #BA5525",
"}  c #BC5927",
"|  c #B15128",
" . c #B0532A",
".. c #B75329",
"X. c #B2542B",
"o. c #B6562B",
"O. c #B1572E",
"+. c #B3572F",
"@. c #B5552C",
"#. c #B7572F",
"$. c #B8552A",
"%. c #B9552C",
"&. c #B9572E",
"*. c #B6582B",
"=. c #B5592D",
"-. c #BD5A2C",
";. c #A15030",
":. c #AC5439",
">. c #AB5B3A",
",. c #B55531",
"<. c #B95633",
"1. c #B65931",
"2. c #BA5935",
"3. c #BE5D3A",
"4. c #BF6234",
"5. c #BD6038",
"6. c #C25D2D",
"7. c #C25E32",
"8. c #C15D3B",
"9. c #C5612F",
"0. c #C9622F",
"q. c #C66232",
"w. c #C86432",
"e. c #C96435",
"r. c #CA6434",
"t. c #C86537",
"y. c #CB6737",
"u. c #CD6936",
"i. c #CE6837",
"p. c #C56338",
"a. c #CD693A",
"s. c #CF6C3B",
"d. c #CB693C",
"f. c #CF6D3D",
"g. c #D26C3C",
"h. c #D7703D",
"j. c #D26E40",
"k. c #D47040",
"l. c #D97343",
"z. c #E07A4A",
/* pixels */
"                                                                                                                                ",
"f.i.w.y.s.z.y.d.y.V       8 6 i 0 8 u c L x p M i x         P V A q 0 f _ h f a V E V       i e i 8 x b u i 8 2 i i x M       f.",
"| W A A D #.' J V V A   e n i c b i n c e x i x c e n     A 8 | | V _ A | V #.V +.V V /   c n = i c i % n 0 i c c i x e x   ..| ",
"_ _ o._ #.W ^ A o.V A   e p p c c u c e c x 7 x 6 x i     h D A / A B _ U h j A f A | |   c x c x c i e c p i 8 i n e n c   | _ ",
"k A #.#._ o.^ &.*.A V   N c x c n n n c n e c c c c 8     D =.+.| _ | A | h +.A ^ D W _   n x c e 8 n i 8 M 8 c i x i i i   _ k ",
"_ P #.P ..D +.V _ #.|   0 c c r J i i i c e 8 6 0 r 8     A #.v ] _ T $.A ^ o.#._ ..A _   e e x c i i n c x c c i x i p n   | _ ",
"#.W | o.U 1.| =.A +...  X n i x i 8 x u x x 8 7 i x n     _ A _ ^ _ N ] W V V W #._ V /   8 8 c i c p i p x c x 8 G i 4 u   ^ #.",
"d 4 , 4 4 8 4 y 4 e       % $ $ % % * $ = ; + ; & =         1 1 1 8 8 8 e 4 x 8 7 4 4       : - - 5 ; 5 t - ; - : y t ;       d ",
"                                                                                                                                ",
"N X.J K   A V K A _ W h f +.W V P _ _     { y.j.g.7.i.g.a.y.&.s ..j s     N c f r 8 0 9 9 0 e i i i x e     V V j h h h k D ] N ",
"5 p i L   +.+.=.y h N A V V D D _ W ]     ^ W =.^ J D A j #.J _ +.X.+.    c n x x 8 e G c x c c 8 c n c     &.^ W A | A X.A ^ 5 ",
"e x 8 z   f D E ^ D A D D A A | A | A     V V v _ D D &.f | _ K | ' V     c c c i i i p c 3 c x i c i c     _ W D V ] W V A V e ",
"e e e :.  W +.] h #.D V ' _ | A | V W     | A A ' P +.A V V _ ' ^ T |     i c e c e c n x i c i c c i x     V A V V =.W W A V e ",
"c e i M   _ V D W A V #.K A j D j A W     ^ A _ D V V D | D V | =.j W     x p x i c e c c c 8 x i % e c     ^ ' A _ A V A | | c ",
"x M e y   V &.| _ +.] ^ A V ^ V D A V     W o.W A X.A W V D D A h o.D     c i 8 x x c i u x e e c c 8 c     _ ^ $.B | W _ U D x ",
"; = %     2 e e 8 i 3 2 = 3 2 8 4 1 z     2 8 8 3 2 3 3 8 3 3 8 8 8 x     ; $ % % = ; ; $ % * 5 = 5 $ t     x 4 8 3 8 2 6 i 8 ; ",
"                                                                                                                                ",
"w.g.a.g.l.6.^ j ] V       x 6 8 3 r 9 9 _ 3.p.,.,.8.        w.-.-.9.i.w.w.i.w.i.y.q.q.      j.6.i.y.7.7.y.g.k.g.a.6.y.y.      w.",
"v A P _ &.P ^ D V j |   G i i x i i c e i i e p c i x     A | | _ V 1.#._ ^ _ _ A V _ V   h V _ #.#.A &.V A V _ ' ^ +.A ^   V v ",
"V _ V D W ^ A ^ | J V   2 e 8 n e c i 6 x i i x i e c     o._ _ A W V A +.V D ' A j W K   h D ] A | U ^ A W A ^ A b A V N   =.V ",
"_ X.+.] A V | W W | _   r n i x n 8 n x c i x c i i i     _ f V V A V V V +._ A v _ _ '   N D X._ _ | A A ^ _ W o.' _ _ V   _ _ ",
"' f A V V | | | +.| V   r e 8 c n n 6 < c c p n x x c     V D ] W J s V V ^ _ j D _ _ A   j +.d V #._ A _ D ^ V A _ V A _   ,.' ",
"^ V | D f V _ | A ' V   w u 8 c i i i c c i i e i c i     ] A A | V A V h | W A A A A J   | +.| | v D A #._ P V D A f V j   V W ",
"4 4 3 e e 8 e 2 2 1       # ; ; O % $ $ * * % # % =         = 8 8 4 4 6 4 4 8 8 1 4 e       8 7 a z 7 7 8 3 z 1 > 8 4 8       4 ",
"                                                                                                                                ",
"T U A       g.y.g.g.q.y.g.4.6.$.$.h.        0 v <.8.7.#.5.U ,.2.#.N         0.w.9.-.{ { } 6.y.g.q.i.a.        c 8 0 N <.8.2.1.T ",
"x i e m   +.V T D | ^ A _ | V ^ 5 h A     x x c e x L i G c i i c c e     V D V ^ D V J o.| A ^ A ^ D '     e M n c c i x e i x ",
"e v x y   V +.A A V W A D +.#.A A A W     c i 7 n x i i c 8 e e x e d     A | A A V X.D _ A | W ' ^ V |     c c n c % x 8 x i e ",
"c y i ;.  ^ | A 4 A W #.W | A | _ _ A     i x x i c n c i c n d i p x     V _ V D D +.+._ A V ,.A A V A     c 6 e 8 e x i i i c ",
"4 5 c b   P _ V A N V +.D W U x ^ _ ]     c n G x c x p c 8 c x 5 i i     X.&.| | ^ ^ +.J A A h V _ #._     c 8 b c c 8 p n c 4 ",
"c c c b   V W | o._ h W | W _ A U W v     e 6 x p i c c u c x x e e c     #.| V j V V P | _ ^ _ | s V #.    x c 4 e c i p i e c ",
"$ = =       1 8 1 1 1 4 2 1 e 8 d 8         $ % = % $ * $ ; & $ = #         8 3 1 8 3 2 7 8 4 3 8 4 7         ; = $ $ * = $ $ $ ",
"                                                                                                                                ",
"T X.N 3 u b b 6 8 p       | j k D $.a.y.y.] d V V h ^       e 6 N <.2.3.2.3.,.,.1.2.N       A T 6.y.h.y.h.a.7.} T ] q.-.      i ",
"x 5 p 8 e c c J 8 p i   D V _ D _ V W V D V _ 1 P | _ x   c i c 7 e i 6 x e 8 e c n c x   ^ _ P A A | V #.| A ' V | V | j   x 8 ",
"e c p x e c i e p c i   T W A V W h A V ^ v _ W _ +.J 4   8 c x v c i n c x e c x e c p   | D =.] V V | W ^ A | f ^ _ T D   i c ",
"c 8 x c x 6 c i c c e   T X.V o._ V V 1.P #.V P _ V | o   c c e 5 3 i x i 8 e i p r c i   ] ^ ^ _ _ ^ ^ | | _ V V A | | V   e c ",
"4 1 x c b i p e c v c   g V _ D 7 +.| V h | P V A h *..   i i 6 x c c i i x n x 6 8 8 x   A ^ V V v V K | ^ V D D D _ ] o.  c M ",
"c e x i e c x c x c i   2 _ V V ^ A V P A U A A h V P o   x i n x e 8 x n p x L c x 8 e   W J | A W V A A A ] f j | h V W   u c ",
"$ $ & % = = ; $ $ &       4 3 7 8 8 1 @ 7 7 4 1 7 8 y       ; ; % % $ O % * % = $ $ *       7 ; 3 7 8 3 8 4 4 8 1 1 8 e       5 ",
"                                                                                                                                ",
"V }         i 2 0 0 U X.2.j.2.,.3.8.        g.a.k.g.w.} { a.7.6.6.-.        y.i.a.i.i.6.} { } 7.6.w.6.        j s V k T $.o.D V ",
"D A V     i 6 8 i r e i i x c e x e n     A V V D N A V _ v W | D | ]     _ A V V | A #.$.V A | W D j _     A _ W V A W ^ K 0 ^ ",
"D | P     i e e J n c i x x p i x n c     D A V ,.o.^ | o.] | N +.V D     | o.A T _ A ^ ^ 2 D f | P V o.    N D W D +.+.| W o.D ",
"^ | o.    p e e c e c i c u e c e i i     D f V V A _ V _ V =.| ..W _     V A _ A W A #.A | V D A D A _     _ A V V D V | ^ | ^ ",
"W V #.    x x 3 c p n p i 8 x G x n c     +.&.,.| ^ #.#.| _ D +.X.W ]     #.| _ ' / V | W A V N 8 _ V #.    #.V E ' A #.*.4 V W ",
"U A |     n i u i n i x n p x i e c e     V A ' A | A D D ^ V D V A |     h A U E V ^ V T A V f A N ^ W     A | D A #.V U D D U ",
"e 3         = $ = ; $ * ; $ = = $ &         4 8 4 5 8 8 x 3 z 4 8 8         4 x 8 z 7 6 8 8 u u 8 x 2         x 1 7 1 = 7 ; 7 e ",
"                                                                                                                                ",
"^ q.7.6.6.} 6.w.w.q.    >.,.R &.T A R T D U T B #._         -.-.i.g.y.y.w.w.g.q.y.l w.      G N U 8.7.P ,...U D B V B V       ^ ",
"U #.V | D o.B W | | +.  r e c d c i n x 8 c 8 x e p e     _ V D V _ ] ] ^ ^ _ j +.+.| _   x i 8 c x x c x i c c e G x 8 2   D U ",
"^ ^ V j / #.D A A 1.D   0 e c e p c e x 6 c e c b n c     J A _ _ V | _ A P A A ] | V J   4 i i e x i e 8 c e c e c e c c   | ^ ",
"_ _ V D W W _ d D V ]   r x e n 8 c i e c i x n 1 n e     _ _ _ v _ h D h A | A ' D +.|   i x i c c 8 i c c c c c 8 i x 8   A _ ",
"..^ | | | f ] A V K A   r c 8 e i p e c e c 4 b c c c     1._ ^ ] A D _ A #.^ P o.V W A   x c ; i c x i i c p u n x x x c   D ..",
"U o.h V A V _ _ V V |   H x x p 6 c p i c 6 c i i c c     | D =.^ | ^ _ V A A | _ A #.^   6 i x n n x 0 x x c i n x n c c   ^ U ",
"e 8 8 7 y 8 = 6 y 5       * # ; # # = % # ; % = ; ;         u 8 7 u 7 1 = 7 5 7 3 8 8       % # * % $ $ = ; $ % * & = =       e ",
"                                                                                                                                ",
"#.U 3.      6.6.7.} 6.} 7.y.7.g.g.a.        A <.U 3.8.T #.B T B U V         a.q.6.&.6.q.{ $.6.q.6.a.k.        3.T ,.<.#.2.,.<.8 ",
"x M c c   _ D V D _ _ _ _ V | V P V V     e i 7 i x x 8 x c c c n i e     ^ K A #.A +.+.A ^ U V V _ | D     x c i x c c v p e e ",
"x c c c   V | | | D +.D A V T W _ #.A     0 8 i i n 8 c i i c c i c i     _ n _ A +.A | _ ] D A +.^ j |     K c i x c x c c 4 e ",
"p i x c   D A A P A +.A #.| | V W +.A     x c e i 8 e n c x v i i G c     ^ h V _ ] o._ V D U #.V P W A     c i e % c i x e 8 e ",
"e 8 i i   V _ ] x | V _ | V D W _ W W     i c p = ; c n c x c e $ x i     V | V | _ +.#._ | _ o._ _ V +.    6 p x n d n e i x c ",
"b c e i   _ ,.V J A _ #.T ^ ^ | U V ^     x i i c c x c i x M e i c c     1.A | V V | W A V _ | _ J / V     i c c i e x i i e x ",
"% # <       6 8 8 8 2 2 2 8 8 8 4 8         $ = % ; # # ; # = % $ %         8 3 7 5 8 8 4 3 i 8 8 x d         5 ; = ; < 1 < + < "
};
