/* XPM */
static char *Brick_floor_64[] = {
/* columns rows colors chars-per-pixel */
"64 64 157 2 ",
"   c black",
".  c #231A07",
"X  c #251D13",
"o  c #2D1D14",
"O  c #2D1E19",
"+  c #2E2216",
"@  c #26231C",
"#  c #2C241D",
"$  c #2D281E",
"%  c #322215",
"&  c #32251C",
"*  c #39261C",
"=  c #32281E",
"-  c #262523",
";  c #2C2622",
":  c #252924",
">  c #2F2924",
",  c #242F2E",
"<  c #2C2C29",
"1  c #312621",
"2  c #322B24",
"3  c #392C24",
"4  c #322D29",
"5  c #392E29",
"6  c #363125",
"7  c #3A3227",
"8  c #35322B",
"9  c #3C342C",
"0  c #3E392E",
"q  c #353532",
"w  c #3D3631",
"e  c #3E3932",
"r  c #3D3A38",
"t  c #652407",
"y  c #6C2205",
"u  c #692709",
"i  c #6C2B0D",
"p  c #732707",
"a  c #792B07",
"s  c #752C0D",
"d  c #7A2D0D",
"f  c #6C300F",
"g  c #7D320D",
"h  c #672B13",
"j  c #6F2E10",
"k  c #742D11",
"l  c #792E11",
"z  c #673117",
"x  c #6C3115",
"c  c #6E3219",
"v  c #753214",
"b  c #7C3314",
"n  c #73361C",
"m  c #7D3619",
"M  c #74391E",
"N  c #7D391A",
"B  c #403326",
"V  c #41372D",
"C  c #42392F",
"Z  c #413731",
"A  c #433B32",
"S  c #493E36",
"D  c #483E39",
"F  c #783721",
"G  c #753A22",
"H  c #7A3D23",
"J  c #7E3F28",
"K  c #474037",
"L  c #4A4136",
"P  c #43433D",
"I  c #4A4239",
"U  c #7D4126",
"Y  c #7F4028",
"T  c #893407",
"R  c #84340E",
"E  c #8B370B",
"W  c #8D390E",
"Q  c #943B0F",
"!  c #823615",
"~  c #8B3711",
"^  c #843915",
"/  c #8B3C15",
"(  c #823619",
")  c #843A1B",
"_  c #8B3D1B",
"`  c #933E13",
"'  c #903C18",
"]  c #913F1A",
"[  c #873D21",
"{  c #8A3E21",
"}  c #8D4117",
"|  c #87411F",
" . c #8D411B",
".. c #8E411E",
"X. c #934215",
"o. c #954115",
"O. c #954117",
"+. c #994316",
"@. c #904018",
"#. c #964519",
"$. c #93431C",
"%. c #93431D",
"&. c #92451F",
"*. c #94441C",
"=. c #994519",
"-. c #9B4419",
";. c #99471B",
":. c #9D461B",
">. c #98461F",
",. c #964A1F",
"<. c #9D4819",
"1. c #9D491D",
"2. c #9F4B1F",
"3. c #A0471C",
"4. c #A04A1C",
"5. c #A24B1D",
"6. c #A14D1D",
"7. c #854122",
"8. c #8C4122",
"9. c #8F4023",
"0. c #8C4222",
"q. c #82432B",
"w. c #86482F",
"e. c #89482F",
"r. c #934522",
"t. c #994620",
"y. c #964821",
"u. c #964923",
"i. c #964A25",
"p. c #994820",
"a. c #9C4B23",
"s. c #9A4A25",
"d. c #944929",
"f. c #964C2B",
"g. c #9E4E28",
"h. c #A34921",
"j. c #A34D22",
"k. c #A44D21",
"l. c #A54F24",
"z. c #A94F22",
"x. c #AB4F23",
"c. c #A24E29",
"v. c #A65022",
"b. c #A45025",
"n. c #A65224",
"m. c #A85122",
"M. c #AA5225",
"N. c #AB5225",
"B. c #AB5327",
"V. c #A6532A",
"C. c #AA5629",
"Z. c #AC5529",
"A. c #AD592A",
"S. c #B05627",
"D. c #B0572A",
"F. c #B1582B",
"G. c #B15D31",
/* pixels */
"> > > > > > > > > > 4 7 9 > > > > > > > > > > 2 1 ; > > > > > > > > > 5 e ; > > > > > > > > > > 2 ; > > > > > > > > 9 C 9 ; > > ",
"> > ; > > > > > > & 0     @ ; > > > > > > > > > > 2 ; > > > > > > > =     e ; > > > > > > > > > > > > > > > > > > & 9     7 > > ",
"> > ; ; > > > > # 7   ) )   # 2 > > > > > > > > > > 4 < > > > > > 9   ) ..  Z - > > > > > > > > > > > < > > > > > 9   ` j.  5 > ",
"> > > 4 ; > > & A   ! ^ v !   4 < > > > > > > > > > > > - > > ; A   ! _ _ !   w - > > > > > > > > > > 2 > > > + Z   ` l.M.6.  4 ",
"> > > > > < & S   b b b 9._ )   e > > > > > > > > > > > 8 & 3 A   %.y._ _ g i.  V & > > > > > > > > > > 9 4 @ 9   o.:.1.:.1.l.  ",
"  > > > > 9 A   ) _ ) b ! _ _ !   7 2 > > > > > > > > > > 9 A   @.! ' ) / / *.s.  C & > > > > > > > > > > 9 Z   1.5.1.5.C./ n.k.",
"> > > > r D   d.b 9.) v s 9.)   & 8 9 ; > > > > > > > > = 9   _ } %.g / ..~ _   K A 9 > > > > > > > > > w 0   k.=.M.^ X.k.=.<.  ",
"> > > 8 0   b N ^ _ ! i b )   # 7     9 > > > > > > > & Z   ! g ! %._ &.p._   9 4     ; > > > > > > > 7 9   ` n.#.x.=.:.v.`   Z ",
"> > 8 6   ! b ^ ) ) _ b (   & 4   ^ _   Z & > > > > > Z   / >.~ %._ / p.a   & 4   M.=.  4 > > > > > % A   j.j.j.3.6.h.m.1.  ; % ",
"> > 2   9.b ) m ) 9.) d   = 6   [ ) 9.v   9 > > > > 2   _ / V./ c.^ ~ ~   & >   M.1.:.k.  9 > > > & 6   j.M.r.n.j.+.1.a.  w A > ",
"> >   9.! 9.9...b s s   O 2   ( ) ) ! ) 9.  4 4 ; @   _ R g. .r.*.y.s.  & 4   j.v.` +.S.j.  A > # 9   M.=.+.F.6.j.1.x.  q > > > ",
">   k s b s ( f ! !   # 9   b ) b ) ^ ! b m   < Z   / c.a %.%.%.%.&.  3 w   h.C.` :.+.3.V.E   A 9   +.k.M.` v.1.:.1.  q 4 > > > ",
"> ;   r...) 9.^ s   # 7 0 >   b ) b ) ) b _ b   Z >   / / ^  .&. .  & A Z >   o.5.o.k.Z.j.+.k.  C >   5.m.Q +.+./   P 9 Z > > > ",
"> 7 &   ) ) b !   1 7     1 -   b b ) ) s ) ( )   9 -   _ / ) y.  o Z     > 1   =.v.o.M.k.C.` :.  9 #   o.V.5.n.  4 V     9 > > ",
"> > 9 2   b r.  8 A   =.:.  2 -   b b ) ) ) _ ) )   9 >   / '   % S   ! !   ; ;   l.M.1.a.=.:.=.A.  7 2   5.j.  B 9   ) )   4 2 ",
"> > > Z 2     & C   =.+.~ `   2 >   ) b ) b ) ) ) b   7 >     ; Z   9.N ) {   4 =   G.C.:.^ 5.1.+.F.  w >     > C   ) b ! {   > ",
"> > 2 > A 2 2 0   n.6.1.F.=.1.  % >   [ ) s _ b ( ) s   Z & 9 9   ( b _ t m m   9 2   p.6.C.C.M.5.M.:.  9 2 D 9   b b ) b ) b   ",
"  > > > > Z A   v.1.j.h.1.n.=.1.  A =   ) 9.v b d v 9.b   C C   b b 9._ _ ) ( )   7 >   5.x.C.+.x.c.o.=.  C e   ) d ) ! ^ { 9.) ",
"> > > > V Z   5.#.o.j.+.Z.:.h.  # 9 C =   b b ( ) b (   & 9   ) 9.b 9.r.) ) )   # 9 A &   ` =.c.M.D.:.  @ 7   ) ) ! 9.b ) b b   ",
"> > > % e   +.+.j.^ +.=.E <.  > @     - $   ! ! b b   2 9   ) ) b ) b ^ 9.b   $ -     4 =   =.X.o.M.  & 9   ! ! ) b b b l b   A ",
"> > 3 7   ` m.1.,.C.k.n.j.  & -   R s.  > &   ) b   # A   { k ) _ ) b l b   & ;   ) )   4 -   n.l.  * V   ^ ) b 9.7.) ) m   4 ; ",
"> + #   =.k.5.k.V.5.o.+.  % @   y.y.g /   & 1     & C   ) b b ) ) b s b   & >   ! ) ) !   # 2     * A   ) ( ! b ( ) s )   & A > ",
"> #   3.W o.6.m.:.n.`   O :   _ ..^ / b '   ; = & Z   b ) _ ^ ^ 9.b m   o 2   m ! b ^ b ^   2 > 2 4   ) ) ) ) ! ! ! p   @ # > > ",
">   =.l./ j.x.+.=.`   $ 9   %.%.d ~ ^ b ..%.  # 9   9.b b ) b ) ..)   & 9   ! 9.u ! ( 9.9.)   $ Z   b ) ) s 9.g p )   q 9 > > > ",
"> 4   M.+.=.k.X.<.  4 9 7 >   ~ %._ @.~ y.^ @.  # >   b r.! 9.) b   & # Z >   ) ) ) d r.) b _   # >   r.b _ ) _ _   q A A ; > > ",
"> 4 ;   =.M.5.`   4 0     > 1   ^ g.%.%. .r._ y.  2 2   7.p ( [   @ 9     8 2   ! b l d ( i ( )   ; 2   ) ) _ )   4 Z     9 > > ",
"> > # <   C.W   2 Z   m 9.  - ;   g _ ) / r. .@.!   5 >   _ )   2 9   H c   9 ;   ! b m 9.) ( ) b   # 2   b b   8 C   _ /   9 2 ",
"> > > ; ;     > 9   ) ! ( )   # ;   &. .^ *._ %.g.%.  > 2     # 9   N q.H M   7 &   ) ! 7.! ) N ) b   # -     4 9   ..&.! /   Z ",
"> > > > > = 4 9   ! m 9.k ) b   > ;   _ %._ _  .b ..s.  # & 8 9   M G q.M n Y   > 1   _ ) ) m 9.b j b   8 & r #   ! R  ._ _ _   ",
"  > > > > 9 C   ( i d 9.! ) [ )   9 &   _ %.,.a./ %./ _   7 C   H M M G H Y e.U   9 ;   l ) b s b ) { )   C 9   g.s.*.b ' y.@.&.",
"> > > > 3 9   ) _ _ b 9...) _   1 e 8 2   / !  ./ %. .  & V   U M n M U G Y H   > 8 9 2   ) ) 9._ s b   2 9   @.g / @./ / / /   ",
"> > > # C   b ) m d b b b b   2 2     Z 1   )  .&./   1 9   H M q.n h J G c   8 #     4 ;   ^ g ! (   & 9   / y. ./ ^ %. ./   Z ",
"> > X 7   l f.b ( ) ) b )   & ;   =.k.  9 >   ! o.  % 0   N G H q.H M F n   # >   V.+.  9 #   _ (   & e   i.s._ R a.R ~ %.  + & ",
"> 2 L   ) _ _ ! ) m d !   1 -   =.:.=.:.  8 #     & I   w.H U M H N G q.  2 -   1.G.o.E   2 >     1 9   p._ R ^ R g ! ~   $ 7 > ",
"> e   b b b { i.b ) m   # >   :...1.6.o.5.  A > # Z   M G J M q.x n H   > -   +.5.n.1.j.5.  > 1 % 8   ^ g.*._ a.~ @.@.  + > > > ",
">   ! ) b ( ( b ( )   $ 9   +.' 1.` +.=.5.#.  4 9   G M n c J H H q.  8 Z   ` c.1.:.5.3.M.m.  8 C   ^ %./ %.! p.g X.  1 9 > > > ",
"> ;   _ ) l ) b _   - 9 ; 4   M.h.+.1.i.>.Z.`   > >   c H H U n H   > Z w >   1.h.:.k.:.j.5.5.  > >   _ ' ^ %.! ~   6 9 7 ; > > ",
"> # >   9.b ( !   9 7     & >   :.V.5.=.o.M.1.>.  # 4   G z H h   > V     > 4   W o.o.5.C.:.<.<.  @ >   *./ ^ '   & C     4 2 > ",
"> > 8 ;   ) )   r 7   / o.  > &   1.+.:.1.k.=.5./   4 >   U n   > 9   @.%.  > 5   j.+.+.k.h.a.5.:.  $ =   / @.  ; A   b )   ; 2 ",
"> > > 4 2     9 5   / ! @.@.  > 2   Q T :.1.+.o.=.1.  > <     2 9   _ g / %.  > ;   k.F.~ 5.o.' :.1.  + 2     2 9   ) 9.b )   8 ",
"> > > 2 > 2 r 9   ' / ! R s.!   & 2   C.v.k.<.<.~ ,.:.  9 & 2 A   ..g ~ _ @...  > 2   j.o.6.` =.A.h.n.  # 2 4 I   b ) ) b ( m   ",
"  2 2 > > 9 A   %.! _ / a.n.*._   Z #   1.1.v.5.Z.l.l.+.  A Z   @.^ *.@.y.~ r./   7 >   =.+.1.j.+.j.:.n.  7 S   b { ) ) ! b 9.b ",
"> > > > 4 9   ^ _ ~ ~ / s &.a.  # 9 L 2   +.` :./ ` =.  & 7   y.' %.*.' a.9.^   # Z 8 2   >.+.6.=.5.Q   2 9   ) ! b ) ) ) m (   ",
"> > 2 & 4   / / g.p.y./  .&.  + 0     # 2   1.o.M.M.  * A   %.^ r./ / g.a.o.  $ 7     C 2   1.g 6.>.  * 5   s ! ) ( v | ) )   9 ",
"> > > 2    .R R o./ y._ p.  + 9   m )   4 1   ` '   # 9   ~ ,.o.^ 9.&.( &.  2 e   ) !   e 2   ` :.  % A   ) ) ) b b ! b )   & . ",
"> & 4   g @. .g >._ a.'   + 7   b N ) )   4 3     & A   *.y./ a.r.&./ ~   r Z   ) [ b _   9 #     1 9   b ) _ b N ) b 9.  % : > ",
"> >   @._ c._ ..! *./   2 9   b b ) b b )   # = O 9   / _ / ! _ (  .y.  > 2   m ) b ) b )   7 # & 9   ) m ) m _ ! ^ 9.  % # > > ",
">   o./ &./ &./ *.a.  & Z   { ) l b ..9.( s   & 7   _ *.s.R i.@.r.%.  - 7   N ) ) 9.( b ) )   9 9   b ! ) ) ) i.s )   @ 9 > > > ",
"> <   @.R @.) g %.  2 9 e >   ) k ) ..b _ ) )   8 2   #.*.../ @.p.  @ A 4 ;   9.( ! ) ) ) ) )   5 ;   ) 9.b s ) )   4 7 7 > > > ",
"> - >   / / _ p.  $ e     A ;   ) x { ) s v b s   : ;   ' ! / /   > e     ; 2   { y ) ) u ( ( ^   Z 2   { ) ) (   > 7     2 - > ",
"> > ; 2   >.R   & Z   ( )   9 $   b ) ) b i b ) b   # 1   &.(   - e   6.1.  > #   9._ ) m v b b )   e 2   b )   & C   b d   > > ",
"> > > # <     ; 7   ! ( b (   2 1   l ) s ) b ) | {   > 1     2 Z   h.1.p.a.  4 2   ( m ) s ! N ( )   4 -     2 @   ' %.t. .  > ",
"> > > > 8 = & 0   b ) _ ( ! b   9 1   b ) ) ) 9.! { b   8 2 2 C   6.g <.` o.3.  e &   ) _ b ! ! ) ) s   C 2 4 2   g _  .^ %.~   ",
"  > > > > 7 9   b ) ! b ! [ b b   e #   b ) s 9.) b ) [   K A   <.5.:.j.:.m.5.1.  7 2   m v 9.b b ) ! b   Z ;   y.@.i.&.*./ / ' ",
"> > > > 8 5   ) b l _ 9.9.) )   # A V 2   s { b b ) _   2 C   A.6.x.5.l.o.,.=.  = 9 A 1   p b ^ ) 9.)   & 4   ..c.%.y.a.@.b X.  ",
"> > > & Z   l l ) N { ^ 9.(   7 @ > > 9 #   b ) ) 9.  # 9   j.M.+.M.1.` X.1.  # $ > > 9 &   ) b b b   # C   _ _ @.b %.@.~ ~   A ",
"> > & 6   b ..b k ) ) r._   ; > > > > > Z $   s )   9 7   =.o.5.c._ ` 1.M.  # > > > > > 8 &   b ^   # 7   %./ y./ / @.y./   & , ",
"> # Z   ) ! b ) ( b ^ !   $ @ > > > > > > A 1     r A   5.` 5.` y./ M.1.  > > > > > > > > 4 ;     & L   y./ %.y.~ %./ ~   q - > ",
"> K   ) ) ) ) b b ) [   1 > > > > > > > > > w 2 9 8   ` p.5.k.1.n.>.o.  ; ; > > > > > > > > w & # Z   ' c./  .,.%.&.@.  9 > > > ",
">   _ b ) ) _ _ 9.!   # 9 > > > > > > > > > > w 9   o.5.h.p.C.j.=.x.  < A > > > > > > > > > > > A   g y.! ' V.y._  .  < Z > > > ",
"> >   ! b ! ) ( N   2 7 > > > > > > > > > > > > V ;   V.k.n.5._ 1.  e K Z > > > > > > > > > > > 9 >   / b  .%.' /   8 9 > ; > > ",
"> 4 -   b b 7.^   & 9 > > # > > > > > > > > > > > > 2   6.a.m.:.  8 9 > > - > > > > > > > > > > > A -   n.>.a /   4 7 > > > > > ",
"> > 7 #   ) 9.  # 7 > > > > & > > > > > > > > > > > 8 >   n.A.  > Z > > > > ; 2 > > > > > > > > > > e -    ._   # 7 > > > > > ; ",
"> > > 4 :     e > > > > > > > > ; > > > > > > > > > > # <     C + > > > > > > # ; > > > > > > > > > > < >     Z : > > > > > > ; "
};
