/* XPM */
static char *Camouflage_64[] = {
/* columns rows colors chars-per-pixel */
"64 64 135 2 ",
"   c black",
".  c #16240C",
"X  c #1B2A0F",
"o  c #1D2712",
"O  c #1E2B13",
"+  c #1F2D19",
"@  c #30280C",
"#  c #30300F",
"$  c #212E16",
"%  c #212F18",
"&  c #352E12",
"*  c #3A2E14",
"=  c #352E18",
"-  c #233216",
";  c #273817",
":  c #283917",
">  c #25331A",
",  c #29361D",
"<  c #27391B",
"1  c #2B3B1D",
"2  c #353011",
"3  c #3B3216",
"4  c #313E12",
"5  c #3E351A",
"6  c #303E1E",
"7  c #3F381B",
"8  c #2A3720",
"9  c #263D21",
"0  c #2D3C21",
"q  c #303E23",
"w  c #3F3B21",
"e  c #313F28",
"r  c #41361C",
"t  c #423A1D",
"y  c #453D21",
"u  c #493E23",
"i  c #2F401F",
"p  c #34441C",
"a  c #39471E",
"s  c #3A4A1F",
"d  c #2F4122",
"f  c #334324",
"g  c #364826",
"h  c #3C4C24",
"j  c #364529",
"k  c #394729",
"l  c #37482A",
"z  c #3A4A2C",
"x  c #3F5026",
"c  c #3F5329",
"v  c #3E4D31",
"b  c #3F5133",
"n  c #474023",
"m  c #4A4225",
"M  c #404F25",
"N  c #474028",
"B  c #4D4429",
"V  c #414F29",
"C  c #51472A",
"Z  c #51492B",
"A  c #425226",
"S  c #4A5721",
"D  c #4D5822",
"F  c #45552B",
"G  c #48562D",
"H  c #46582D",
"J  c #4A5A2E",
"K  c #545E2A",
"L  c #445433",
"P  c #4A5730",
"I  c #475B31",
"U  c #4C5C32",
"Y  c #505E35",
"T  c #535D39",
"R  c #546229",
"E  c #59642E",
"W  c #5E692E",
"Q  c #4F6035",
"!  c #4D6038",
"~  c #516136",
"^  c #5B6731",
"/  c #5D6933",
"(  c #536138",
")  c #526239",
"_  c #536538",
"`  c #556439",
"'  c #54663A",
"]  c #57663B",
"[  c #54663D",
"{  c #58663D",
"}  c #56693C",
"|  c #5A693E",
" . c #616C35",
".. c #616D37",
"X. c #626E39",
"o. c #636E39",
"O. c #616F3F",
"+. c #627136",
"@. c #647137",
"#. c #63703A",
"$. c #67743B",
"%. c #65703C",
"&. c #68733D",
"*. c #69743D",
"=. c #6B773E",
"-. c #6C793E",
";. c #5C6B41",
":. c #5F7045",
">. c #616E45",
",. c #606F48",
"<. c #617044",
"1. c #6B7640",
"2. c #6C7641",
"3. c #6C7842",
"4. c #6E7A43",
"5. c #6F7A45",
"6. c #647549",
"7. c #707C43",
"8. c #717C45",
"9. c #727D46",
"0. c #737D47",
"q. c #747F49",
"w. c #748046",
"e. c #748048",
"r. c #75824B",
"t. c #76824C",
"y. c #78824A",
"u. c #79844C",
"i. c #7C884F",
"p. c #7C8651",
"a. c #7C8951",
"s. c #818D56",
"d. c #828F58",
"f. c #849156",
"g. c #899654",
/* pixels */
"t./ E   j z g O z 1 0 1 , 1 f   M U U ~ `   1 0 q - z 1 f 1 0 > 0 j f   U A A H U   $.q.4.~ *.9.q.*.*.9./ O.    U U Q `   t.t.t.",
"t.4.    0 L 1 d j 0 f 8 k 1 0   ` H A Y ` F     f f 1 0 f 0 j 0 j > X   ` P M ~ Y (       1.2.%.7.^ #.1.X.X./   J H P | (   t.t.",
"    0 1 0 z j d > O O > > , 0 j       Y J U P Y   - j j f 0 j f f 1 0   U A U A ` L A ! G     y.&.9.@.&.a.E  .*.  P H h ~ A     ",
"j f z f z g f 0 z - > > > > % z j 0 q   ( ~ P Q   f 0 0 > > 1         J P M M   h F Y U H ~ P   4.4.4.^ *.%.e.  Y { A ( `   q z ",
": f z z j z f z z % - % q 1 > q l z z z   A U [   0 < z j 1   ` ` U ` U P     r       U H [ U   #.J 9.1.4.d.  J P P J P   0 f 1 ",
"f 0 v f k 1 z j j z j O - 1 8 - I 1 f 1 1   H   > , > 1 j 0 z   U A J `   t y B t y *   P A H   4.Y 4.u.    ` U J J U (   1 j f ",
"        f v j L 0 z f z - 0 > > > + > + ,   A `   1         0 d   U h J   3 5 t n y 5 t   h H   1.q.4.#.  P Q U H ` J A Y       ",
"  H h U   f 1 0 f k 0 1 1 > % + , > , - > 0   | I   [ Q U J   > >   J ~   r n y y t 5 5 r   V   w.*.$.w.  Q         H P ~ M U U ",
"  A U F   f 1 f f , 1 - > % 1 + > > 8 q 0 >   J ;.F A P ` J ~   f   J h p   u y 5 B t y t   U   u./  .e.e.  y y t y   ~ P ~ P F ",
"        f 1 f > , 0 0 O o q - - 8 > 0 o O   U ( Y         H <.    P F F P F   u n y t y 3   ~       4.4.  B B y y 5 y   J ` ~   ",
"  q 0 z f z 0 0 - X o O O % % > >         U Q |   X.*.1./   P ( ( ( ;.~ P ~ |   y 3 5 B   U ` ` F H       5 C t t t u   U J   j ",
"  f > - 1 - > > > > % > > % % , %   J J F J A H    .#.s.S 2.  U ~ ~ H L U ~ U |   5 r r   h ~ U J U J U (   y t r t t y       0 ",
"3     z z q z > X 0 - % 1 , , - , +     H ` F H   4.s.^ X.*.*.  U J ` | Y       u 5 y B y             U _ M     3 t Z t y r r   ",
"m 5 5   f f 1 1 q 1           , O - > >     P U J     2.&.*.%.    h U ~   y t r 5 y 3 m y m 3 y t 3 5   A ` U (   y t 5 5 y n r ",
"t B 5   1 > k j j l q   P F .   - - - 8 , >   U P (   9.^ #.*.#.4       r y r 5 y y B t y t t r n y 3 y   U h J   5 u t y y 5 u ",
"n y t   f 1 f j 0 j 1   h A H   > O 0 > 0 % ,   J F F   e.^ X.t.%.4.s.  t n t t t u B n r t t t 7 B y n   J } P   t n 5 r n y 5 ",
"  w   , z j q d z j f   ;.H J Q   > - 0 8 X 0   U ~   E #.&.4.%.#.1.&.9.  t y 5 t y 5 y y Z C n t n t   J ~ ~   y r 5 y 3 t     ",
"1   z j v       z f   P U ` H U J       1 0 q   h   t.E 4.4.4./ E / y.9.4.  u         n y u n r       H ( U   y y 3 y t y   z j ",
"< 1 f f   U J P     U A ;.G U P F J U 6       U   X.&.$.X.4.-.      s.u.2.e.  f 1 1 f   y 3 5 y   | P ( A   r u n r B 5   z 1 f ",
"< f 1 6 1   H H Q J F H g F H Q h ` U g U P J J    .s.s.&.a.  j 1 f           g 0 1 d   t 2 r t   ` P U J Q   t y B 5 5   1 z j ",
"j f z 1 1 1             U [ H P ;.A | U J F U P    .#.t.e.e.    l f 0 , 1 z f 0 d f f   n 3 5 n y   ` U A J Q     n     P   j 1 ",
"j > > 1 1 f q   B y 3 5   A A P ` ` h G     J | P           G Y   0 - 1 < j j O 1 j f   n 5 n r 5 u   F ~ P P A J   h U U G   f ",
"1 , j 0 - 1 f   t n 3 y 5   F J U A H   f 1     U ( J J U ~ J J |   0 1 % j j 0 1 1 d   u n B m n 3         Y G P H a H H   1 1 ",
"f 1 0 j f f j   5 3 u t y   ` U a F H   f j f   ` ( { F `     U `   f q - 0 > 0 1 1 f v     y t y   1 f f -   A a ~ Y     f f j ",
"j z 1 z - 1 j <   5 t t   H ~ F z J U F     f f   J F J   > f     j f O 0 , - 1 > f , z f 1       0 0 z j j   ~ ~ x J x   1 1 j ",
"    0 f 1 z f 1   y 7 5   I U H F ;.U ~ U |   z j       0 X > 0 , O > X > > 1 0 > 1 > - , 1 f f - q         U ~ J     U H       ",
"U J             r y t t   Q H U H s P ` H ( U   , f L 0 z 1 , , > > > , + > > > , 0 1 0 k f q f 1   F Q ` F H ,.  1 0   F H J ~ ",
"A |   7 3 5 B r r 5 y r t           ( J J ~ H   v k q 1 j < % - > , > 0 0 > 0 > O 1 f 1 l     d   J A U a ` P   0 0 , 0   J F ` ",
"`   r m u t m t t 5 5 B y y 5 u y y   U ~ P   f 0 f z j 1 f j > > % > q - 1 j > f 1 z j   *.%.  F J A F ` A U   % % + 1 %   U ( ",
"h P   5 5 y y 5 t 5 3 B t t y t t t t       l z 0 f d 0 j 1 f , , > > > , j V j z 0 1   K *.X.R   U ( ~ A U (   j e 0 - ,   U ~ ",
"  ~ [   B y & 3 n u 5 n n y y y y y 3   > 1 > f q f f j + , 0 0 - % 1 1 > 0 f 1 - - <   e.e.*.t.q.  H ` U F U U   > 0 > -   J   ",
">     J             3 r 5 3       t   f f > 0 0 j 1 - 0 - , 8 > 0 - + 1 - % 1 0 1 f 1   / 9.*./ %.&.    ~         > - 0 1     0 ",
"1 0 .   G A 6.F P   y 5 y   _ P U   j 1 f f f , f - $ , 8 , > > 0 1 - > % 1 - 0 d z 1 j     e.O.&. .*.t.  f f < O f O - 1 0 - , ",
"- , f   U _ [ J U   3 r n   Y G H P           j z 1 b - f > 1 - j q f   8 0 > + > b 1 - f z   9.9. .7.#.  > o - O 1 , - 0 1 1 0 ",
", 0 >   F z ( <.F   t t t y   P Q P Q F U H `   f j j 1 d j 1 z > 1   A     + - 1     f f f   4.#.1.9.X.#.        1 1 0 % 0 q % ",
"- 0 X   H J P F J   t t t t   h U A g J J F ~ J   z 0 1 1 , j 1 j   H ` U         G U   z j   g.*.X.#.9.$.4.  ~   1 1 , 1 , q q ",
"      ` ~ h U F ( G     t n   } U F U ;.P | h   j 0 j 1       1 f -   ( P F h U U G ~ P     f.4.t.q.$.#.      A F   q 1 > >     ",
";.p ` ` [ J J J U ~ ` J       U J [           0 1 > z   U J U   j f f   J U [ U h A F   p.#.$.#.E ^     F J H U H   0 , q 0   6.",
"J h J J         U U J F U ~ H F J   X.%.*.4.  q > 0   U J ( H {   1 1 j   J U <.U Q F   9.1.1.4.&.  J U J G U s   % % % 0 1 >   ",
"U U H G   > q   G U G A U U F P }   E D X.*.E           U P ;.~ J       } Y J     J ~    .7. ./ *.  U M [ P U U F   0 q > 0 z   ",
"U G ~ (   f 0 ,   U J H h | V F J   4.p.9.9.$.$.K %.#.X.  U H ( _ U A F P U   5 2   ~ U     ^ %.i.4.  [ U ` J :.F   0 , - ,   P ",
"F J ` H   1 0 >   x P J         U `     1.*.w.*.a.e.9. .^   U U U H ~ U `   u t t 5   H H F   q. .4.*.  Q A ` U H (         | F ",
"A P H U A   O -   F F   1 g z   | F ;.~    .E J 4./ ~ / 9.      U g ~ G   B 7 t 5 u #   _ P F   #.*.E   U J F U H A U U Q L G U ",
"      F h   > > j     q f j     U ` ` F   *.&./ p.        f j 0   F G |   y m 3 t n   U U a J h         M F h         ~ U U     ",
"1 j z     , > O 1 > 0 > f   A ~ A J U   -.#.K ^   f l 1 l 1 z j h   Q A   r t n t y   [ U ~ A F P F P ` U U Q   t 3 r   U J   f ",
"q f 0 f o 1 , O 0 > f > , -   ;.F [   1.9.e.p.s.  j z L k z q z j   J F F   u y y u 3   Q F A       F [ P P `   t y r   } A   f ",
"v 1 z 1 > j > 0 % 0 > ,   ,   ( A   #. .5.^ @.t.  j d f , f 1 q 1         * r t t 5 y &       - 0 -   U L U H ~   t B   T H H   ",
"  1 j - 0 - 0 > 0 q -   <.    ~ A G   s.1.K  .#. .  X z z ,       y t t 5 y t u u n t 5 y u n   f v 1   U ( P ;.  y 3 3   h U J ",
"  l z f 1 j j - 1 q   ~ } U P ( A _ `         %.4.9.  h z f   t n 3 * n 3 5 3 N t r y y t y y t   0 f f   A h (   5 5 5 5   U U ",
"  0 f f 0 0 f z 0 1 0   U ~ P ` g J ` Q   1 f   9.e. .  f f     m y y y 5 t B t n @ n u 5 y t t   k j 0 z       5 5 3 3 5 5     ",
"n     f f k , j 0 0 f ,   A Y H ~ F _ `   f 0 l       6 - j 1 q   y t t t y y 5 B       t n r 5   j l f   t u u 5 B 5 = & B r t ",
"5 y 3   f z     > j > > -   ( A Y         f f f z v j i f d f j f       y y t t u   0 0         1 j f 1   u 5 B 5 B t y       y ",
"  y 5   f   J U   % , 0 ,   A (   f f 1 j f j z f z 0 1 1 j f f 0 g - d   5 t 5 y   z j z 1 f 0 f f > d         m = t   c U Y   ",
"9     f   F J H A           F H U   -     f - f f j l k 1 L z f , f f   r m t y m 5     d 1 z 0 1 j f 0 q j f d   t n   Y J F   ",
"f z $ 1   A ~ U F x ~ ;.| U P U h >.  t t     1 1 j z 8 O , j z j k     5 t r y y t   U     1 f j               ;.  n m   P U   ",
"< j f f z     U Y P ` U | U s ;.h   n t 3 B 5   j z 1 > > > , j 1   J   5 r 5 y 3 n   H G   f 1   A F P J ;.F J U   y t   A F   ",
"    j < X 1 l       U ;.~ ~ F P J   n 5 y t 5   g f 0 O % - % j v   V J   = t t t   ~ ( A   f 1   ~ J A ~ Q J ` J   t y 5   U   ",
"U H     f 0 0 f q 1   J       U U P   y t y u   - z z % , % , > f   z P `         U F ~ F P   f f   ` U ` J U [ F   t 5 n   J   ",
"Q | ( (   j f 0 0 f     t 5 u       r y r 5 t   q 0 0 < > , 0 > z 0       U P J } F | ` J U U     J   U >.j J ` U Q       | J   ",
"G Y ` F U   j j z 1   t 7 5 t t y B t y 3 &   0 0 z 1 q f 8 q 1 - 0 > z z   _ Q U       J J P J ~ G h `   U <.( J U J ~ ` U A   ",
"U U U P F   0 q 0 1   5 B u y 5 t B t 3     0 1 f 1 1 q 0 0 , > > q 0     U h h   -.9.q.  ( U | A U     1     z H V ( P         ",
"      A   1 j f f j 1   m 5 t y t 5 t y   0 z 8 1 j 1 1 1 , 0 > - 0   U U H U J   q.u.( q.  _ ` (   > l L h -   ( ;.G    ./ q.  ",
"t.1.W   f j z ; 0 1 j z       u y 5 y y     1 1 f f > , , , f % -   ~ J U } j ` J   q.4.*.            0 0 f q z   J G   ^ *.#.+.",
"*.E / 4.  f 1 0 j f , 0 1 f                 1 f 1 z > 1 l O > > - >   ` F Q U A P   X.4.#./ e.2.4.p.y.      j f   U U J    .$.9."
};
