/* XPM */
static char *Carpet_64[] = {
/* columns rows colors chars-per-pixel */
"64 64 191 2 ",
"   c #5A1C07",
".  c #651D09",
"X  c #6D1D09",
"o  c #5F200C",
"O  c #64210D",
"+  c #6C240C",
"@  c #6D2A0E",
"#  c #71250D",
"$  c #7E260F",
"%  c #732B0E",
"&  c #79280F",
"*  c #652512",
"=  c #6B2511",
"-  c #672A13",
";  c #6B2A15",
":  c #652B1A",
">  c #6D2C1A",
",  c #722612",
"<  c #732B14",
"1  c #7C2C14",
"2  c #732E1B",
"3  c #7A2E1A",
"4  c #6D311E",
"5  c #773017",
"6  c #7D3116",
"7  c #75321E",
"8  c #7C321D",
"9  c #7B391F",
"0  c #6E3320",
"q  c #743422",
"w  c #7C3522",
"e  c #743B25",
"r  c #7C3924",
"t  c #7D3C29",
"y  c #7F422E",
"u  c #7E4333",
"i  c #832E15",
"p  c #832E19",
"a  c #843215",
"s  c #883617",
"d  c #83341C",
"f  c #8A351D",
"g  c #86391C",
"h  c #8A391E",
"j  c #93351F",
"k  c #833622",
"l  c #893621",
"z  c #843A25",
"x  c #8B3B24",
"c  c #843D2A",
"v  c #8B3E2A",
"b  c #933721",
"n  c #923D25",
"m  c #993F27",
"M  c #933E29",
"N  c #983F2A",
"B  c #8A3F30",
"V  c #834027",
"C  c #8C4026",
"Z  c #85412D",
"A  c #8C422C",
"S  c #944126",
"D  c #9C4326",
"F  c #93432D",
"G  c #9B442C",
"H  c #94492F",
"J  c #9D482E",
"K  c #854431",
"L  c #8D4532",
"P  c #824836",
"I  c #8D4935",
"U  c #8D4C39",
"Y  c #934631",
"T  c #9A4631",
"R  c #954A34",
"E  c #9B4B34",
"W  c #954D3A",
"Q  c #9C4E3A",
"!  c #8F513B",
"~  c #9C5037",
"^  c #95513C",
"/  c #9C523C",
"(  c #A1452D",
")  c #A9462D",
"_  c #A34A2D",
"`  c #A0502C",
"'  c #AA572F",
"]  c #A14630",
"[  c #A34C35",
"{  c #AA4E35",
"}  c #A34E39",
"|  c #A94F39",
" . c #B04E39",
".. c #A35036",
"X. c #AB5236",
"o. c #A65834",
"O. c #A4533C",
"+. c #AB543C",
"@. c #A6583F",
"#. c #AC593E",
"$. c #B25335",
"%. c #B95235",
"&. c #B35B35",
"*. c #B2553C",
"=. c #B9553C",
"-. c #B25A3E",
";. c #B95A3F",
":. c #AC613E",
">. c #B96133",
",. c #B5623C",
"<. c #BD643D",
"1. c #C25739",
"2. c #955241",
"3. c #9C5441",
"4. c #9E5844",
"5. c #A45642",
"6. c #AA5641",
"7. c #AA5745",
"8. c #A25843",
"9. c #A75841",
"0. c #A75945",
"q. c #A55A44",
"w. c #A65A46",
"e. c #AA5941",
"r. c #AE5A41",
"t. c #AC5A43",
"y. c #A95B47",
"u. c #AE5B45",
"i. c #AD5D45",
"p. c #A55C49",
"a. c #AB5D49",
"s. c #AB5F49",
"d. c #AC5E49",
"f. c #B25641",
"g. c #B15A40",
"h. c #B55D43",
"j. c #B25B45",
"k. c #B55B45",
"l. c #B25E45",
"z. c #B65E46",
"x. c #BB5D44",
"c. c #BD5E47",
"v. c #B35E49",
"b. c #B95E48",
"n. c #AA6046",
"m. c #A7634C",
"M. c #AB614C",
"N. c #B26147",
"B. c #BB6444",
"V. c #BD6943",
"C. c #BE6C47",
"Z. c #B26149",
"A. c #B3624B",
"S. c #B7624C",
"D. c #B2644E",
"F. c #BA634B",
"G. c #BC6248",
"H. c #BA6C4A",
"J. c #AC6451",
"K. c #B36550",
"L. c #BC6753",
"P. c #B56855",
"I. c #BC6B51",
"U. c #BD7158",
"Y. c #C15E43",
"T. c #C05E48",
"R. c #C65F49",
"E. c #C26345",
"W. c #CA6547",
"Q. c #C56D46",
"!. c #C86942",
"~. c #C1634B",
"^. c #C1644A",
"/. c #C8664A",
"(. c #C26B4C",
"). c #CA6B4D",
"_. c #C86E4E",
"`. c #D26F4A",
"'. c #C3704B",
"]. c #C67049",
"[. c #CC724C",
"{. c #C26A52",
"}. c #CC6C52",
"|. c #C27554",
" X c #CF7157",
".X c #CA7654",
"XX c #CA745B",
"oX c #C9785A",
"OX c #D17257",
"+X c #D87251",
"@X c #DD815C",
/* pixels */
"u.Y f Y X./ G Y F A M G v k T Q v [ X.O.#.@.z _.O.8 Z.Y +.v q 8 X./ w.2 ^ M E G +.c J #.d E E w.E Q [ } F 6.S ] G.L Z j.%.l ) x ",
"i.w F z E S.X.I O.M 3 9.[ o.Y 7.z A d O.d A 6.A O.+.} L 8 T w.W 6.r   w z.W z O.t e.F E G R O.A O.l w [ v L M < F T A z.O.S d M ",
"O.Y Y Y T k.W t v F S 6 3.@.J } 4./ r.x C E L y.Y z w.W i W @./ _.w O.R F t k w 6.Y L ! 3.O.].j.L -.S R i.f v E -.R Y M @.n *.W ",
"+.O.F X.b./ F Y #.Y r +.I { k / r.c k.F r.X.4 8.> C.R K d z > L y v 2 X.W 8 O l < E ..O.v j.@.5.^ W W v [ v [ t W C Y 7.c E O. X",
"D Y a.O.5.*.[ c.+.[ I g.T.#.R E Q ~.i.u.j.C [ h.O.O.7 D.y.S Z.a.j.E j.Q } 3 a.Y [ D / } = r.R ( v > e.E @.K.z X.d x F E Y r e.e ",
"O.Y K.Z n F w.z W r.+.G S O.F M F.Y W l } G I 2 8 b 3 W.r.G g.t X.] { *.F <.O.x.} j.M +.Q 8 F O.W c ;.Z.*.q k.6.} ..E [.M.F +.E ",
"d.v W E T @.Q D.E g.} g.f g./ O.A L / c ^ ^ v } E 6 M./ R O.A B...E A G K v t E *.O.A E } r U E W y.+.Y F L +.5.L G.E c O.Z ..a.",
"Z.-.d H A +.f I E -.v M 8 Q.E 1 R E 6.G ..5.1 c.W w./ @./ Y d l 8 S } / O.R #.O.2 C E *.+.2.f O.-.{ [ r.Y R G j.z X.w E 5.7 k [ ",
"Z.d W : 3 [ { O.| h #.z Y T #.z [ A r a.X.A x O.b.l l Y g.c +.M { O.v {., E 9.O.7 #.F k.G.Z ~ +.i.' l 6.+.R ~.^ T +.T E @.r.E G ",
"Y p.> R Z.Y Y / M d.a.2 3 l.M G Q +.d., 0 <./ 8.6.< G } f.v F.F F.W E 8 q d @.h f.Z Y.F E +.+.w [ 8 +.+.E 6.4.+.I G Y } ;.6.8.Y ",
"g M / K.G +.Z.e.o.= 8 Y x x G O.w.Y _ R J.X.R z.E F W Q v x.d a.O.}.Z.W Y X.S / W -.F ;.O.+.y k.8 } y.e.k M k.[ w R Q ;.+.E [ Y ",
"x 3.7 8 G 8 } c J F Y x ( s } /.S X.E E z I A K F.G S c.. E d 5.+.Y E w.+.X.X.@.k x.E S z.= N.W / E T } k.$.9./ [ E X.O.8 -.Y v ",
"Y v x x.O.R y.8 < 6.E F / O.+.Y O.x h O.T +.E v 8.I c V S O.R / W [ 6.F.O.S +.F | t k.Z.x S O.C Y.#.E O.@.d 8 [ 8 U S.z A v -.O.",
";.x * F X.Y , ( O.G F OXW Y n } C v W x 2 C w.S E 8 f E (.[ L *.p.f 3.n Q O.F F w G S Z.X.j.< ^.Q 8 6 +.d 4.E O.O.r.d L F [ #.F ",
"Q Z D E d L R.e.W e.F ..} Y [ 2 D [ v Q +.r X.R R +.v 4.z ].E w = j.[ M Y Q.E G R w.#.F U [ E Y Z.+.3 Y q } @./ X.k +.S Z W S +.",
"r.H Y / 7 l O.%.E v.Z G > _ v M.Y 8 W O./ n +...+.d c z / M c O.T E z.I E H.F v [ 5.M.G.Y R w G S Z.N./ O.L Z.E +.Y +.f 6 u.O.n ",
"u.} } z d.c A J r.1 ..E F.v O.1 } R #.r.O.1 Q l } u.> 1 { E E [ r O.V.e., Y R F [ 6.=.L +.z.q +.Z }.Z } ( 3.} r w.G Z Q < Q d v ",
"F E }.O.F.E / V.#.F L 2 I O.v J Z e.F 1 8.y.h z M } j.d Q [ h.w 3 G z.Q [ -.X.#.9.Z G +.} X.i.M #.5.x L w.#.9._.E c ).m } #.8.g ",
"7 l W E x.} Y X.c , | d d.R Y O.E E S d Y d E | +.Y T G T E _ O.y.Z z.O.} w O.H s T O.T } S w 3.*.x.R S c v :.r.e.( w.S B.F.c r.",
"1 M l { < G F S X.Z - Y 1 S v Z f 9./ = @.[ E } E E h.m.R N.O.y.* Y F E q x G r.Y d 7 / O.+ G n q #.} } E W F [ } j.x K R x k.X.",
"5.u.y D F & l.W / Z.} 9.A d.v [ J.z j.w [ v @.{ l <.t M.6.5.t I 5.Y z k * Z.+.Y Z E A O.e.k } 5.O.5.r.E S E 8.Z *.6 Q } R 5.y.G ",
"e.w Y w A O.X.R p.Y.R f $.l $.X.r.@.w T O.F } g.Z E g./ U O G +.W [ + Z v r.5.$.S W } S O.d r.E A 7.i.M e.O.r w v +.l M E } 7.r ",
"C , r.} 8 v +./ z 8.l 3 F K z { / 3 [ O.| f ; z [ O.v z W +.O.,.j.l x S k #./ L x E E T k.[ u.j.[ t f &.j.2 3.v O.C # z a v 4 G ",
"/ S z f.<.O.v.n M 1 O.< *.E h.W h } Y 3 Q g.+.x } / u.i r.F w F r.+.{ | G x.[ p.w x !.j.9.@.Q v #.y.i Z X.d O.w 1 O.^ +.Z ( E | ",
"O.9.M 9.v S O.7 } N v $.G E r C 9./ e.# +.F O./ - Y F } x.} #.O.t M.F 1 E c E O.W r.F E.O.> $.O.{ G S -.| a.O.O.*.G R d.} E w A ",
"T E d A A j.{ z 3.6 Z Z +.L #.v z F.E #.g 3.A O.f.f.Y v / + F R 6.v O.# J S +.> } F k 1 Y _ X.O.< L t x R h R #.E R F O.5.E / -.",
"A 1 E +.8 M.1 #.O.*.E R @.[ v X.Z 1 O.e.} +.V.O.l E L.[ k.Y.K F [ x q #.w R m W R O.F K F.O.v [ Y F } / I T G P.'.X.+.5.S Y t Q ",
"6 Z.E v F w E E x O./ Y (.r.v.E T Q / +.T 6.c 3.d.3.Y v #.S D z 3.@.[ r.I v Y E M Z 5.G 8.s Q Y L A c { = O.E x r.j.E ; t Y 8 5.",
"j.Z [ [ z Y +.F R G E j.F X.d T Q K E %.O.x E O.v W q i.Y { E s Y G Z x.d 7 / c @.f z r.W E Z oXv A 8 A d.[ Z , G 2 l / c Q d { ",
"7 E y.F [ R 8.A F q M a.x ^ Q h [ F } z l } @.n / Y - [ +.Y O.Y ..x c / O.3.@Xh.@.j.} N.; T A 7 k +.F e.2 [ j.= Z.w.5.C D / } 3.",
"r.H.8.F Z.z F O.*.u.< 4.r.@.E E Q R w | +.J z O.f 6.X.6.y.E g.8.E v *./ L k.[ ,.6 z q Y r.Y.[ u.#.< Y k.Q Y ^ ..  E X.l G S w 2 ",
"k h.E S E S < T c d 8 [ G F $.x -.2 F Q O.c 4 E Y [ < y.r ,.5.V O.S 1 #.O.z / z 0 X.E M R 5.H z X.M E T v z M u.L z Z M A [ 6 Q ",
"v y.* W ( z F.[ ^./ / 1 ..5.E.F / G u.F E 4.+.w X.d S I u.{ [ } c *.E [ / O.A i.E 4.J 5.X.r u.g.[ x E 8.v.r.e.8 f x.3 z R W 2 L ",
"F R e.w d / a.z E [.d S r.u.L v c R w v +.t K E p.G U.G Z.} O.Y y.} A w.r 8.L r } F.5 1 E #.R z Q v $.Y .XE 8 @ 1 A E x +.A +.Y ",
"Y z G C z +./ F.F X.Y Q r c e.} O.W / 2 k z y.z E #.E [ 5.Q F W Z J E K y.F q *.+.+.{ O.v F 5.Q E [ E.F d.r.O.w.d X.A z M 6.9., ",
", E { R E E 2 F ( T / E > O.b d E 6 9 s O.8 Q z _.y.W G c 2 O.e._ 6.c i.R W d O.E v O.| } r O.F._ c E #.E [ T O.+ { +.{ [ O.8 G ",
"F x @.OX/ w X.E 6.x C C } g.d *.(.v L K.L k.3 v F.Y 9.z R v 5.d g.2 / d Z w p E } G [ [ Q [ O.E x 5.{ F [ c O.k z M r.*.S 2.-.g.",
"Z.. #.j.@.[ l E X.g [ F l 8 r.c v O.e.E d j./ v z 2 @.6.W A A 8 3.Y v Q G w 5.R 3 l 2 Y j.F C % x k c W k G Z [ G G E M O.O.E.D.",
"w d / E [ F I.u.O.X.E G X.A z C E E G } +.T T G L W * [ { 5.T |.Q E F W O.F ..F.O.^ 8 E 3.Z u } F O.A W v M +.d ,.w.7 Y R O.A E ",
"O.Z z [ Y x y.F Y U M 2 O.v d v n.[ 2 1 n ~ 3 d / O.W C E W v.O.M n E z [ / x h Y Y 6.z.G x.t v O.S w v j.O.S F 6 S 5.j.E / M.y.",
"O.E g w.M z.} Q t X.G -.7 i.2 F S ^ O.w.O.O._ E 1 c G n O.#.F 9.#.Z o ] 5.#.#.x.E Z +.6.d x.8 Q g.Q 5.+.O.j.[ D.m d / / x v E +.",
"D Y r.d F Y i.c O.w A S 9.D.Q q d O.O 6.Q B.r.L y.6.O.C 8 Z.W F F E i.[ O.M / ( Y A F } v x [ B._ { E O.*.d +.E Z O.G.Q E X.5.A ",
">.G E E M F 2 r Y G m } 8 Z Z.a +.w 5.c G.E d k } w , l O.- L D.E } +.n D.M.H W M G - j.-.c } +.A F f 3.T c G y.C d Y R / K S } ",
"8.g.E d F 8 _ ( Z.r.5.G O.e.} Y [ @.).z } E Y l j.g.E E *.[ } 2 [ x l j.}.g.;.A 5.@.F +.x X v = ..q c *.8 z v k R n @.+.O.O.l.| ",
"A } r.D , L G M E E O.Q j.I x [ S z U E O.E > T z Y X.F 4.A n.E ( W h t @.A R E Y W F 6./ x z D Z S 7 4.O.[ O.[ k n } + 6.} v [ ",
"E A +.*.= O.Z > O.R H T Y x F g.> O.E U Q 5.b.Z.{ Y j.x.Q H.[ i.5.9.E x x *.X.+.'.W Y O.3.G d 2 8 } Y z.c R u.r / / 6 Z.h.G T Y ",
"v.z +.w Y F.Y Z g.+.n X.a.R +.v G +.G S @.} F a.p #.X.G E O.S } 3 E Q O.W < F l r v r Y } F z J l 2 E z #./ G +.] E j.w O.+.1.I ",
"S A E x Y -./ 7 *.Z.c Q +.z 5.+.v k Y x.l x M G G F E O.j.m e.d 4.} O.k Y Y Y } [ E Z G L Q E X.#.Z.( E E E R XXw 5.F 2 / 7 / F ",
"v @.[ R 8 #.O.w Q Y a.} 8.w T 6.v / +XF *.} p.Q O./ $.+.z L J O.z.c 3 O.d K 8 D.E v e.E g G @.E B E g O.r.F 8 / h C x -.} y.I F ",
"j.G W E S L A c } O.F.O.#.5.} h S t } J Y K M ;.@./ l G X.2 Q F *.Q G O.} } x.[ }.$ / 6.8 E } A v R } R a.w U v k F z n 2 d w *.",
"r.#.G X.Y X.f / r 6.Z.[ Y E 5.F O.S E y.8 w v +.f 5.b F b e.v E G *.).F O.O.O.x y.w.+.E A R Y 2 [ O.r.X.O.x E d.F ;.E 8 = g.w T ",
"x E d _ ^ z.G l A D.J v <.F [ S  .} F [ > } ^ Y @.Q M.F E r A t Q Y f.+.W 6 C v E O.#.u X.8 } A A O.E M * Q [ S.C g.E R 6.Z X.[ ",
"W E Y E F h R #.N S X.i.[ D M Y v w Y S ] O.F d.E z F E b O.> G U E d [ z M G S #.[ j.*.l.S C Y [ +.` F X.O.+.y.}.< d Y > 8.v [ ",
"7 [ N.e.l.A { E k R 8 ( { 6.z Y A W p } K [ 3 F.O.E #.Q Z Z.M.5.( d M / +.g.O.W X.F S F 5 S / v Y F F G [ } Q u d.O.p.X.Y.F n } ",
"L l.j F Q M e.B.R S O.v.d.E T c.z f.M E ..> g.x E E ;.u.X.z { G.E +.d W S Y c } q w u.} O.1 v E (.S.w d G z 6.I z.[ 8.j._ c.O.} ",
"c +.S s a.@.R s oXP k.Y E E < Z.< d / S 7 5.E O.+.n.+.T Z A +.O.v z.E x z l c U d Y 8.A F ( Y %.v d E W / k.C R F 2./ { c G M O.",
"*.b @.1 + 6 Z.A N / Z G.+.@.x T z y./ s 9.Y S n [ q #.f F T c J g.#.w ~ `.5.Y L Y z z / x Y O.A { 5.- q E O.F I z E 6.W Z T F A ",
"I F Y E R d O./ } F x.z / / w E ( (.F Y [ #.b j.8 e.j.x X.z +.b ^ v #.E 9.M / d E E G X.&.E O.X.O.5.g.Y f.w W Q d Y E d i.} T 3 ",
"/ y.y.8.} E E c } x.I +.[ 2 +.q O.8 z F b x T w./ E c z z [ } G O.Y 3 S : O.I Y h.S M.u.z V.O.8 6 Q v [ S.Z c _.O.@.h.X.+.s E M ",
"x E F.l A L R h e.X.W E E r k z L i.E O.{ 1 8 t F u.F =.R U g.E A O.Y w.6.f r.4.L 3.F #.F G E O.6.[ i O.F [ Y.2.G E [ e.} Y 7 S ",
"[ [ O.r x v E E k S @.[ +.+.#.z E Z.Y S } J [ 8 O.#.F 5.g./ -.L r F.r.F.n { p z Q [ Y.4.8 E | F f E R T t O.5.Y c k Q O.- E z %.",
"w i w D Y [ W } I O.r F [.M G W O.R / R F | W [ 8 5.[ -.E E c G I / $.c / r ..L 9.5.j./ y.+...#.Q E l #.~.O.+ T y.j.X.O.T w / y.",
"z } x E / O.w.D q F r g.[ G h.+.Q , F @.Y L M Q ( } / W.Q 8.N.l c #.d.S H d.I r.Y A 6.O.G O E G p.W ^ F R A [ x G A Y I c Q F [ ",
"Y w n } E r.F L g.u.d T m E.F / E W z O.5 O.X.W G d.f r Z.c Y R v k , Z.t O.} x Q 8 A Y } k +.E +.v.g.R d / 6.} c E x G [ F L +."
};
