/* XPM */
static char *Catwalk_64[] = {
/* columns rows colors chars-per-pixel */
"64 64 234 2 ",
"   c #000000",
".  c #13150E",
"X  c #161715",
"o  c #1C1D1C",
"O  c #231E1A",
"+  c #1F211D",
"@  c #3A2A08",
"#  c #23221F",
"$  c #352C11",
"%  c #1E1F21",
"&  c #262522",
"*  c #282623",
"=  c #272924",
"-  c #2A2A26",
";  c #2D2D2A",
":  c #302E2B",
">  c #2F312B",
",  c #32322E",
"<  c #353532",
"1  c #383734",
"2  c #373834",
"3  c #3A3A36",
"4  c #3D3D3A",
"5  c #4C2D03",
"6  c #4C350B",
"7  c #5B380C",
"8  c #4C2D12",
"9  c #443714",
"0  c #573813",
"q  c #633B0A",
"w  c #773F05",
"e  c #703E12",
"r  c #403F3C",
"t  c #3F403C",
"y  c #5A400D",
"u  c #594314",
"i  c #6A440C",
"p  c #73450C",
"a  c #794708",
"s  c #75490B",
"d  c #644312",
"f  c #6B4915",
"g  c #674818",
"h  c #744913",
"j  c #774917",
"k  c #7C4B13",
"l  c #6F541E",
"z  c #7C5314",
"x  c #7E5915",
"c  c #74521A",
"v  c #7C541A",
"b  c #42423E",
"n  c #765220",
"m  c #3A3C40",
"M  c #454542",
"N  c #484744",
"B  c #464844",
"V  c #4A4A45",
"C  c #4C4C49",
"Z  c #504F4C",
"A  c #4E514D",
"S  c #52514D",
"D  c #545452",
"F  c #5B5B58",
"G  c #757672",
"H  c #864507",
"J  c #834B0E",
"K  c #8A4E0A",
"L  c #934A02",
"P  c #8B530C",
"I  c #89570C",
"U  c #995B06",
"Y  c #94540C",
"T  c #9B550D",
"R  c #955A0E",
"E  c #9D5A0D",
"W  c #834C13",
"Q  c #884B18",
"!  c #845313",
"~  c #8B5413",
"^  c #8B5B15",
"/  c #885817",
"(  c #83531A",
")  c #845C1B",
"_  c #8A5C1A",
"`  c #925312",
"'  c #935B13",
"]  c #9B5A13",
"[  c #935F1B",
"{  c #9C5B18",
"}  c #A85C07",
"|  c #A35D0B",
" . c #B25A08",
".. c #A35D12",
"X. c #AB5F12",
"o. c #A25A19",
"O. c #9E610B",
"+. c #8D621C",
"@. c #9D6415",
"#. c #9B6917",
"$. c #93621B",
"%. c #94671A",
"&. c #9B641B",
"*. c #9D6A1B",
"=. c #A2630C",
"-. c #AD630D",
";. c #AF6F0E",
":. c #B4650A",
">. c #BB660E",
",. c #B66A08",
"<. c #BE6D0C",
"1. c #AF700F",
"2. c #BF700C",
"3. c #A46414",
"4. c #AA6312",
"5. c #A56A16",
"6. c #AB6A15",
"7. c #A3651A",
"8. c #AB651A",
"9. c #A46B1B",
"0. c #AB6C1B",
"q. c #B46412",
"w. c #B36B13",
"e. c #BA6C13",
"r. c #B96A15",
"t. c #B36E1B",
"y. c #AE7317",
"u. c #A6711D",
"i. c #AC721D",
"p. c #B37115",
"a. c #BC7214",
"s. c #B4731B",
"d. c #BB741B",
"f. c #B6791E",
"g. c #BC7A1C",
"h. c #915E22",
"j. c #8D6521",
"k. c #9C6722",
"l. c #9B6924",
"z. c #A66722",
"x. c #A46C21",
"c. c #AA6D22",
"v. c #B46F21",
"b. c #AB7223",
"n. c #A97824",
"m. c #B47422",
"M. c #BB7522",
"N. c #B57923",
"B. c #BC7A22",
"V. c #C66908",
"C. c #C4690E",
"Z. c #D46D03",
"A. c #C4710C",
"S. c #CA740C",
"D. c #D5750B",
"F. c #D8780B",
"G. c #C66E12",
"H. c #C47314",
"J. c #CC7515",
"K. c #C57B16",
"L. c #CD7B16",
"P. c #C2741C",
"I. c #CB771C",
"U. c #C47B1C",
"Y. c #CB7C1C",
"T. c #D57B15",
"R. c #D97A16",
"E. c #D37D1B",
"W. c #E17710",
"Q. c #C57624",
"!. c #C47C22",
"~. c #CB7D21",
"^. c #D37E22",
"/. c #D97F24",
"(. c #BF8022",
"). c #D6850C",
"_. c #CE8417",
"`. c #C5811C",
"'. c #CC821C",
"]. c #D78616",
"[. c #DA8317",
"{. c #D4831D",
"}. c #DB851C",
"|. c #D5891E",
" X c #DD8A1D",
".X c #D6941D",
"XX c #E48508",
"oX c #E38213",
"OX c #E28A16",
"+X c #EB8E17",
"@X c #E3851D",
"#X c #EC871E",
"$X c #E38B1D",
"%X c #EB8D1C",
"&X c #F58711",
"*X c #F28D1C",
"=X c #E6911E",
"-X c #EC9518",
";X c #EC921D",
":X c #F3931D",
">X c #FB961C",
",X c #F79C1E",
"<X c #FB9B1E",
"1X c #FBA11E",
"2X c #C38122",
"3X c #CC8323",
"4X c #C78528",
"5X c #D38422",
"6X c #DB8522",
"7X c #D58922",
"8X c #DC8A23",
"9X c #D78929",
"0X c #DB9529",
"qX c #E28622",
"wX c #E38C22",
"eX c #EA8D22",
"rX c #EA8A26",
"tX c #F28D24",
"yX c #F88D29",
"uX c #E59223",
"iX c #EC9322",
"pX c #EC9B25",
"aX c #EC9429",
"sX c #EE9A2B",
"dX c #F39423",
"fX c #FB9522",
"gX c #F39A23",
"hX c #FD9B24",
"jX c #F59A29",
"kX c #FC9A2B",
"lX c #ECA128",
"zX c #F9A627",
"xX c #FDA32A",
"cX c #F6A233",
/* pixels */
"N ;   4   t : 2 3 2 < , , ; 1 3 ; b 3 M V M < 3 b & C 4 M 1 2 ; 3 b 4 4 M 2 ; 2 < b 3 M 4 t 4 b M 4 3 b , b ; 2 M 4 b V * ;   ; ",
"B   b     X b 4 M ; < M 1 = < C C 3 = b N , b 4 M M 4 3 b , 3 4 X 4 # M o M ; b M M , 3 3 4 b 3 b ; 2 4 2 2 ; o 3 2 3 C B   G   ",
"4 2   2   % G < - , ; M t b 3 b V t M M 3 b 3 M b , B V 4 4 C 4 B 3 3 M X 3 b < C 2 , M M t b N = b , r C * < 4 M 4 > & M 3   b ",
"M 4 M C   B 3 < b 2 , b 3 3 1 B M 3 V 3 M b 3 b = M b 4 = ; 1 2 4 = & o 2 ; = 3 + 1 M b 2 b 4 M b b b = 4 2 M ; V C ; B V 2 r S ",
"# 2 r 4                                                       b t 3 b                                                     2 4 ; ",
"4 3 D 3   }.jX'.'.tXeX{.`.:XjXL.1X[.$Xu eXY.}.5.g.@X^ $X5XM.  2 b 2 3   Y.0.}.iX{.%X[ 8X%XY.P.:XB.@XU.gXqX5XuX%X$X$Xm.}.  4 B M ",
"C 2 V N   jX3XoX!.wXc.eXJ wX5X}.L k iXl.;XA._ }.@X[.J.8XU.0.  4 4 M =   b.[.0 |.5X;XY uX@Xc aX! @XfXE.T { !.5Xq.}.dX XK.  3 3 N ",
"C 2   3   ;XY }.'.:Xi.T 0.$X}.H <. Xd.[.<.3X^ hX5XD.$X;XeXb.  & - t 3   hX}.wX' gX#.Y.Q :X9XrXW A.@X$X}.} wXE.iX9 eX~./.  ; b 4 ",
"C   b     {.P.$X6Xt.wXi.5X!.U.t.E.{.eXhX8XE.d.{.tX6.&.6X%X6X  , b 4 2   H.|.wXuXa eXs.6XV.!.'.qX&.@.d.6X6Xi qX5Xx.O.M.{.  M 4 : ",
"3 Z   2   g.u.!.w.oXiX3.o.F.p.g.5XqXJ.u.d.;XaXq.qXf }.V.I.i.  3 Z 4 2   6Xd.9X>XwXa 5XeX X}.>.wX$X$.,.{.U.eXC.iXb.L.~.Q.  C V 4 ",
"4 1 4 S   B.dX=X9.@ 0 {.Q.6.Y ^.;X3X+X{ iX}.b.gX-.m.0.{.:.xX  B M M C   g.eXdX@X3.d {.:XuXw.dX$X$.4.sXeXv. .W.iX$X$X..R.  4 3 b ",
"2 M * =   a.rXf.g.[.H d.}.d.P.E d.$X;X%X[.@Xi.!...K.}.dX. eX  M M b 2   B.6X$XhXO @X@X^.T.k $X$X2.6X}.6XwXa iX|.E.|  X8X  3 3 , ",
"2 & , S   $XhX .7 fXOX[.' $X@X X{.7 U.5XY.A.a.l.;X!.T.).m.'.  M 4 4 M   5Xz ..@.3X6.G.jXB.@.w.m.E.6X{.4.$XT._ } g %XaX*.  2 2 t ",
"N , , 2   M.H p {.}.{.4.!.m.d.@X} d.8Xf.L q Q.9.$Xq $ }.U.@X  V C * M   wX5Xk i Y.6XU.S. XiXz i 3Xz d.=.5 8XU.zX] {.{.U.  r M 3 ",
"4 V & 4   $XR.;X!.gXZ.{.}.+X{.s L.Y.4.qX| iX|.b.Y.rXY.%XK.{.  3 X C 3   P.dXE.h 2XwX<Xm.r.U.{.L.w.>X&.&.-.D. X@X| 0 tX&.  4 1 V ",
"M t 4 b   d.=X%X6XqXd.Y.n d 0.eXU.&.5X%XuXP.$X+X{.0.! &.wX+.  B 3 b A   Y.wX^.v +X8XhXdXt.{.dXs.f.hX}.^.~.$XdX{.+Xd.7Xs.  V b = ",
"C b 4 ;                                                       V V D S                                                     C b 3 ",
"2 4   b   b C 3 b 3 b 4 4 V 2 t 2 C 3 < M C N , & M M = M b b < ; > C M M b 4 b M 2 2 V 4 b C , M 4 ; 3 N M M N r = M ; r M C b ",
";   C     B 1 4 < ; b , C 1 r b * 3 1 b 3 , 2 b b * 3 4 4 b 4 b V 2 C C r M 4 3 2 1 b 3 N   , M M C 3 b , , 3 M b , V 2 b F 3 N ",
"; 3   3   , , > b 4 , 1 o 2 3 M = C b - b 3 3 3 2 , C D 3 C b b 3 4 2 4 C ; , B 3 , 2 M   2   , < B 3 b 4 B - 3 M C & 3 < . o M ",
"M b V ,   ; N 4 b C r M M V , 4 A ; C C 1 , t 3 ; , 2 V B V - 4 M 3 < = , C 4 4 4 3 2 b M   : B M C C 4 > 3 M 2 M M b 4 4 4 N , ",
"                                      b r 1 3                                                   < N B                           ",
"#.a.eX~.a.c.$X+X6.iXz m.( U.g.7.5Xf   F r ; t   {.&.i.%.qX>X$X].hXI.~.L.7.fXwXv.3.'. XM.%X{.eX  4 > :   qXB.eXL.@XK.' $.%.}.O t.",
"!.y.&.r.{.~.dX7 E.! 5Xx :.T.:Xs.} $X  m M N 4   }.h eXU.4.q.0.Q.:XC.@X@Xd.k T.;X0.{.] aXeX$X5X  M C &    Xv iXU 3.!.*X4.L.d.{.E.",
"wXiXO.$X{.B.4.i $X@XU.:.p.d.3X} &X$X  C V , r   {.P.{.6XgX>.L.wXk.iX| ] l.l.O.T. X;Xs.oX%Xv eX  4 2 2   eX8X XiXD.@.3X6X>.$X'.H.",
"0.k c.}.$.qXlX$.dX;X3.!.dXn.*X[.g.hX  F t M 4   6XtX' s.pXf K 9X}.$.6Xp  X0.%XK {.$.T.^ d.OX*X  # 4 4   M.!.$X}.{.F.s. X8X| g.s.",
"*.{.%X7Xp dXv #XeXX.s.!.qXq.i.6X`.x   F 1 B 4   7.5XhX! tXU.3XU.k t.E.:Xa ..0.x.'.V.R.!.eXU.Q.  3 2 :   {.P.-.kX;X;XR >.#.U.&.:.",
"5.;X$Xg.I.i 3XU.U.T ' }.E.wXT.$X6XY.  A 3 M 3   aXqXJ 0.%Xs.s.I !.:X{.5.h  Xj.{.| {.eX}.uX}.m.  b 3 ;   9 G.9X{.5X` Y  X9.g. .fX",
":X+.P.%X%XU.S.{.5X[.W <X!.8X_ ( 6XqX  S b 1 4   m.] eX:X0.%Xw.{.!.@Xl G.s.%.7XK 6X[ dX8X{.}.I.  3 < -   5XU.i.^ s.7 &.'.k.' %X}.",
"5.!.wX~ ~.Q.;X%XJ 7.Y.9X| g.Q.}.{.|   b - b b   =XM.{.M.S.L.$X) @Xh ) 7XwXq.fXiX;XqX-.aXg 5Xg.  ; r M   x.6XwXp gX9XeXf qXB.6X,X",
"6XqXR.U.>Xf.g.' eX7X7.A.sX$X7Xm.] 2X  D = 3 :   @XeX{.6Xk. .gXuX}.d.2.%XB.eXY d.x +.x W 7X8XY.  M = 2   eX^. X Xs @X3X{ p d.d._ ",
"z ).`.9.{.L.d 5Xc.K.p d.E.{.}.d ;Xc   C M o >   g.M.7.eXg.'.q.|.uX$Xk 4.}.s.$Xk ^ qX}.3.! 7Xg.  3 4 4   I.~ OXuX$XY K.0.g.Y i.>X",
"(.tX6 U.[.L.xXE.8.wX'.d.{.iX$X%X'.3X  4 t M M   }.p.[.5XtXE.{.5XdX%X@Xd.U.:X$.wXU.aX$XiXwXi.wX  - , t   uXiXgXg a.gX0.$X}.2XE.M.",
"                                      4 t C 2                                                   N , b                           ",
"4 b 2 > 2 V M S 3 r 4 3 t 4 M 3 M 4 t 2 M   V   b M M 3 4 M 1 C > 2 4 2 B 1 ; 3 M M 3 M b 4 C 4 o X b   D B 4 C , b 4 M , C C * ",
", b 3 b 3 , 4 < 3 4 t 4 4 4 , = t & , 2   4     4 V 3 2 , # b b 4 V 3 V 4 < & M 3 2 4 3 V V 4 C r 4 3   3 4 ; V = 4 t 4 4 4 ; 3 ",
"3   t N M X b , B , 2 3 3 M ; V 4 , t F <   o   M 3 M ; ; 3 V ; t = M B 4 = & 4 4 1 b 1 b r b t b C 1   4 < b = - , B r , 4 , b ",
"  2   V                                                         V r 3                                                       4 F ",
"3   3 3   d H.T.0.T.@.R q.w.' :.' 6.~ ( R 4.6.W =.] h 3.e.J.'   < = &   w.d H.E.A.@.d 4.T.f _ 4.W a.w.<.=.` a.d -.r.0 ! K.  < b ",
"b 2 2 4   $.5XU.E.x.I.$ <.9.7.$.1XY.7.7 M.s ^ Y.{. XN.f.4Xm.sX  4 - 4   =XfX^ U.`.U.^.eX0. X5 9.:Xf.Y.a.dX8X$XP.K.d.qX*XU.  D 4 ",
"b 2 b M   iXN.Z.wX@X Xf L.dXh.Y.J 8X XfX3.C.oX{.{ k {.}.8X%X).  M t -   %X$X! *X$XU.=.W 6.'.t.! iXqX3X' @XiX}.L.w Y.=X%Xv   3 4 ",
", 3 C 2   5Xa.d.@Xc.9 '.fXhX5X~ U.>Xz 7.R.{.=X8XT.qXdX$X7.wXv.  2 2 b   9X&.3X~ x.{.'.Y P 7.3X6X| 3X{. X-.v.$X{.y z.@X^.p.  C < ",
"; 4 3 r   !.x.c s.E.K.{.f 7XgXs.{.K.fXc 6Xa.&.m.#Xd.$Xd.%X[ m.  r b b   ,XwXy.6Xc.c.#.eX1X_ _.U.i.%X6.9Xt.3X[.%XK.[ B.m.OX  1 b ",
"N M b -   %X[.Y.D.gX;X{.{.e.E.;X3X<.;Xd. X X] t.fXdXgX` %X[.8X  b 1 :   :XF.%X'.*XS.OXU. X7 X.f $XM.j %Xp.9.} E.7X5.P 0X'.  S r ",
", M M ,   B.{.[.%XJ iX5X<Xs.s  Xs.U.k %X`.0.e.Y 6.3Xb.e.{ T..X  3 4 M   $XU.qX2X] *.t.wX'.e.E.E.$.k s.'.6X-.lX}.7.w T &.%X  1 3 ",
"4 3 N N   $X9.$.@X0.;.6X0.5. XwXY.8X@XR tXwXyXjX7XY.3XjXeXuX}.  B B 1   OX8X5Xi.7X3X{.L...U.K.@.8.Q.[.6Xm.Y.%X9.7X@.%.gX1X  3 3 ",
"Z , b 4   iXM.! 7 $Xc.5XH.m.6X%.V.wXd.E.3Xe 0.wX$.5.0X$XI.@X0.  < b b   iXL.P g *.s.E f.rXY.a q g c.Y.Y !.:X'.G.P.{.iX&.^.  2 M ",
"r ; 2 1   d.| J uX:X0.` ;X7.iXC.R.m.3XhXW T.u.[.K ! ~.:XdXL.9X  M 4 4   ~.5X#.k 5X2X&.E j.!.M.q.E jXI.+X~ ^.{.jX8 wXY.5.'.  b 4 ",
"b M b 3   }.C.[ &.dXT.6X8X5Xv.cXv ;X:X<.:Xk.;X{.1.iX$X=XdXB.].  V > =   d.'.s.OX6X[.}.2X2.~.$Xg.j i.'.iXsXp 7.wX}.R 8.}.s.  t 1 ",
"C 2 4 b   E.}.gXB.|.8X7X%X%XQ.%XU.B.eX-XI.6X[ &.*X7X0.oX@XU.U.  b V 2   {.%XeX6XqX@.}.:X9.'.{.d.l >XqX!.6X$X'.I.0. Xt.'.j   ; b ",
"V b ; 4                                                         2 3 =                                                       ; 4 ",
"&   4 >   V 3 < , S 4 2 , 4 b = M b ; 4 # 3 b 2 B B B 2 4 4 2 M 4   b   b M 2 3 b 2 4 3 b & 4 4 3 M 2 , o M 2 V , C r 4 N . o t ",
"  4   4   b t t ; , r N 2 4 - r , r r , M 4 b C 1 b 4 3 ; b 2 2   V     = ; 3 , b ; S b V , 3 3 4 b ; 2 b N M C C o 2 4 , C 1 b ",
"<   . b   2 1 2 < 4 3 2 3 M 2 3 4 b O 4 3 4 = C 2 r M B , D C M ;   3   1 C 4 4 b 2 2 4 4 3 A , 2 t 2 2 4 3 r 2 B b C t M 2 ; 1 ",
"                                      2 , , C                                                 C 1 2 ;                           ",
"x.sXwXdXkXpX}.}.yXB.kX7XcX!.X.xX*.|.  D 2 A 3   0XzXgXqX!.3XaXjXy.kX7XU.K.L.5X8Xu.8XjX8X@X[.  2 < - 2   pXxX2X8XY.rXiXiX3X].6.7X",
"`.c 5X@ u L.$X'.H 3Xs.gX<X:X}./.) XX  C M 4 ,    X5X;Xz 6 t.{. XwXqX0.;XdX.. X0.d.9.!.N.s.[.  3 , b 1   x.dXE.n.f {.@XwXu.B.L.9.",
"U.M.U I {.) |.-.5Xs.+X5 ..6X[ %XP 5X  D r V b   a.iXdXd.gX7 Y.7.gX6 uX XwXs.4.}.}.~.s {.K.%X  b b b V   6X_ !...J.wXI.T ! 5Xt._ ",
"{.6.q.uXm.qXV.~.{.9Xp e.U.^ fX=.5X(   C 2 , b   $Xi.i.*.h.eX~ !.uXb.p K.$ =X9XR uXL.gX~ _ '.  , > M 3   fX0.9.Y.C.7X{.$XS.}  XI.",
"9.%X:Xt.9.f.0.!.a.@XeX[. X9.P.'.'.iX  S * # ,   }.dXU.%XeXwXhX}.0.$XU.wXqX%X;X|.*X{.U.;X}.Y.  4 V 3 *   u.r.gX3X{.!.6X$Xm.M.7.K.",
"wX{.}.&.=.}.Y.@X5XT iX}.dXX.~.( $XhX  > r , 4   qXg.U.{ qXuX+XfXd :X8XkXT U.s.7.$X:.8X6Xn %X  V & 4 4   m.}.4.qX7.M.v 8Xp.Y.i.} ",
"0.g P.[.'.I 9X%X;XgXY M.5Xt.E '.$X'.  4 r 3 S   i.5X-.;X$XM.6X-.{.wXR.p pXc %X'.6.dXiX7XtX:X  M M 4 3   hX:.^ I.iXL.-X;X3.v ] qX",
"2XU.0.}.5XwX~.{._ _.3XeXI.9.}.aX{.p.  M b b 3   $X{.iX{.8XdXpXP.i.}.%XY.'.9X5.uXd.`.qXqXf.{.  1 V 3 M   5Xi.}.5X{.s.{.) $.qX].`.",
"                                      C 3 b 4                                                 r b C S                           "
};
