/* XPM */
static char *Cave_64[] = {
/* columns rows colors chars-per-pixel */
"64 64 98 2 ",
"   c black",
".  c #160D00",
"X  c #1C1106",
"o  c #1B140A",
"O  c #1E1A0D",
"+  c #221607",
"@  c #2D1C07",
"#  c #21170C",
"$  c #231A0D",
"%  c #2C1D0E",
"&  c #331F0B",
"*  c #251D12",
"=  c #2B1E12",
"-  c #301F10",
";  c #2E210F",
":  c #34220E",
">  c #3B240E",
",  c #3E280F",
"<  c #262014",
"1  c #2D2213",
"2  c #2B241A",
"3  c #332414",
"4  c #3A2613",
"5  c #362916",
"6  c #3C2A16",
"7  c #352719",
"8  c #392718",
"9  c #362919",
"0  c #3C2C1B",
"q  c #3E301E",
"w  c #322921",
"e  c #3C2E20",
"r  c #3E3121",
"t  c #40250F",
"y  c #41290F",
"u  c #432D15",
"i  c #4A2E16",
"p  c #422E1B",
"a  c #492F19",
"s  c #463017",
"d  c #4A3117",
"f  c #44311D",
"g  c #4B341C",
"h  c #4E381E",
"j  c #51371D",
"k  c #52391E",
"l  c #402F21",
"z  c #443322",
"x  c #463423",
"c  c #483220",
"v  c #4C3320",
"b  c #4B3520",
"n  c #4E3721",
"m  c #493726",
"M  c #4C3725",
"N  c #473825",
"B  c #4E3B23",
"V  c #4A3824",
"C  c #473A28",
"Z  c #4D3C2A",
"A  c #4F3D2C",
"S  c #503721",
"D  c #533A20",
"F  c #543822",
"G  c #523E23",
"H  c #543C23",
"J  c #513B24",
"K  c #543A26",
"L  c #533C25",
"P  c #563D24",
"I  c #593B20",
"U  c #5B3E23",
"Y  c #5A3E26",
"T  c #533E28",
"R  c #543C28",
"E  c #5A3F28",
"W  c #4F412E",
"Q  c #574026",
"!  c #584027",
"~  c #5B4227",
"^  c #564129",
"/  c #59412A",
"(  c #5B422B",
")  c #5D412A",
"_  c #5E442B",
"`  c #5D422C",
"'  c #5D442C",
"]  c #5C4732",
"[  c #604125",
"{  c #62452C",
"}  c #60482F",
"|  c #65492E",
" . c #654730",
".. c #644B32",
"X. c #684A30",
"o. c #6C5236",
"O. c #6C523C",
"+. c #71543B",
/* pixels */
"x 1 1 0   0 v g J a g a k   7 5 3 p p   Y K   0 0 4 m   P g g 3 j H p   0 8 3 8   P h P J J   0 9 0 0 p   f u g J h H Y   8 0 3 ",
"0 9 3 6   m   b D g g P I   3 9 f 8   D )   * f p p 0   L g P h R     < m 0 3 f   B g g g n   4 0 3 0 p   0 u > g 0 h _   6 0 4 ",
"7 5 3 4     9     a u S Y   5 9 9 5   K g   3 p 0 5 c   J h / J K   0 0 p 6 p   C Y s G P J   A 0 p 0 0 x   g J Q n g u   3 f 0 ",
"9 7 r   R G 0 g H   g k I D   = 9 3   g P   9 z 3 0 0   u u g g   6 # 0 z 3   h . I D J     0 1 z z 0 4 0   J u L / 6   x f f m ",
"3 7   P L ! f ) !     g  .f   2 0   P P `   9 q f 0 3   P g } /   p x 0 0 3   g g I J L   A 0 1 8 4 f 0 0 V u h h g p   0 0 z 4 ",
"9   M n Y g / P G E P   f f z = z   J g *   3 1 4 4 4   T h /   u 4 p v 0 0   ' J D g L   4 6 p z 3 0 m 9 p   J h p 0   2 6 9 9 ",
"  p P Y J ' J R h / D /   x 0       J f 0   1 5 0 0 x z   h h   p z 3 0 f   L h Y A a h   5 9 z 0 z p 0 3 0   L g v   1   8   9 ",
"B g , h h J d 0 h I g g   f 6 8 / h K d p   ; 0 9 f 0 0   g   4 4 z 0 8 8   / L B < g a   0 p 0 f 0 6     9   L 6 g   7     2   ",
"' u B u u h 4 p S h H s   8 f 3 j g P m f   3 9 0 4 4 9 0   K 4 1 0 0 0 $   P J u Z g K   0 0 8 N 4   D   <   B p f   0   8 3   ",
"h / 4 g ' g f 0 h / L >   x 6 0 L J / 3 3   9 e 7 : 4 3 7 6   6 m 0 1 3 5   ^ H E h S J   3 c 0 p 0   D   *   R p   7 3 3 9 =   ",
"g h 6 ' j / f g 6 y u   3   0 $ J L j f b     q 3 7 0 5 ; A 0   c z 0 9   P _ K L u g )   9 x c 6   Y E   8   p p   0 0 9 5   k ",
"g L u y g u p <   g g   3 6   2 g H g 6   h h   9 6 0 z % 3 p   f f 5 0   P J ) a g g g   % f f 0   g J f   f 6   5 0 0 1 5   g ",
"u u a w ! J b     / g   9 0   8 J u p p   P j   9 7 x 3 5 1 p x   0 8 0   g J u J a K m   5 8 0   [ g f f   6 4   5 V 0 9 *   B ",
"Y d i g D J   5   i g   7 0   p u g p f   h n !   1 3 3 7 3 2 c x   9   n n h g g J 4 A   0 1 p   d u u 6   u   5 9 0 6 5 1   g ",
"  / * h g   0 9   x k   5 6   3 6 g 6   D J H B ..  5 9 1 5 7 8 3 b     g K g f B J b   9 5 5   ..H u p 4     $ 0 3 c 0 0   g P ",
"P   o J g   5 6   c   3 1 4 8   6 4 f   L i J k H   3 3 9 1 3 z 0 9 0   h / g g k f   c 0 5 3   k ` B c p   2 3 5 8 f 4 0   J d ",
"R S   u x   3 5   f   7 x 8 0   6 0 6   L , K g U +.  3 3 7 p 0 8 5   f 4 h g g j   4 0 f 0 0   Y P g p g   8 3 z 6 5 f 3   g s ",
"g h   P M   c 3   p   7 0 z 8 0   n 6   G R ! g i   2   9 5 7 3 5 5   f J H j J   6 8 f p 8 9   { L 4 6 P   9 8 p 3 p p 3   E G ",
"u 6   h n   p 0 5   8 3 x 0 0 0   6   g g a g S k   0 5   3 8 c 0 5   n S J J h   + p 6 7 1   { Y ) 0 Y s     9 f 6 x f p   g D ",
"4 p 6     0 8 0 8 9   5 3 8 6 z   b   > B g h h g   V W   0 9 5 5 9 4       D L   8 0 0 3   / g g Q p S   L u   0 c 4 * 3   / K ",
"f f b   * 4 f 0 5 8   8 9 x 8 0 e     S h g J j   0 0 x x   = 3 8 5 6 4 u /     0 0 p z 8   k P L R /   u g f   c f p * 0   P 6 ",
"f 3   6 9 p p c x 8   3 7 4 3 p 0 b   g J h a )   0 f x p   3 5 7 < : 6 u G f :   f 0 3 0   E g a Y   a L h p   0 p 3     g / s ",
"    f p 3 7 0 f 0 z   9 1 8 3 8 7   6 P F g n s   f 0 0 p s   3 0 * 0 4 4 P f 6   6 0 5   Y / P G   % h K 0 p   0 0 :   4 6 s 6 ",
"f   6 f f p f 6 8 4   5 3 3 0 8   6 0 3 B D n u   z c 3 x p   7 8 * p u g f u f   0 8 r   J S 6 P   u G k 4 b   % l 9   p p p p ",
"f x   2 6 8 x   6   5 3 3 5 8 3   6 p 6 P g J j   3 6 0 M 0     1 x p @ f p 6 f   p 1 q   p Y Q j   h ) K f f   8 3 5   g $ 6 4 ",
"6 p   0 8 c   g   p 8 1 5 7 9   6   p f h K h   8 0 f 6 x & 0 e   : p & 6 6 s f   5 - 3   g j J   R J g 0 p b   5 3 3   c 6 f 1 ",
"0 0       x   S   p 0 * 0 8 5   6   0 x g P h   1 9 R 0 m f 0   R   4 a 3 0 6   p 5 3 5   J v S   h g L b 6   2 9 6 8   6 6 6 f ",
"4   p 0 4   R g k   0 6 3 0 0   0 6   u 0 P 6   9 9 0 8 f 3 4   Y h   f f 6 x   6 3 7 3   k J   f g a p & v   = 9 8 3   4 0 6 f ",
"  6 0 f f   P h J   0 b 9 9 3   p p 6   p p   5 # 7 x p 6 p   I n g g   6 4 f   0 3 0 8   J g   % g u 6 b   f   1 1 1   p 0 * g ",
"3 7 c 3 8   J g h j   x 3 5 7   1 p p   0 p   0 9 8 6 0 f   _ B J g g   p c L     3 5 0   h g   4 J P s 6   z   r 0 9   p f p f ",
"8 f c 0 c   g J Y P   z 0 9   p p 0 3 v   6   5 3 7 0 c 8   } L g 4 H   f f   3 1   1     J   c f , u b 0   0 5   3 9   u 8 6 3 ",
"5 f p 0 0   u n g u   0       p s u p p p   5 3 8 5 3 z 6   B g P g u       9 5 3 1   4   G   4 0 6 u p   8 6 8 9   1   p 6 3 a ",
"9 p @ 6   4 ..i n J o   f f   p 0 6 f 6 p   3 3 8 # 3 0   [ h S / D g   6   5 9 5 2   f f   x f p 6 p   C x 0 9   )     p f 4 3 ",
"3 0 x 3   f P g h ) u   c c 8   4 6 6 6 p   1 9 0 * r 3   p k 0 J g R   p   5 1 5 2   & p h p f f 0 6   b 0 =   d h     f f p 9 ",
"3 3 8 1   b P  .a S h   0 0 f   f 0 f 6 p   9 5 7 2 9 5   f g / 6 d   3 l 0   3 9 2   p f u x p 6 5 8   m f 3   u J h f   c V 3 ",
"3 8 3 9   u h g a K 6   0 0 0 3   4 4 6 u     3 7 2 3 3 6   J J D   8 x f p   9 5 = 3   b f 3 V a 3 3   0 5 3   6 j J   p p * 3 ",
"  3 9 8     J g P g 0   8 z % c 0   0 M   ] i   9 1 8 1 p   P g J   9 z 0 8 4   7 5 9   p a p p 0 9 5   p 8 3   s g P '     3 9 ",
"0   9   0 5   g k k M   3 4 z 0 0   s 6   R B F   % q 9 0   g , G   5 0 8 f x     3 1   c 6 6 6 1 =   0 z 5 1   g j G u B f   z ",
"5 1   8 4 9   Y B f 6   7 f 8 4 0 0     h S g h     5 < 6   g /   3 1 p f 0   +.h   5   a # 0 c 5 5   0 5 3   4 u P u 4 q a   8 ",
"7 5   6 0 5   g g p 6   3 5 6 8 x 0     g h g u g k   6 0   ] K   3 5 3 0   [ J g   8 0   a 6 1 5   0 3 8 5   J u u L v 6 0   0 ",
"3 5   p 6 m   h L p 6   1 0 % 6 0 z   b J J g h 4 g   4 0 6     f 3 3 4 0   ) P h x   7   a *     p z x 3      .g d G p 4   5 3 ",
"3 3   8 0 0   g S 3 6   9 r 9 3 0 f   c 0 J Q n / P   6 4 V p p a 3 2 p x   } g h g   3   #   7 3 f 3 f   o 0 J g P J p 6 s   5 ",
"3 5   p 4 0   f 6 4 +   3 9 8 3 0   A p c 0 u g g a   X f 3 f f u 8 p 0   ' g h a J   9   *   9 0 0 3 z   g g P g a 0 0 f o g   ",
"7   7 3 0 p 6   V g   g   9 3 5 0   f 4 f h h u E Y   c g 6 f 4 f * 6 M   D ) g S H   3   %   = f 0 0 f   s u i L g f f f < / h ",
"    8 3 3 0 6   p 4   g   3 1 8 3   0 g f h u u u h   4 p 6 V f m 0 f 8   s n f h M   0 1   3 3 0 6 0 9   J J h g u 6 3 a / S h ",
"g h   0 = 0 0   f 0   h S   9 r 5   p 0 < P ` ' S ^   V 2 x 6 b = f p 6   / P B L   6 2 < 3 3 1 4 p 6 0   h ! s O 0 6 b h 4 g 0 ",
"' g P   5 V 0   3 f   j / g   5 3   4 6 f u 6 Q a   0 6 = p 4 p 3 0 z m   u g g g   f 6 8 3 % % 0 8 9   g J h P 6 6 b 4 p g g J ",
"S u D   9 6 f 5   b   n P g   9   6 f b p : g g d   0 f M 4 x p f 0 8 3   n h K L A       9 9 9 p 0 3   J K h ' 3 0 4 : * ; h n ",
"P f P k   9 f = 9   b p Q J Y     s M 6 s f B g B   6 f f < 4 u x 3 3 0   g u ' g g J B ^   5 3 3 1 9   / u & J f 4 4 6 3 9 g g ",
"Y g n o   3 3 8 9   f f J J Y   u 6 v f p p g u P   5 4 p 0 0 6 f f 3 *   u ` n P & P P u   3 3 3 0 2   R J B g 6 6 3 4 3     P ",
"! P a F   8 3 9 8   b u J g )   p 6 s f 4 p g L u   3 0 3 f X p 8 p 3 b   p J d / P P S g P   3 8 9 9   h h K f 6 n p 3   e   S ",
"i G b   B   3 3 3   6 p g h Y   a p 4 p 3 p g h f   9 3 0 0 0 z p 3 7 p   p h   D P g b k u   5 3 9 5   3 P g b 6 b u   8 3   J ",
"n L   h h   9 5   6 p f h h a }   p 0 4 p 0 p / u   5 3 6 p 0 0 9 5 % 6   6 j   J g / s ! g 6   7 * 1   s / J g b 3   8 3 7   J ",
"a   f D f   3 5   p 6 4 g P g D   p 4 u 3 p : f   J   9 3 Z x $ 0 3 3 p   b h   H g h h h g f   5 8 3   0 L S 0 c   9 9 9 3 3   ",
"  * & 4 0 4   9   4 f n b J h Y   f 6 6 3 : f 6   J   7 1 8 0 V 8 8 3 < 4     p   g / S K , 4   9 0 9   p B a p     z b 5 3 3 8 ",
"2 m p p c f     e 0 v p m S t C   3 f 6 4 c 6   ^ / G   5 5 p 8 5 9 5 : 3 6 6 p   G P g g X p   * 3 5   f s 0 0   6   p * 3 3 9 ",
"5 6 f 3 @   }   u 0 p f s J g   7 < g o f 6 6   G L P u   3 5 8 r 9     z 0 f 6 6   P L u u 0   8 9 3   f f 6   3 6   c 8 * 9 8 ",
"9 4 f 6 a   g   p 6 u 6 f J 4   0 0 u $ p f   / y Q / a   3 7 1 9   L h   6 f 6 p S   D g 6 p   7 9 0 0   0 p   4 0   3 x 0 5 1 ",
"5 b f p p   h S   p f f p a f   0 4 * a 6 6   L h h g u Y   9 9   g u g   q 0 6 b   / R * p p   1 8 8 7   0   c p q p   f p 3 3 ",
"5 8 f 4 f   P J |     6 6 4 u   p x 0 p 4 > 4   g R a D Y   0 5   P g R   3 0 f p   g P p h p   0 3 1 8     R z 0 0 0   3 p O ; ",
"3 3 p 0 4   h h n k |   b f   3 0 x 8 5 p 6 p   n s g / P   5   h ) / T   9 % : p   D $ s k p   3 7 0 5   p 0 0 8 3 L p   8 5 3 ",
"3 1 3 u 3   L D J J j O.  4   9 0 0 0 = p 0 b p   P J J J Y   h g P a   9 5 8 5 <   ^ / P H f   9 f 4 0   s % 0 f ' g Q   8 9 8 ",
"z 7 3 6 z   / u s s L X.    3 p 0 3 p e 6 p % 6   h J j J L o.a g P Y   5 e 3 9 5   K J h g s   8 8 z 8   f 0 c 0 h g g   p 3 5 ",
"0 % 3 = p   a n Y L i g   7 3 f 0 p 3 b     s f       g ^ a B J g h &   3 9 7 3 7   g J g a g   8 m c p   p K g n k J g   3 3 8 "
};
