/* XPM */
static char *coal_64[] = {
/* columns rows colors chars-per-pixel */
"64 64 67 1 ",
"  c #000000",
". c #060807",
"X c #080906",
"o c #070608",
"O c #070909",
"+ c #0C0D0D",
"@ c #100E0F",
"# c #0E100F",
"$ c #12120F",
"% c #0E0E10",
"& c #100E11",
"* c #0E1111",
"= c #131415",
"- c #161917",
"; c #151619",
": c #18161A",
"> c #16191A",
", c #1A1B1D",
"< c #1D201F",
"1 c #1D1E21",
"2 c #201F22",
"3 c #1E2122",
"4 c #222325",
"5 c #252827",
"6 c #242528",
"7 c #262629",
"8 c #272729",
"9 c #24282B",
"0 c #27282B",
"q c #272A2C",
"w c #28282B",
"e c #292D2B",
"r c #28282C",
"t c #29292C",
"y c #2B2A2E",
"u c #292C2C",
"i c #2B2C2C",
"p c #292C2E",
"a c #2C2E2F",
"s c #2D302F",
"d c #292C31",
"f c #2B2F30",
"g c #2B2C32",
"h c #2E2F33",
"j c #302F31",
"k c #2C3030",
"l c #2F3133",
"z c #2D3134",
"x c #2F3234",
"c c #313232",
"v c #333335",
"b c #323237",
"n c #343436",
"m c #323339",
"M c #323539",
"N c #343538",
"B c #353638",
"V c #35373D",
"C c #39373B",
"Z c #333938",
"A c #37383A",
"S c #3A3A3D",
"D c #3A3C3D",
"F c #3A3E3D",
"G c #3C3E40",
"H c #3E4145",
"J c #474B4B",
/* pixels */
"h1>0w014w>411477+t4hA11,     44,7at;u3.0th4zh344    3u,     ,471",
"h744     13a7,4b$41wht,3,,;>f4h,f,=1zb1eth      >== 44,=447nh,t2",
"774 bVz3, ,t1a4tF0f44t7%OO,*w4B,t177*3t34 1,,,>,>% tb,70u,3=l,wu",
"h4 4mZ744; 7744lb j4tt40,ut0,>44u414t1,7>4  +>>=, q,07a3  ,hb0wB",
", ht4047b=; bu0h z  B=0lu7,Ah4Fbahct4>b374th     4400F  f4  40h3",
"77 773Mzl=> 4ll c4t4 44;1,,wb7B3w+FbuulOt73tt1470w0c  z74777 7lt",
"b7 w,1>,;,,% l,7 1u4u 1,07Bl73770f7hl7fu u4,7,437a7 14703t43  4h",
"b4 >>>=+>>  1031t u44b n7 f3t42;+73c1   > 4741t7a74 441t>t4 >= 7",
"b,u +>;=> u374u174 bh7 4 7 1*4a,743  ,,,= 4twq0uz, q*07744 ,=> 1",
"4b;1   % bu     b7b   th = =>1F4h3 >,>3, %7h47tuu7 ,11=0z >;;, 0",
"474B7ll 4= 4h34; u7%b7ub7 ,=wn0tt7 ,,,  A,3c0tba3b 1;;4, >,;, bw",
"4u,,,,73,7 +w.+>= 0w37,4h44B*t0tqu    wn1717l;wu4t+ 1;,, ;-;* 74",
"1;7C tb7=c3 ,,,= 1774b33atA,447t04hbt4t373t    44t40 => =>1  473",
"a1tO> 14t14n    ,4q0,w7471,7774hn+tu77,44t u0hO 7130,      010h4",
"+3  = buzla474w,344ut+uq0h>u,4++=c444t43q 7uf,== a>w4w00u4t70,4h",
"l     aj0t4,>,4b7>37%1w7f41+*>4l7uA07b745 43;>;> Butt0b774t,4bw1",
"ztt,ba    00n44>7t4%h>t 47>, 7u,414a,+q17       7a7w4ht>h,   734",
"30haS h0B> t0l,04nl47z01,t0 % 7311l%z54.t44b7al3at,4jw0ht t47 bu",
"3;37c ,,*= 4B4t717A,t137>17 ; w,b4B4+->#44u4w>7hhb7a+34au ==; 4t",
"3t370     ,4;44t,=,  1431,l >O a4q4+0=&l740qt>343l700V74h     ba",
"htb43,u0sbtahb37M7 ,> 7711 ,1% qh0413b70q77ul1whfbbt3cl4ulaq7hh>",
"a123>t7tl7,1 414l  >,     >,> 4wt4>4,ul>0lt7     bf1t7++7w;hu4b7",
"+7F4 30a4l> 444401t ,:>=>,>> u4-s14>ocl4430 h7t00  w7th4 7=7-4, ",
"z44t0 a,4  4w:ut;,41 >;     lt3tlt7==B4l44 Vt4740u1 4;l,=*n7w7  ",
"tu4,33   4703 u4w7a,l  w7737n7ct3b7%lu3u7 ,a73tnh4> hu0h>,4ha t ",
"47f04 31 331 u    ah0hwltb7,b=4l7,1=74ww 3,,,4tf;4>; 0u+47w7 tl ",
"7t4q> ;+ w44, ;;== b3h77;7F4&uq74.4a373 3114tbf733=, 14=uwa >14 ",
"+u731 ,> 4, .  +  l54a7tBu4       auu7l >740+u740-=; b7+hbw= 31 ",
" 3>  =>> 44cft, t77+A77t70 ,>7,>>; h33c ,,VO744h;;;= 4u=41>,1 4 ",
">  1=;>= 4,b47f744    0c4tl ,>>,> 37thS 3,tq143#==, 3uA,bmh, 3  ",
">O==>;=* h;lb0u07 >b = 7470h      uaqa+3 >=,,>>,>*= t1u0>7t4 ,>;",
";,>;>+* 7,14,177u  %>  4w4>h37t0b4>w7 u4< ;==,-==; t174l74,t  =,",
">,+=+  17u 7u 77w4B  tt2t;7tt47tb04+103tuB    ,,= 0lub   b,3wu  ",
" +#   a7w ,  , 427470l3tA3J,A704w7OBaB447V4*u=   4w4l :3. u1uw07",
"u  >4bhS4 ,>>> 4u70173u3t+u47u4b +01f4133a4q57bt40w4G B>= tu=bb1",
"ua4u44737t    3,0,337   Bl44, u05c4b4t>t4407ba7ct,1t4+   074w744",
"41,hu   h4444h3b7=0  c>wt0u>3>b,4>qH03>+74t41w77lu477t0><3l7474u",
"b+fc 343 5c7>4f7uG 33b743,nahat;lOu477l  >3wb755    u31w4wu   wG",
"4>4 ;*O>; 447h1,47 77t>7>44q4h4B  37h7 4; 33hft +0++ 4w;1h 4> 3t",
"744O,>   V  0043c4; 452,44f4t7B , 4140 >= cn,0 3477=% a,3, ,; Fu",
"w4eh  bau774>b134auBh+44:07777, ,1    >>=> t1 ,3h7,,;O F,,u  744",
"44l440u1t,77%St74+>bw4e7Bhh31bt ,:>>,;*;; t14 >,,>=,>1 03twt4qn3",
",03714=3711>1ucOu3b+h4,t+,+1a1tl  >;>,=; t,ha ,#,>=   474101e3  ",
"t#M14w44bah47t7=qw>=a77>bhwwc4t1f4      7a>w0=     =>3>1t1u*f u ",
"37 1173,ut*7b4=1>>>,u4>,,4u1f4stt0u1t3tf707bhu1,7,0ltt004,,  47 ",
"  , >07;h3l774uV7=w4tbbB7#tFhb4Btu444cu0uh7+q+,>,74h4+h37u w4433",
",=> 7n4u>t37b7t1,h34u,4G744++c173uuct>44540+%74>47tw4w7u40 ,;==,",
"%= 5w1t1lb3ww4la=74n7=ut,=7wa  uu7443b01ll72tlht7M17th7F;f, >=>%",
"  h0,74;7OB0u 4t>ac3afu34t4s ,+ h, l,4,A74ut5t=O7300b,;lt4,4    ",
"b470477l     > a43h0@71,700 O;= au7h    h%ua174woch4hww744>,41,t",
"ca,7qa, %1=+>= 3a,a        +%>= 10t +.7= ul10l41whH704hhO%t1=b3w",
",u><uhw4 =->=O >7t  =,,%*,,=;>> 747 3fu;> 770,707u41>*+u3b0th0,u",
"7u    t01     ,h4w =1>,,=,+=;>; q5> ;,>=> Bth+4,+7>4wc>cb;773q1t",
"1 #hA+ 430414h44wt:  ,.,>>,=-3 a4t7h.>>+ 347+4h430+470+7f0z0t717",
"7   f ,t1,uC=z0w,t477   =>>>O 0bwa0f    04lw1,     %40w0BulnOc7h",
"14 + >+,t0c7z7OG;,c41b4h     00l,b4,,74u>lh4  +=;== 0h447tt,==10",
", #+O a37*.Aa047%ea3t01>efl>343      1u741th +>;+  1ut7l44wB++w0",
"t4   447fqX*hu;7777twbth;bc17,w +===* 010t,a +   thwf,0h1041l43,",
"0Btu7u04,,,=44a4t1+c41tu444,q,t7 ,=+1 74b3bM3 t,3777C30*704#e774",
"4wl200atb2c744740           afBu1    7u4wb+l7,77l>>h,7=l4747,03,",
"007aO7+7q4c4bh7, B4<7 f0414f lwu0jcFtw,>0bhh7tth>707t M4170   31",
"4>7>==,htt4tl47 t4wtw 77374,> u74a:,h1wu f0bhau0ut,hS=     ,+ ll",
"b734*=G>1,uc730 w4t0t 3344,>, z147t70b7 4uat74h7t u44 ,3,;=>  43",
"7>,70u17lt,7307      >  >3=>, 4747=l,t7 7,447t7701 t47  ,>> 424t"
};
