/* XPM */
static char *Cobblestone_64[] = {
/* columns rows colors chars-per-pixel */
"64 64 100 2 ",
"   c #000000",
".  c #060708",
"X  c #050A0A",
"o  c #0B0D0D",
"O  c #0C100F",
"+  c #0D0E11",
"@  c #110F12",
"#  c #0E1112",
"$  c #121415",
"%  c #161817",
"&  c #151619",
"*  c #18171B",
"=  c #16191A",
"-  c #1A1C1D",
";  c #1D211F",
":  c #1D1E21",
">  c #201E22",
",  c #1E2122",
"<  c #222325",
"1  c #262827",
"2  c #252629",
"3  c #282728",
"4  c #26292A",
"5  c #2A2B2D",
"6  c #2D2E31",
"7  c #302F32",
"8  c #2F3133",
"9  c #323334",
"0  c #363837",
"q  c #353639",
"w  c #383639",
"e  c #36393A",
"r  c #3B3C3D",
"t  c #3E403F",
"y  c #3D3E41",
"u  c #403F43",
"i  c #3F4142",
"p  c #3F4148",
"a  c #424345",
"s  c #454847",
"d  c #454649",
"f  c #48474A",
"g  c #46494B",
"h  c #4A4B4D",
"j  c #4D4E51",
"k  c #504F53",
"l  c #4E5153",
"z  c #525355",
"x  c #555659",
"c  c #58575B",
"v  c #56595B",
"b  c #5A5B5D",
"n  c #595D61",
"m  c #5A5D61",
"M  c #5D5D61",
"N  c #5F5E63",
"B  c #5E5F63",
"V  c #605F63",
"C  c #5B6161",
"Z  c #5E6063",
"A  c #5F6263",
"S  c #5F6168",
"D  c #606362",
"F  c #616165",
"G  c #636365",
"H  c #636465",
"J  c #636467",
"K  c #646567",
"L  c #626269",
"P  c #636569",
"I  c #646568",
"U  c #67666C",
"Y  c #686669",
"T  c #65696A",
"R  c #666A6B",
"E  c #68696C",
"W  c #6A6B6D",
"Q  c #6B6C6C",
"!  c #686C6E",
"~  c #6C6C6F",
"^  c #6E706F",
"/  c #6B6A70",
"(  c #6C6D71",
")  c #6D6D71",
"_  c #6C6E72",
"`  c #706F72",
"'  c #6D7072",
"]  c #6E7173",
"[  c #6F7579",
"{  c #707072",
"}  c #727275",
"|  c #757679",
" . c #75787A",
".. c #777B7A",
"X. c #777A7B",
"o. c #7A7B7E",
"O. c #7E7C81",
"+. c #868487",
"@. c #88878A",
"#. c #898A8D",
/* pixels */
"M j a v b b j z   $ :   j j x g h F z H T f   : <   h x F z j h x A m   2   h z M h                 ,   j A h k I b A I r f h   ",
"F M x j z o.l     - #   z s z / Q z y b F e   2 8 &       j I v L h 2   5   j D F T j v a b b x   + o   z z j r x z a { I h y   ",
"b x z z       X : - #   m A v M H M T L x   # $     & 1 =   ) b F h   : 2 #   l Q v j A P m s K   <   v ] s l v P b h d H f d   ",
"        + < < : 2 - o   v x z P P v W v U   ,   a P   9 =     z C 0   , < = -   i z F M l F b F   2   d b z T j I ~ h j I a   5 ",
"% , 2 4         o * 2   W A m F M T H W   # <   F M s     : =         $     $ -   l A F v ] b r   -   b A ..d z m g x v z a   - ",
"        +.j I F     2   z T F z ..z A j   -   i r f a A )   6 - $ - o   x z   = <   z F F j x   - >   W A x W F M v m b j   1 * ",
"/ x T K m } M o.b   & 5   P m b x j h e   1   j b z } z v   e , , $   z b z m   & 2   s v g r   : 2   z j b F h z F b e y       ",
"{ l i v z b l b v   q -   b z e b v d   # $   ) v T F A F   q o -   x D Y b z m     :         < 2 : -   r A j I l F r y     } b ",
"] d m z y z z A m z   #     T h x r   & 2 o   x } a d b W   a *   M x W y F D F s   # 2 < < , $     $ 2       P h a u   #   v h ",
"z ) a z ) z v x b )   9 & %         & = $ ,     F y j b v   9 o   b l k v h ) K U   y < -       I z     $ 5 &         2   W K b ",
"z x b } x T T H h q   r - - - : 2 2 $     # 2 #   j v b   & :   P P ) I x M W I I   e 5   F Q W g b ) K   $ 5 < $ , 2   M a x b ",
"z F s s j d b l a v   r :             b l   + - &   z   2 <   L A b l } M A M Q q   < :   y b A v b z F T     # - :   M p x x j ",
"z a j } H M ] x r Q   O 2   b v b j l b z W       2     : -   M b x W b M z A s a   <   A h M z z F v M H f h   & <   z m z b v ",
"W a j z A d z z A e   5   ) h M h z m v a v M x   - $ : , :   ~ ) a A T b v y r   2 q   F I e z m f h M y W v   2 $   x z x F z ",
"m T h v l v ) H h   o   F z b d j z x F F F A x   $ - $   o >     Y z z z F r e   $   x F A v z T K a b l b 0   2 -   x x b z I ",
"A v x A z 0 a       -   p d k W b d M M A j b b   o #   H a   2 :   h v v W y   <   ..W x x M x l o.A j M v   $ < : 2       F h ",
"h u a         $ 5 2 <   } z v a b m x P L r I e   <   h x x b M # :   d 9 r   - &   k h F ) W I v D x b x     = $ O - < & $     ",
"      & 9 2 1 - $ , 2   b l z s l W z r T / f e   -   r S M m j g . 4       < 2   z x W b D ) j F m g z f   2 &         & 2 5 1 ",
"= - 2 o *           < $   z M b z x z t z r r   <   v v z M b b W v   5 < 2 ,   z r H x M a z A H ) x M   o :   H z W z       2 ",
"= 1       z l l A z   : o   z A f Y b y D r   :   h } ..d ] m K x v x   1 - o   v h x m D 9 z z j Q q i   1 $   I ) d v j h   $ ",
"2   T z j h T M H } M   2 &   b [ h W b f     .   k z W P W h b I v z   # 5 #   m v x M W j h T a h h   - ,   z H T b b b F   # ",
"$   d g z M b M T x j h   * #   K W s k   $ o   x z z K v h i b M H 8   # 2 1 o   W M a P h I z 9 f   + 2   b g x A a M m r   < ",
"  s W b 9 l b T l T a s   X - &         & -   l M A l z M D b b ~ w r   $ $ $ : -     r a b / s a   $ ,   M I z x z 9 z g   $   ",
"F h j b b M W h k a b l   o 2 2 $ * : & < &   k z F / j Q b l x Q r   $ $       , - $   f a r y   o = $   y T h r F F m r   <   ",
"T T h K z x b s v z z     - $           2 -   b b b z b ) b I h e   < $   m x F   $ &       f     : , 5     b K D h x I   #   x ",
"x b b b z I v e h r     2 ,   z j ..D I   2 $   F W z h T r z s   + :   v l F b   e w o : $   $ $ < $ < , $     z b x i   :   x ",
"  x v P a W r a c   o : &   z M s y x W z   , $   x O.z ) D a   $ :     s b h x b       $ , > , #         : - =   a d   $ - $   ",
"9   h l z j s r   + , #   T o.b x z W t x   . < -   z l I q   # < o   I b z H b h x m e   , $     z j x e     $         = , - & ",
"2 2   b M r d   # - o   A M g b M x b v F x   $ , +   D h   - , $   z W l h P h M j } s   <   U z j g j I z b   * = $ , <   $ 1 ",
"$ : &         o ,     Q z b M x z j x f j M A   , 2         < &   z z b A I } H A M x h   ,   i j b H K h F I s   5 2 #         ",
"  . 1 - & o , < :   a I ~ M A b b b j F a z h   + < < 5 , - 2   b h F D v I v x a d 9   2 $   T W s l W A j M v   - $   z j z h ",
"s     $ < $ - o   j h z h e b z H j b M F s e   2 : o # - < <   Q x y M m j D z h a   + -   v h x v b I h x l s   -   M z z h W ",
"v M 8     # 9 -   A b g F F v x M z A b a     : $           , <   a x x z M h I b h   1   j I I x j b Q P W h   . 5   z M m v b ",
"j v Q z s   $ ,   ) h l H I j j j x e r   $ - $   l o.j ) b   # <   y ) F ~ x y i   -   ] W x F F j b x Q x 5   $   M h h v M x ",
"b m z j l I   2 :   d v b x H c A v a   < -     M F A x x A z   O -     P k e z   . :   b v T M z b F z ..d   5 #   m H h / Q e ",
"h M x A x r   - < &     x v h d m 9   - -   A z M I v z h a A s   & :   b M 9 a   > 2   W h b ~ b j x F z   : 1   b M x M M h z ",
"z j C { a   $ - + - - $   ) h T a   , 6   W r x A v F h b x Q s y   2 2         2 - 2   A b M b T P z x   o 2   s j T M l m l H ",
") 8 d f   # :       % , &         5 -   h W v z l e ^ F M z M a s   $ - : # 4 < . $ = +   w i r j h x p   2 #   x b f j b I b o.",
"x 9 r   + <   @.M F     < 2 $ $ , o   x v F z x e z x m h P z W a   - < 2 : o         ,     y a r a r r   : < 6   I s h M M l M ",
"r     , ,   #.l z M z j   $ * : 1   y e z v d s v x A z m v } f   # ,         v z b F     2     r r i   5 : 2 < d         b z b ",
"  $ 2 $   W m I I b v z a     : -   H ) F F v v y v b z M 0 e     ,   } m D b F b s b F f   # :       4 $         o i y q   x y ",
"o -     x b I j I g x x z ..M   , &   W M m H v ) I F e 0       <   ~ M I r F j x z z z j j     - 2 -     h F M A       9       ",
"=   x b h l g j v j j v j m Q   = * *   F z s z M h r q   : $ 1   Y K z K W l M x v g z K x j   : <     x v j A z g a   < : $ < ",
"$   M h z F z x } H j z b M y   , 1 1 #   x b h ) I i     , 2 :   z h ` ~ F Q x M H z D b y y   <   } I a j h h m h M m     5 : ",
"o   D j p b z h M z T M ~ r   1 #   < 3 $   7 d h r   o 2 - 4 2   b F j H l F P x v z I a d   $ :   b T A b b b z d x s F b   ; ",
"- $   W y a x a F j Q a a   2 1   F     < 5         1 6       & 2     z z I F b H A x d a   O &   x z U z x F l v g z } H z   , ",
"6 - $   b } z A q F d a   < $   h T z j   + - # $ 2 ,   O.v j     , 1     9 e y h l v r   $ - #   x M v x b v A z b ) d y r   < ",
"    < -   j A h H W q   5 +   F h x F } v     - = #   K ) h T I P     - ,     a d s y q   2 &   b ) z z A F x ..y P r 9 i   ,   ",
"A P   < &   h a b f     5   z h g H W l K b   : #   M b I m z b ~ j a   & - #           < 2   v z v M m ) h a P b l d e   2   x ",
") x b   - -   f a   # 2   D m W z h V b b m   &   P z j V A g z D H x I   : 5 : 1   = 1 = o   v j K H b P b b b j v 8   - #   A ",
"I M j b   4 &     . 5 r   z M l F h D T d i   2   M f z y F z b x F F a   , 2 . . $ 2 < , 1 $       S v v z V I v f   - o   h b ",
"d b a h C   $ : - 5     z b M s V F h b y i   $   F P z b v a A b e     # <               O : , @ &     y L z ) e     #   b F b ",
"v F j z b M     - *   T x v h M h b b h F   < &   h x x h M x l y   9 # =   c h A z { A I   . < < , $ #   h d f   = $   j A h M ",
"r M } I T j z   e 2   k x H z z b M d v b   $ 1       h h | b H e   $ 2   z v x b l l v v v         o -           ,   A F z j x ",
"b Q a j v z I   e & &   ` M v M h h j x a   4 - - 2 &     h b } a   - 2   v z M M z T M I r l v M U   & : # & < 5 $   T z d v V ",
"g I b b } H     + , 5     x y | r h W r   5       - 2 - $   a d 5   : #   y j A i A F z z j v l j a   o < 1 # < < 2   v h h j m ",
"r d A a 1     o : # 2 5 1   j x z H f   < $   d b     # - #       $ *   W m b x z h g H g z M v b a   * $         - <     v v b ",
"A x t r   # : #       9 2     c x y   < <   F W e ~ Q   $ - < + $ = &   I j m j b M l F z b F M a a   2   z v A h   : - &       ",
"        , #     x F P   # - &         <   h F F b j l s     & , 1 , #   a v v v Q l Q T j z b l 9   < $   z v I f A   & & : - @ ",
"; - 1 >     D A Q z M   , - : , $ & , <   r h x z / x M M m       = - ,     H A b F z j x z x r   < &   j b o.A z v x       o % ",
", ,     z j x x b j f   5 $   $ , 5 : = $     s M j z U F T D b v     6 < $       z A I x M M h   , ,   m v M b z s j b s z   * ",
"-   z h x l A I M r   2     x           < : *   l P b M A m H v v h k   2 - < , 1       d s s d   2 +   ..K e a W ] z T h h   $ ",
"&   l x A W I e j   2 &   l A M M l A b   $ - ,   v A x A W Q h x b I   1 5         2 $         2 - $   j r x M z x x v g b   $ ",
"  a r M M H l b   $ *   j M z b M M a F x     2   z s z I j z z l b   5 -   I d x g   $ < - 2 & $ 5 5   h b F v x A v z v h   - "
};
