/* XPM */
static char *Dirt_64[] = {
/* columns rows colors chars-per-pixel */
"64 64 65 1 ",
"  c black",
". c #34220D",
"X c #3C260F",
"o c #3E2911",
"O c #442207",
"+ c #44270D",
"@ c #462B0D",
"# c #4D2C0D",
"$ c #532E0D",
"% c #582F0D",
"& c #4F310E",
"* c #54310E",
"= c #5B340E",
"- c #432910",
"; c #4D2F12",
": c #522F11",
"> c #4E3113",
", c #4E3318",
"< c #553312",
"1 c #5B3613",
"2 c #573816",
"3 c #5D3915",
"4 c #5B3718",
"5 c #5D3A19",
"6 c #61390F",
"7 c #613712",
"8 c #633B15",
"9 c #693E17",
"0 c #653D18",
"q c #643C1A",
"w c #663D1A",
"e c #663F1C",
"r c #6A3E18",
"t c #683F1B",
"y c #6B3F1B",
"u c #6A3F1C",
"i c #664017",
"p c #694016",
"a c #644019",
"s c #67411B",
"d c #69401A",
"f c #6C421B",
"g c #6A441B",
"h c #6F451B",
"j c #69411C",
"k c #6C421E",
"l c #6B441D",
"z c #6C451E",
"x c #6F461E",
"c c #70441D",
"v c #71481F",
"b c #72491F",
"n c #6C4221",
"m c #6D4520",
"M c #6F4721",
"N c #6E4821",
"B c #704521",
"V c #724722",
"C c #704821",
"Z c #754823",
"A c #734824",
"S c #774B25",
"D c #744C24",
"F c #794C25",
"G c #784E28",
/* pixels */
"M787451<5<<<1<t47tzkkd08k7C0k77=tgj1a710uz0k0dt0j0dd7z3t88zk88t7",
"zf<70G10tk0dk70na77fZ8td0080z0j0j$%1Se1  a7d97j70111771#800C0007",
"d8778Bj577700j0dd8z47d0e07j<f0adc7d7j3 1< <0jzzC7c11z67lC001<7c0",
"dtvdB800278h0t9eM7B0Mdaa*a877=0788780:*  11d0z0d0j7700015d7MfadM",
"80zkdz0Sv077Zz0jMlzdA8dC<<3BjtClv1z14$5790001z0t<1l0   d00M 70j=",
"a055c0   kd08d08Dt87d01=181fj8B131101<fCtz7j0170l70 k0z    < 7zk",
"Majz0 jC0 uB7z007<018a3t70Mj0j1211#33130Zd3dd1307j 0t<51<0<@ 30e",
"M8=a d*<<2 <3j<10ad7dj=0<2<21<$<<531k7Bl08<0d<70z lz<<<<<4;;  j0",
"M7a= 1<<1< <70z1980kk7<1e*<10<0<050v%akj<M0z80i5a* 55<1<<><<< d0",
"0j*00     2<1v000jM1$12<4#<11;a<e08=07jdc0j80d011< <<4<>;#   1k7",
"00<Md550<*<71700a03<531<3<11*0<50kM00zAj030Z0300<3<       5<50d0",
"7e1=d*t80001480k33<1<<*;413j$414033Bazkz47t0M*ha041tk:1<<13j1700",
"177Zv0l9=B0*2<j73<11<1<12<0*<<1l0tkSz0:7j1kA0dd8dd00z11017C0a77a",
"c77pdd1<883k<77t$<01$113<:<1>1<zz=0z00u88d7Chc10017d7dal0j73<dz7",
"dC8071Blaz8d0701077tk0z0<5<<*<87=k008z77ajc05877Bd1910a0aOk0008j",
"zi0107dc0k37477j0700j8d071<1<<400aaa0j800jlz77008C0nj3C0d#278Md0",
"n04<5c0azji0S0d=801jk7d0kz11tdd0800l=0114z713a00104d15c5,7*j1t77",
"8153010p0ddt0a405B81ajd77jM1j9d138C<azfk0<1130M0dj170zat070dtkkd",
"&1<10<44<1d7n88d00d08780t0ud80zdj7SBjdja07a7t31ezC7B377dgpB00v<4",
"*5<15413M1=0181l7z0=   070Cz7Ckd7070M70g0=00t=0f0z50007d      01",
"15;1<1c00zu30B7aN3M a<> 307zMj*7z0773Md80jdlj18j0jd07ij 02<1< 51",
"2#<<<3dkMd37f77tzz15   00ddze78f00=31aj78<00j3k87jn8d0 302<<> 03",
"<144#4dl8a7><3=k080u4<<30z880da0j70*1ja780i0kj    87kj 781#<< <<",
"117zf0k087j8f0Cj%9740d07fjB7z010k0d0d0da10kCj 0312 <d7z  112< 33",
"5M8z83l3078f70a700t0a7t070<<Z0cd4j0$a8a00d7S0 311> 0kjdtz    1<<",
"00778Bd7t074t0d13Z0d307lkBd7a=70d1d=77fkd3==0     0<7adk880f00j0",
"008z=47ttjd0j0<1<*13d0dd1aG0Sd00fd#d17930t73z5<1124ad77Nldh0078a",
"7C0871M0070@1a01111i0z70B007f30807pC07l<=3j0M7j8207d*j30lj8a1080",
"z33df9z<<11013<jjj0td70d#0jf00g008aZi11*1455a07B8038M=a=717d070c",
"10j7001*1$<51<u9gt910kzvau00z4d0a770050dvkdM47717dBd72j1And7tlda",
"zj00z78dMj*<3000t<4k301dt0tj732a77z00Cz03110ddtjf=3Z000d=7d0t071",
"7hd0d=10411t01c0ct88t11   1a3dj3d37d83j71d80<d81j88d73pjj71ja3=0",
"aj*091D80ja7azd000M70Xd d1 <uh0dkc777M7z8j8jd15td7dlMjd0=C11a0=7",
"00d<7dd70z70aM707707oa 1212 58g3d80j0001d5==i81510c<0<$<<<27l0jj",
"80013jjZ108033a0a7a18 2<<3> <48k1001a717dcda33211<3<0212<3<5*00=",
"1dt87td49u380a1$013<  2<1  1*1ddhj0zj07j07d0521a3:<312#5#134007d",
"01lk01   07ajM*0j77S<5   <3<1td0z*0j11780<5113111131352<*15f737d",
"C$jfj 8< 3z771j00Mz7=j05<*zj081%8d007al1$<<<5<1$<#<412<111dfzddM",
"07007 1< 311j07700100t80177dC.<j0730k02a12<<1->41<<<113$$j=38d8d",
"00000   <<8<0070l01=70810jj8..5t07a1d011<<3030<<<<1*jd0d=1dz8aCd",
"<1a3<01<30801j*3taajld80#7870<8jz0*<1350*<5513$2012M0z9A00a8780d",
"3<311<5171070Cj1jd*z0dg0ljt01Aj0t13351112<117181133ac7kd8jdt0zj<",
"1<@1<1:<1=1<<2d70710z077t107d*0z9kd7551<<53kc40z071et70<870a7111",
"13112:11a0111107adl70103kz15k05<578Zc0a<1d0p0=0=d07z1718e0ja0131",
"<501<11<1<57M70d073da0=7115<4<adfa27l37j0084<d70007j0dd0708<df53",
"1<0a*i7#40C00=iSdM000kSCd0Mc7l0kja971zzda07z07=17j7B10C1a07cD77<",
"015j7C000C0dM0038t07a70j8z88ta7010dz7=0081a7t07=01d80a    A10j90",
"t1k8a0d1zB10z7d0770c0=0903tdC7M0a000308k0l08a0jBfM880 0M:< $0100",
"zMz0=lt1dkj0djjk3ah7fj3aadgvda80C*$l111M08da8td078ga *:12@ <jj#0",
"d0770771jaajd81za8jd70d1ka78t007fd00d8S0z=0j3dt070j32     $<111z",
"z58t0z78dfz900j0f7d01i3a7e777j787jddadj7M535<574tjjz3<40*e<1$B90",
"9076aC077A8007z8t07t    2nj00<7jt7k3<<113375h=007a071j9a1Z   3fd",
"0j70800d07tlj0<5<11 1<< 34770z0d2i$1*13138zzz0000d37fzdjz 7< <7j",
"1ddkz7p0     1*<1<:1    2dlj3DMd0811101;z7d088d7<0008zt3Ma  5<0k",
"0v=807d 77a57 <4:0111#510dZ0=k0zdt00*<<kd0Mtd1085B8=d<j7Cdlzdtdt",
"3008j0 8e<5101 5*<11:40azCi078jd0M0117301a0878070873dc00t7af180d",
"a008== <1<<032 1<100d303p0z7773fCj10k00807ja0d73cji=dd8a87ta708d",
"07da03 <1<1<1> 43500tzcc=dc7k7d88<M3z0j7070d700fajB0M00j7007M<d1",
"aC5<d5 <115>   <<78t777j0081etj0j0101a07v0M    *3jttS88z0adhdt77",
"0dd7a82     5*4<aBad+=*<3B1c0>nd0z0jB<va7l d131 5d7d30F1<10dMj16",
"0dd770a0115<00M70501td1<037Mkaz87ZBGjd=30h 1<1: <008305<<<510730",
"1<1p7<5423<45170000000Mu8djzijZ83d8777d8z<  :< 51j7Me3$1208g8000",
"aj772101<1<0431513dd7000dd<f7aD780z00A7z7351  1454a71a0k07707d7a",
"7185321135111<121j3d7ipi0M7=l1ld3t=M3j0305078<z0dBd080td00zd001k"
};
