/* XPM */
static char *Dungeon_Wall_64[] = {
/* columns rows colors chars-per-pixel */
"64 64 51 1 ",
"  c black",
". c #070B0E",
"X c #090C0E",
"o c #0B100F",
"O c #070C10",
"+ c #0B0E12",
"@ c #0D1114",
"# c #0F1319",
"$ c #101314",
"% c #111519",
"& c #151A1E",
"* c #161C22",
"= c #181D24",
"- c #1B1F28",
"; c #172125",
": c #1B2126",
"> c #1D242B",
", c #1F282D",
"< c #21262D",
"1 c #22292E",
"2 c #222731",
"3 c #252D35",
"4 c #292E37",
"5 c #262E39",
"6 c #292F39",
"7 c #263037",
"8 c #283036",
"9 c #273039",
"0 c #27323C",
"q c #2A323B",
"w c #2C333A",
"e c #2A353B",
"r c #29313C",
"t c #2C333F",
"y c #2B343D",
"u c #2C343C",
"i c #2C353F",
"p c #2E383F",
"a c #30343E",
"s c #2B3340",
"d c #2B3540",
"f c #2C3440",
"g c #2E3540",
"h c #343A44",
"j c #353C45",
"k c #383E47",
"l c #363E49",
"z c #383E49",
"x c #394047",
"c c #374149",
"v c #3B414A",
/* pixels */
"                   >#&                    >==                   ",
"eqq99irqqrrrt9qr8q3 @& qqqq d6rrs329gq3iq >= 3q5q3q<rr329qrirrq0",
"y36q6ry955759qrtqry =: qr9 riqqqr9rqr5t5r >* iyt3yqqi  yy3q3qqii",
"qrirt,qqi3qrqrrrgrt -= q2 5q5>q59q3qq53r5 %= r>39rq5r h3qr93i9q9",
"5rrtqi9giq33gy2ryyq -& ii qirriryqq6r325q $* rqr33qq9y qrrrqqrrr",
"rrrrtqriqtrq9q3qpq3 +* 3 q3yrqi3wr6iqqrrq @* 65336qir68tq39qy22y",
"eqytrgri5ytiqy9r359 @X q qryqrrreq5qy30qi #* 23r3qrrr9rj3i53q3qr",
"tr3qyqq3qrqq5rq5qrq @#  5r3qr955qrrqqqirr #* >5qqr8iq96hytrrq3q2",
"i9q2qr632iyqqrr3rqr +& qi55qi9i3gr9i2ery3 @> >ery96tiyryqqtqrrq>",
"rq35i99qqryq3yqqryy +# 3r2r6rqg9gr939qy<t >: qrqrqqiqttcr5rrr6q=",
"rr3tiyqy2=::>:iq351 =% iy56q3r5rirqrqr<6> X: yir3rqq6qi:q9t5ry>>",
"                   &**:                  <**O                   ",
"**===****=*&**=********=**=*=*==*=====**=******==*=****&**=====*",
"        @*#                   >:=                     *=        ",
"tirrq3t> * qq3q33335512q3rq33: #% j33r59 liq599 gq9q5 * v3tqr6q3",
"y1rqqqqa = 3rq6rqr9q2qqqqq3qq9 O# y0qqrq qrrq3qi t9rr * q9yqr3q9",
"t2rrrrqy = qirr13r3rrrtrqr33rr +O qq3rq qq6ryitit qq3 = qq3r9rqr",
"3q2riqy3 = t3r6q9iq3rryq6ry3rq #. 3rry vq3rqrtrrrr    * q3qqqtir",
"rqrqtqqq = 4t6qrr3qqq63rqqrqrq &O itrq yq5r3r95rii545 * eig1qi35",
"6rqqyqqq * r9q3y<wq379qr3ri1>r @X 5qy qqrqy3q3rqryrqq * 5r3339ir",
"6ryqqqi9 * triqrd3r5rqrrqqq23r @# 55  qq9yyyr5>rrrqq3 * ir6r32r3",
"q36373rt = qr33qyy56tqqgrqriqq @O 3 7 q3qqqryqtq5rr3q * qq65rtgr",
"33rr35qq * r593rqqqrt6rq3rqrq1 o%  h5r 5rqyrtrryy9q3< * 6q259q3y",
"qqqrerr> * 3t4iq3q65rq66qqt9>> +== qrq 35rqiqqr9ryr1> = 3q6r3iqy",
"        :*&                   <*** 2rqy qq9iq3t8qrqi> **        ",
"+O+O@#@#=**+$#+O%:O+O%&===%%;***  r3qqi rq33rqwq36q6: =*#@*:-===",
"OXXO.OO+O#@OOOOOXX.>**          ki3q35r jv23tyrqqyry> **>X@@@.O.",
"                   ,*= zizjjvi6qq3qy93y h5rvc8rqqqqq: **        ",
"35qiqqyq9qri5rqrrr3 =% r9rqrqrqqqqyiy9r jtyyq3rrrq59> * 35rqrq6q",
"qrr9rqq3q36r1q6ryrq *< iq2qrr3q1qq5qrrt vrry6q13qrt3> * irq9ryiq",
"qqrri>2rrr5qr9rrqr9 ** rr<yr9wqyqqi7rri 333qqrqrt33i: * 3qyrqr63",
"yeqrq33q595qq5tyqrq ** qyr9r3qq9y5qq95q 3rqr5yq3rrrr= * rq3t2q95",
"q62qq2ir6yq9qyyq3qy ** 3q3896wrrriqr9i3 3rqqr3rtq3yr> * 3i39q72q",
"yq17qyrqriqqii5rq3> => qqry4i9y5q6qr363 yg33yirt<2i3> * q8r3yqrq",
"qqt53rqi369999qqr=q -O 3qrrqqrqr3qr2r65 yiryeqrr3rr5> * 3q533r53",
"3rr934r5tt59qq>>233 %. 4qr0q33yqiqqit3q q6qgtqqir5qr> * 3qr2q5qq",
"q5ytq53rqqqrrg9yr69 :% 3r9q3qqrqr2 rr3 h qrrqtryrrqq< * 1qyr55q9",
"6>rqrr69qiir33rqr>> *# 5qqirr9529 q6rq q 353r=>:>:>>> * 6iyqwqry",
"                   **% r35rrrqqrr 94rrqir             **        ",
"=*===*=**=*=*******&*& 3qrrq05yq 9r3y6qr95 =****&**&*=*=&**=**=*",
"                   >*% r39r6q97r y336ryi9: **                   ",
"yqiqrqy5 5556ir5rq, +& qrrtq5ir jqqyyqqrr: * hqqqr3qiqtr9tqqqiq6",
"qq3rqq59 qqq5qqqrqt #O q63q5q< jqtqrerq55r = 5qyq63rtqrrqrq985qr",
"r1riy3qqi qqrq3qyqq @@ 3<iqqi i5dqq3tri96i * 3r3e5qi393qrqrgyqqi",
"3rrr5qrqq yqi9erq99 *> 65ryq iytirqry5ryr5 = y3qqrqqrryqqqq5qqrr",
"i9ti3qq2tr rr37gqt6 ** gtqi je3qrqq6qii9q9 = q333q3i5qi5993ti49r",
"rqrq9iqy9i  rqq9>2q #* jry 3rq565qri53qr35 * q33t0rq5q9rq9i36qqq",
"y3tqq9q3yq5a  rq6r7 +# qq jqi6d5qq5r929r5q = qrtrr2qrrqi3r3375q5",
"qdrq:qq5qtrqyr t9qi @< rq jiqyqqy33y3>3yq= = rqq60yyy95yy9r3rr9r",
"qq5rq3qqyqqrrqr y9q $+ 5wqrqrqr3qy95r3trr: * r3q5qr5rq76633q355r",
"6irtrr33rryw>4rqr9: O@                     = y65qiyiqqrqqgq32ir5",
"                   :*::>>2.>>>>>>:>>>>>><>**>                   ",
"*****&*****>***==**&****==***=****&**==*=******=======**=***=O%=",
"        ***                   #*=X                    **=       ",
"5i33q6q> * jvlqq3grq42tqqjvq34 &> jr3rqtrqtqr5r3i673>2 * cqqjjx3",
"6rr4<934 * hgr3y59qq3rrryiqq9q #X r93339rq6qq6q5rq>3,2 * 3qr37q6",
"yq>r93y3 * iwqrrryirq7r93rq90q %> 68rrq9q3rqqq53iqq32> * 3qqqrqq",
"qryyqqq3 * 3qq3qyrqqqrttqqyqr6 #> y9yryqqrqqqqrqrqir6> * qrqrd3r",
"rir9yrq5 = yi5t9qqqqqqqr8qq3rt #: qq<qr9i9qy3yr99ytra> * rqyqr5q",
"rwi4qqrr * 3q3tq1ir<233q3g3t32 @@ qrgqy96q3q23qqrrrq9< = q5qtr3r",
"rrq3qrq6 = 6ttrq>qr:rer8393rrq +@ igqq333irqrqrg65q65> = 522q393",
"y95q53yr = ry6qrqqqqq6rryqyqqr +@ <r33q3yqyt6ry6qr3y<< * r8yqr9r",
"        *&v                   ,OO*                    **:       ",
"*==*=&**..**:=****&@**:*@*==>=-#+***&#:*O%***:=5**+*+>=***=*X***"
};
