/* XPM */
static char *Fabric_64[] = {
/* columns rows colors chars-per-pixel */
"64 64 86 1 ",
"  c black",
". c #874506",
"X c #8D4506",
"o c #8E4806",
"O c #8C4709",
"+ c #8E4B0B",
"@ c #934A06",
"# c #9A4E07",
"$ c #934D0C",
"% c #9A4F0B",
"& c #9D5007",
"* c #95510E",
"= c #9B520D",
"- c #934E10",
"; c #955111",
": c #9C5411",
"> c #9F5816",
", c #A2550D",
"< c #A5590E",
"1 c #A95A0E",
"2 c #A25612",
"3 c #A55A14",
"4 c #AB5D15",
"5 c #A55C19",
"6 c #AA5E19",
"7 c #B05E15",
"8 c #AD6116",
"9 c #AD621A",
"0 c #B26216",
"q c #B96617",
"w c #B4641A",
"e c #B9661B",
"r c #B6691D",
"t c #BC6B1D",
"y c #BF701E",
"u c #AF6520",
"i c #B46721",
"p c #B46922",
"a c #BE6D20",
"s c #BC6C22",
"d c #BE6D22",
"f c #BF6F22",
"g c #BC7122",
"h c #BF7023",
"j c #C06E1D",
"k c #C06F1F",
"l c #C26F1F",
"z c #C3701F",
"x c #C3711F",
"c c #C16F21",
"v c #C06F23",
"b c #C56F21",
"n c #C37123",
"m c #C37323",
"M c #C67322",
"N c #C47422",
"B c #C77422",
"V c #C67523",
"C c #C37025",
"Z c #C57525",
"A c #C77427",
"S c #C87521",
"D c #C87523",
"F c #C87427",
"G c #C87726",
"H c #C77826",
"J c #CA7825",
"K c #C67528",
"L c #C6752A",
"P c #C97729",
"I c #CA7628",
"U c #C7782A",
"Y c #C87A2B",
"T c #CE7929",
"R c #CD7A2B",
"E c #CE7A2A",
"W c #CE7E2B",
"Q c #CB792D",
"! c #CB7C2C",
"~ c #CE7C2D",
"^ c #D17D2C",
"/ c #CE7F32",
"( c #D07E30",
") c #CF802F",
"_ c #D2802E",
"` c #D38232",
/* pixels */
"                                                                ",
" KVM4 nw@pY MZE6* MGa20 ZZ4=Z ZZ-0t Zw@8C cw@4Q 4at2Z +=DMG ~>Vb",
" ta>t Zg2c) wwnt+ WZD2c 6te39 CGatM cw,nW cwaZn 4tnEG $kZrt DMGn",
" 63w6 Mc46# =oo9$ EnG:4 :*39c Mc9wb 4o&an M9349 49nnV #=@r4 ZnGc",
" tnce tMMt4 CZrt$ nkZ$t wc0wt ct8wM cw,ek t+enw 02ckt +eaZa tt30",
"                                                                ",
" twt4 $:+4: t4wt$ 359*9 $ta;w Pt4tt t3-$w 9*093 @23wa ;t0wt 92,K",
" a1nV twnke w!M>o akttM 5>zwc 6t=Zn Mntc9 0wMaa 4tkZ5 4nn29 83c6",
" n!kM tzZka w`Gt= :9a:c 9MZw4 a04CM 0V0Cn twMZ< `w966 4acoG 4w94",
" a=cZ rg^kt eGMt- anwwG 64Mec Gt:nn wMtnG c0VG4 YttVn 9ZZ3Z teMt",
" t4ck tntww t=ct4 Dnawn wtttt na5ct t4tta ktVn, 2tkGZ 4nt=t anZM",
"                                                                ",
" P`E4 tk<c4 nZnww nct49 Dnn*a cn$cG Mt9t4 c:93t 42t4t $@923 Zt2a",
" tMnw tn,c4 tMtt@ YZk3t t:twa CG$ta wt3n9 n8nat w=w<n $t9wt MM9t",
" )Ew8 GZ3g0 62,>4 4ZM94 @o+9k MZ$5$ #=(np G5wH3 549_n +4wo% ZMw6",
" nGkw tVVa= atwa0 <tn6t tkt$n cn2tg ttP6, n9tcZ e$nQn weztn Vc:n",
" MZcw etat4 4QMeo ett2c VEe+k tt+tD nt:t0 t+aGE 36t0t weMVy 4t3e",
"                                                                ",
" ttec tMgMt ZGck6 DVn0z %5nwk Vn4tZ 69aVt t2tt@ 3ttPn +nnJu tDMk",
" ZGMn tVYnq 5JMZ@ kte4D @GG8t Gt=Zn Z9at` t2Mk# /tnDV 9nMPt eZGM",
" cEMM waVnw C`nn; 94GwV 6Mn8a ttwVn a9tzC arMn< G9MZM =nG)t 0cMa",
" :Mtt caZM0 c93t8 wkZeZ utkwt Mk3ct e4wkV twct4 tec0a 2tt4t aMZn",
" w0ew 9*$$= 0+we= 33243 4t42= *4*wt e4$0$ :$ew4 t3=$$ :0e+0 22$=",
"                                                                ",
" aVtt Zn,k% 9trt% MMn=k atw3G GM:tt 6r:t8 n8ttV eCn9t 0nM9a ww=t",
" ++o8 Vn3:< @+63+ VM6$@ p=0,9 GZ$69 4+9n9 M$#W^ 3Gw@M #9849 %w=n",
" tMZe cM3M& aMct+ Mnn4n wtc0G nnwMe ew6;4 k>kZn eYn2V :egka 4w%k",
" `Mrt at<06 MYGt$ tetwt Gae4t tt4wW 24:e9 t3aMG 43t9w 4enZc 6t=e",
" wwte 98+4$ 8=wa; 4=w:8 +t2*4 00-tt z=;o+ *;44$ =*2$w :%4+3 $0$=",
"                                                                ",
" ZGZG nGZZt 699n2 nPtwV %MZwt GnwMZ Z^tnV r4Zni P0tGn 4Vn4n enM,",
" V^GG 39#nw M=GC= GGM4Z 8ZM$a Zt9cM 5<aZV 0$ZZ9 Ptz,0 4ZG&r 9zVM",
" 5<nk ncant k2Mtw ate8c 3tMtc wc4nt t90Zt t2at* 0enVC 0ak40 tten",
" t3rw 4<0w= twea4 w492w 9ct4: w:3e4 04$+4 t=tt0 24048 40t<t 689w",
" ;w40 0t,e: &29$$ tek$+ @=+$w ee+,~ 9@:t4 t-=40 34ttc $w,%4 3a9e",
"                                                                ",
" nHP9 ZZDww 49ta9 VYZ33 Ztt=n aw$o* +2=M4 Zot40 0G91G :4*o= Da@G",
" tVkt cnCt< tknt9 Mcn:a WCk+a beOtM aw6n4 5+tkz eC43t $ebtc tV<Z",
" nnte ct9c4 cVat: ttt4t kat:c ta2en ce8c9 e8ecC 08t<t 4tkGe 9tgk",
" :;w2 te@w$ 0*44* 424*3 *49;6 ae*4r 0$4w: 4*0w$ $$840 *=34w $wtt",
" t$kt 3GGtw 0$tt4 VZMtM X3wen Vnwnt 0GtMV n-kc, w0gYM 4at8t tcZG",
"                                                                ",
" w8nn O.$04 3=MM* Z3awZ =tM44 $9$aM a/8>$ w$Gc8 =49Oo +Gn9c *>4w",
" z2Mn tcGnt nwck9 nknew 2MkeM Mw:tk k2ktc e=ttt =ewGe @ba@t w0nc",
" e#t9 tMGC4 t3tk4 aPnt4 @ta35 Jt3ww r233Z t30t4 $34VM 2tw40 382G",
" 8K84 r,6t9 4389: t9t*3 w0w$e 70-*6 $98w8 2=+4% =4e94 *$898 w038",
" cG6t cnaCQ nMnt@ Mkrww Mat4c tt2en te8at n4ccM cZa#t 4tcwC ca@e",
"                                                                ",
" nGV0 Mn2a8 VGZk4 DDc9w Vkegt znw04 zw2ZZ M2eMV t=Z!Z +tMzc ~a:c",
" cMnt tcat9 _VMc4 ktw+M Mnw4k te8tn newa4 a2eMZ t=ttn 4tctt 2t:t",
" 9$3$ 7w9e4 49w4: w40*$ $2=$4 04$9t 4:404 w;$2$ =*w0t 334r8 @t#7",
" t%et zZDEt awnee ZGt9t 9c3wt MCekc tatMD =2tr6 <rtVk 8ntYt ttGM",
" 5Zcn tnZtt w9cC4 ctt0n #aGwc Vn3D4 nVttV ttVci EwcVM wnVK2 wcnZ",
"                                                                ",
" n7kn n9wwt M4nM0 MMt2M =gY0w nt4kk twecZ t4atr Uaatn 4tZ$g t9Vt",
" t90t 33%t3 a4et: =044t :r8et Vw2et 08:6G w4etr 64430 :etot 2,e2",
" 3+** t4e8* =99=$ nww$8 *9:$4 we*5$ w$*ee 4*$$# =$t8t $:288 8t4t",
" aGnk nznt0 nVnc= 2ck3c nke=c MM+wn Zt<aM kwewZ 0KZ6Z 6nk6n VZ9w",
" GGtc tZ`C2 DMc09 8GM3t Mt4za GG*tM cw^eW ZwtVM 8ZGoG *t,98 DZ2b",
"                                                                ",
" MMtt te3c4 MGZt$ a0t8a nt06a kt3kZ 6w,4C c$tna 4wt:t wttcp 4e4t",
" +38+ rt9e= 2$29* w34:: *23*8 t0$:$ :344t t$0$9 24490 :@+-3 4w9w",
" cktt 0,%,3 caea$ VE3:t 4tw80 82$tc w93Gn a0tea $4tG: $ck:t w,GG",
" wwZM acta0 aQckw t9e0z 4a=0a ae+ck :ncwt t0MCe 9ckc3 :VZ=Z e0tZ"
};
