/* XPM */
static char *Foliage_64[] = {
/* columns rows colors chars-per-pixel */
"64 64 103 2 ",
"   c black",
".  c #003B07",
"X  c #003D0A",
"o  c #00430D",
"O  c #014412",
"+  c #054A15",
"@  c #094C17",
"#  c #04461A",
"$  c #064B1B",
"%  c #0A4D1B",
"&  c #0D5216",
"*  c #0D511C",
"=  c #0F591C",
"-  c #11561D",
";  c #145B1E",
":  c #185F1F",
">  c #1B641E",
",  c #1F691F",
"<  c #20681F",
"1  c #0B4D20",
"2  c #0F5421",
"3  c #0F5820",
"4  c #125621",
"5  c #165C22",
"6  c #195E22",
"7  c #166122",
"8  c #1C6323",
"9  c #1E6824",
"0  c #1B6128",
"q  c #1F6828",
"w  c #216724",
"e  c #236B25",
"r  c #296F27",
"t  c #236729",
"y  c #256D29",
"u  c #296E29",
"i  c #267126",
"p  c #2A7326",
"a  c #2D7A26",
"s  c #267129",
"d  c #2B742A",
"f  c #2E7A2B",
"g  c #30772C",
"h  c #327D2D",
"j  c #2D7530",
"k  c #2F7B30",
"l  c #307734",
"z  c #337D32",
"x  c #357C31",
"c  c #347E30",
"v  c #347F3A",
"b  c #2F812B",
"n  c #328224",
"m  c #34802C",
"M  c #34802D",
"N  c #36822C",
"B  c #36832E",
"V  c #35842E",
"C  c #38822F",
"Z  c #38842E",
"A  c #3A862F",
"S  c #3E852E",
"D  c #3C892E",
"F  c #358330",
"G  c #378330",
"H  c #378430",
"J  c #388330",
"K  c #388133",
"L  c #398530",
"P  c #3D8731",
"I  c #398336",
"U  c #3D8637",
"Y  c #378830",
"T  c #3A8830",
"R  c #3C8A33",
"E  c #3E8B32",
"W  c #3F8B33",
"Q  c #37833D",
"!  c #3C863D",
"~  c #3C8839",
"^  c #3D8939",
"/  c #418C2E",
"(  c #438331",
")  c #408B33",
"_  c #408B35",
"`  c #418C34",
"'  c #428D34",
"]  c #448E34",
"[  c #488E34",
"{  c #418D3C",
"}  c #448D3E",
"|  c #449134",
" . c #4B9235",
".. c #46913B",
"X. c #4B9339",
"o. c #549337",
"O. c #52933B",
"+. c #5C933D",
"@. c #469041",
"#. c #469244",
"$. c #4A9543",
"%. c #4E9943",
"&. c #629742",
/* pixels */
"0 y L L P R g f e g H     0 g 5 g s h   f h k g G   R P ) 8 B B L e h d     f g d s * f d   g u 6   f g s f f   ] R '   ) P A   ",
"u &.A p L _ 0 f C f H     B h 6 g g h     V h L h   ) R ^ } L L e B p s *   B B 8 f + f   ( d w 8   f f f f s   R ' T R   C B   ",
"% B U V L @.0 7 I h B   y   g g x B H     H H h   L P e L h B B L h f 6   B L d h f y   O.L x d 6   h f g h h h   L A B T A h   ",
"  g L G L             B y @   g d   x     B f   S R R B h f h g d f     h h B h f J   ' T L h g y u   g h x f f h   B J L h   % ",
"  0 f g   y y y y e e e u y   g x     8 u       L C h g f -         8 } J B G h h 6   P A 8 B h d u     B B f h B       e A   @ ",
"  d j             0 *         h h   )   y y e   h 8 f g f   y 9 w e 6 J A V B G   6   L B S C h G u 8 e   L R L J   e   L A   0 ",
"      P L R h R   6 t   L L h   y   ' L   8 8   f g f + 0     B B $ 8 B G B h   x     V a H B B h d e e 0   { L h     b J B   4 ",
"  L B A ^ T P V   6 e   B e B f   ' ) ' R   8 0   x 6 6   O 8   B h d h L       J '   G R h h h h % e e 8 %         +.G 8 C   j ",
"G B e B C R C   6 6 y   L L B w @ R ) x '   5 h %         ..y   L x h h   ; 8   S '   g B B ; g x e e % g d s e   J L A B L   8 ",
"8 J B B L V   5 6   e e   R h f %  .^ e B   0 % 6 .   R   _ 0   S h f   s r   ) g R )   B J g f 8 e % h   d w d   +.R e R J   f ",
"f f f g J   6       w e e     d x T R R G   $ 5 X   P X.  $.6 y   x h g d u   P w A )   x f g 5 8 y f   -   f f   V P J L   f g ",
"s s       5   V L   e e e e 0   s L A A h   + #   ' s |   % 6 e y   f h f y   ' R L P   s u 8   8 y r   R   y +   L ' G   *     ",
"    8 y 6   T r C   8             @ B h 8   @   R L ' D   5 % y 8 e   f f   +.R ' A P   % 8   L   y   B T   8 8   h e L   -     ",
"_ ..  y   h g C C     ' R R L R A S L f e   4   A f R R   8 9 y y   R     d U R R T A       R )     V f B   e y e   g   %   h A ",
"R ' P   a f U B G   8     A L I w B x g u   %   L L L   : e w e   ) R R A   ! V H L h    .T A A   / B B h       r 8   %   f J L ",
"a R ' P   h > h g     6 #   h G g g y r f   %   > B   0 8 e 8 t   % ^ T L R   B h f f   S A R )   L B G @   R           d x D , ",
"J L L P L J f f g   A   f 5         s y   % %   h   6 8 e       %   R L p T G   g g   R T ' R     A 8 B   R )   e 8 e 9   B L A ",
"A A A             R L g   0 6 5 + *   _   * %   g   e w   ' R   % 8   R L y G B     L A X.L B     G x   P R T   6 e e e u     { ",
"      y u   e } B A P C 4   y       R R P     f   6 e   J L R   5 8 e   L V 8 V   @ B w B V   6   h f   T A H   9           1   ",
"e     8 s   @ V L V B L 8     R ) e w w 9 : f d   e   H B T R   8 9 * @   B C   v   h f h         * s   A 9 B B   ) A f J   0 e ",
"  %.R   +   B h V B h     ' R R ^ V L B h f f d   w   B 9 L B   e e O f d     d s v   B   5   !       B B w H | ) T w L   # 0 8 ",
"  A P L     f 8 h B f   w                       s   h e G B       e 8 f d s 8 8 + f g   0 8   A B )   h h e @ L L A J J   6 6 0 ",
"  S R R A   f d s f   6 w e 8 8 6 $ @ 4 6 6 5 8   v f B V     n o     : f s y 8 8 s 7 5 6 8   T B V C G h f B B C V B   = e s 8 ",
"  / R ..' D   s s   6     8 8 O s p : y s r - e 9         %   J B f d   8 8 6 ; % -           V V T B O   = B B B     0 y f s s ",
"  | R w R L   s   6    .R   9 g h ; s s s   e e 8 u % 4 e e   A h y f y   8     A   f h f f s   A H B   e         + 8 y d s ; y ",
"  [ P R D P     8   R L )   w h f g f u   8   e 0 * 8 e     w   B f f y p   R R   8   f w w r   h B 8   + s * 6 5 5 6 8 u s s y ",
"  $.S ^ , g   6   ) R ^ R   9 h d f f   % _ B   6 ;     U A     B B r y y   R I   4   d g f t e         * @               & y y ",
"8   S L P f     [ L e R R   e h s % 8   B B h       L H L ^     9 f f d   R R S   +   f d a * 9   5 * w %   D L H L A L a   6 6 ",
"  8   C h h   / T ) ' ' H   e 6 8 8     g x f x   L G R B     ^   8 d d   V w B   @   d s h h x   5 8 8   B L B e G G L B       ",
"R       f 6   o.` e A H A   t e e   A   d 0 d   A G T G B     T A   8 %   L e R   0 +       B e d   0   V L e V L L A B     ' R ",
"] ] ' $.  s   X.R R L B   8     w   H R   y   V B y B G   8   R V B   8   L ^ A   5 7 8 e   B f f d   @.B I B A V V H   y   $.R ",
"] R R R '     B 8 B B y   p f   w   L P L   x f e B f J   8   B B f x   ^ f h B         8 s   f : f   B B h V B B     y       ' ",
"' P A p A L   g j B f   y f f   9   R , B   h d h d f   w e   R B B f   $ f d h   Q f s   9   g f f     B h d     0 *   | A h   ",
"L ) L V 8 B   f g h   y s s +   e   R B H   d f f x   ; e e   B B w f d   s     h g f i   e e   f   f           8 w   S R B G h ",
"    P B h h f x s   e y y s           B B   6       9 8 9 e   B f h f y     ..A B s h f   w 9 8     {   0   f f   e   ' A H B f ",
"y y     f h       0 9 e y i     T B B   h     6 8 t     8 e ;   B g 8 s   B L G , B B   e * 8 9 w   B B   G f f   8 0   R B h f ",
"+ % 4 8     0 s 6 e - e y   +   R A V L   ; 5 8     p   % 0 8   h d d y   B B e G A B   y f # 9   G B B   f 8 s   8             ",
"8             % 5 w y e   5 8   R R A h B   8   V H D   6 ; e 5   d p   o.B 8 H h h   e y # 7 :   h w B   d s y     R )   e e e ",
"  D L A B G B   t       5 8 8 @   T A h B   8   h h L   e           y   h h V L A   9 d % 5 8   B B H h f   p   P ' A R   e 9   ",
"L L L R < e d B   0 8 5 9 8 8 8   L B 8 h h   h 9 B   % 8   R P L       h > h B   8 % 6 e e 8   B h h a f     R A R ' %.  e   ` ",
"B L V B h B B f   8 8         8 8   V h B h a h h h   6 e   A R V H     s h h   8 8 e e     8   B f f f   R R R h R T   e w   L ",
"@   V B h f f f   +   B h R   h f h   G f f y 8 B   % 9   9   A T h f   8     8     8 e   L     f f p d   L L y T _ R     e 8   ",
"8               5   B B ^ Y h B h f s     y * h   @ 8   R   A   R w f s   6 8   I G   e   h D   8 d y   L A e R D L   e i       ",
"4 i y 5 y w - e   I B B 2 B B h f f p e y   d f   8 8   R   8   H f f f ;     D L A   9   A y L   y s   h , B P L   e y d d h h ",
"e y s - e     8   f f f f     B f f d s i e     8 8   L G B   8   s s s   B L T L   6 8   ' A A L   y   f B V V   - e e s h h   ",
"e i s *   T R     f B f f   5 6 6 6 : 5 5 5 % % 8 w   R A V   8 6       b R e V B   8 8   R A > A   8           7 e i s f p   e ",
"s s 5   X.T L G   f d d d   O 5 8 8         5 % 8   D h B B   8 8 8 0   B 8 V L   % * *   A R V R B   i j ; 8 5             g e ",
"s * 8   V B V h   d i u       6 8   D U U R     8   B B B f z     5 5   9 B V   5 8 y s   ^ L R A H   @ 8 8 8 9 5 5 5 8 8   s s ",
"  9 e   B V B f s   s   R R   6 8 9   A L H B B     f B f d   R '   ;         8 8 : 8 d i   A T     + 0 q %             9   s 8 ",
"'       L h B f d     R C L   8 y 8   D B d T B B   d a f   R a '   * 8 * ; 8 t s y d s 7 0   A   % 6       h h g f   5 5 *     ",
"' ] D   L h   f f   L A L A   9 f d f   A A V 8 B f   y e   R R R   w 5 5 - d y s s e 4 - 9 0   8 8   h H w G B h   * 5 8 y 8   ",
"R ' L D   g   s   T V L V B   i g f d y     V B V x   i   R R ' )   6 8 9 0 8 5 6 8 6 0 w ; w 8 e   f V h h B     * e y 0 9 e   ",
"T L V L ^     d   B X.V B   e s d f f y y e               R , ' H   % y 8 8 w         y y e - e f 8           O 8 : e d d   8   ",
"B L ' C V       f 8 h h   8 i y s s y p y e ; 5 5 8 *   x R e R D   s s 8 8   L R B B     e e 9 y % * 1 @ 4 8 8 y y a f f i     ",
"  R C w H g   J f f h   6 5 8 % % 2 * * 6         8 8 k   A G L   e p s 8 e   P T A B h h   0 * 4       8 7 % y s y 5 d f   8 6 ",
"3   L B B f   p x d         6 8 8 8 8 9   @.R L L         V A B   e y % 8 e e   T A V i h h   e   f f f     5 5 6 5       8 6 8 ",
"e %   V i f   8 f   e s f f     8 e e   C A R V D G B d   h B   e y y 8 e e *   D B G G 9 h f   f f f f h f     8 8   L L   6   ",
"d t *   h f   i 8 e y , > f d f   8   T P _ g R A V h f     h   : e s 8 *         1 V B h h f   y f h f s h f h   8   L L H   d ",
"d s   4   8   8 5 s d d f s s   5   D R R L R R A B f   4   f   5 y 5     ^ x h @   8 3 + f f a   d f f g a a f   e   R y L ^ u ",
"s   y 6 8                     5 8 4   ' h B _         6 5 5   y 8 6   +.U h G 8 8 8   8 5 : 8 d   8 % p d f v   8 9   B G B f y ",
"      6 8 * 5 5 6 0 5 6 8 0 e     6 5         @ e e 6 2 j s p 6 5   _ R L h h f f f   6 0 * u t                       B B 8 d @ ",
"s s s w 8 % 3 * 8 0           y s   9 * 5 0 @ s s - s y y s d s 8     B B f h p x   0 8 l d 9 f   f s y p 8 8 ) A L R   h f a - ",
"s d f 8             s s y * s y y y   e e y d u s y y 5 j s f     f f s         y   6 l d s d d   y s s s d @ ] ) ] ' R   x p * ",
"e f     R R s 8 h f @ y s y s ; u s y   e % f d s s           h f g :   y y g s   s   d 8 5 - u   f f s s h g ' ' ' e ] `   8 ; "
};
