/* XPM */
static char *Fur_64[] = {
/* columns rows colors chars-per-pixel */
"64 64 84 1 ",
"  c black",
". c #652D03",
"X c #692F05",
"o c #653006",
"O c #6C3205",
"+ c #6B340B",
"@ c #723303",
"# c #743807",
"$ c #72370B",
"% c #743A0D",
"& c #7C3D0E",
"* c #703710",
"= c #733A12",
"- c #7A3E12",
"; c #773E18",
": c #7E400E",
"> c #7D4114",
", c #813F0C",
"< c #803F11",
"1 c #83440F",
"2 c #89450E",
"3 c #844514",
"4 c #8A4615",
"5 c #8C4916",
"6 c #834418",
"7 c #864818",
"8 c #8D4B19",
"9 c #934C16",
"0 c #994E16",
"q c #934D1A",
"w c #9A4F19",
"e c #9B5117",
"r c #95511C",
"t c #9D531B",
"y c #9F581E",
"u c #A05517",
"i c #A2561C",
"p c #A5591E",
"a c #A95B1F",
"s c #8B4E20",
"d c #955421",
"f c #9B5621",
"g c #9B5522",
"h c #9D5521",
"j c #9B5724",
"k c #9D5A25",
"l c #9F5C28",
"z c #A25720",
"x c #A35720",
"c c #A05923",
"v c #A25822",
"b c #A65821",
"n c #A45A22",
"m c #A25C22",
"M c #A75D20",
"N c #A05B27",
"B c #A45D27",
"V c #AA5A21",
"C c #A85C21",
"Z c #AC5E22",
"A c #AE5E23",
"S c #A95E26",
"D c #A55E29",
"F c #A95F29",
"G c #A66027",
"H c #AA6023",
"J c #AD6022",
"K c #A86027",
"L c #AD6024",
"P c #AF6426",
"I c #A66028",
"U c #A8602B",
"Y c #AB632B",
"T c #B06325",
"R c #B16325",
"E c #B16127",
"W c #B46328",
"Q c #B16429",
"! c #B2652F",
"~ c #BB672C",
"^ c #B3692F",
"/ c #AA6632",
"( c #AF6932",
") c #B06830",
/* pixels */
"Sii vpit BCbJKw>pVJCpitu AEV= $:p%ittt0 ttvVtiguit  pC4AC1L*CVAi",
"piiq   ti HCJot8p&aJ4pip )JJ8 b4dt0gvt  w ibtwuti 9 bFppBCMlSrbu",
"pti  bp  t pCjtqabPAAppii     r4bttvt q d ettipi rq CaCCLp pHaAt",
"ii qrtpzbti mitrCbVCEKi   Lq&0,itiwt 44  uiitvi 8tr SSapCt ALMav",
"i  itBibait !KtiCMpAW  pipdri4Cpitt 54q tithti qq9t pKp+qt CCCCu",
"p iipivpipii (itLa ii tttu0igpBepi qttt ipttth0tvt CLYrq3t ALCJA",
" tBpibCCppgii tqpp ip tttuipCSiC  qtttrtpiztirtrpi p+8rt0p IApCV",
" i#ipviipCpitM  CM aJ iptttMVpaC tt0itVpiitiitzppi r9tt3tz 6CaA ",
"pt%0tp#pVCL1tVC C 8AW tphtrCLC^ btti0Npbp-tpitaCKt rititu w5CLA ",
"ti+iDit3aVCCwCppb qCp iu90CAS  ibtte$pNpSpbpiCADCt i&pii 0irYA r",
"tisVppbpppOpiiVip qCL ipi CA rtbvzi#bpCvtipp7LEJri iiibi 5ptrL8 ",
"tt-pp0ptpAppCipbOqeA t   J   VVbMakAbCFKpbpp aECtii4bti  tprtH8t",
"0tXA%OppiCaipppi 9t tiiiY5r4iipCibCSA  pSpC A Azpii pii t#ptp8it",
"p&&C%pippppqti p   tevi309rpSptAvpb  8VaSCB EL Viit ip rtiiriBpt",
"ppVC8iVpbpaKit  ti0titMterikiiibi  99PaGMC SbCppLai tp bpipipipp",
"IiCaMp aCVbptu dttttipiptpipiiib trqtAbba qLaCAJpFt p vi#ipipppp",
"i8VVbC akpCbVi 9tttjiigibCiippk t8ii2JDAC iLdEAEaai p ptva#vpipi",
"ipCVCS   CAAi 9qtViuipptpVL.zi tpppiAJCA ttAArCAhb  i 4pipCpApVp",
"3abpC 4p pApC qttapipiibaVzpi pp8ibVAaA ttt-ACpbCN a ttia8LCCpqi",
"pC8aC 4a vpYb 0tVAiti9iCaMCptpbpi4itEVE ttizCaACbr ittiiiAapi3Cp",
"pVCaa 5pa VhC tpKepXpbiA gppvi0ipptpCL pttikCVaC  i tiiidCVAi;pp",
"a.pp qqSC pVg 0OAptiVi&d pppiippqptpCCpirivCCCL  ii i5itCCbV VSC",
"pBCA 4tav pC rtLbiipViv  CpMp&pt#uiaAEpiiipbAL  p5iipitXVtpd ppC",
" 9C 9tia% jM tiCpitipp 9AbFpJitpkiiCErattiarA  ypriipippppp  JCA",
" LC itpprw A ttaaiiptv tppCAvipi8ipeLppitjpC  VpatiapiiC8t 8ACpN",
" V 0iVr  5 p tiaaVii8 0 CAACpt 8giiiatpiCdp 8 ppitiiiiiVp 5qVbC3",
" V bei w iq  ptC ippj t  IELV t 3V0iptiqap 3r ppCpipputB 4r5CV  ",
"  iiiitp tt9 Cpp kpi tw C Ctp i4 tppitptpi Ot Capitvtpi 8qt9pK 9",
"h Ypprpivitp pi/  iptttrp Cp ti4 plVatt0i tkt bSMvtrptp 9qtqA 8p",
"tCkipiiapiut iziY CizrpMa ai 0t4 tipptbipjivt ppbvzeiNi7pitqA rt",
"CCpp3iNECviti pi p At9tiV Cp th85 CtbtNttttti CbAitCiitptiiqQ tt",
"CJpp8iMAiiiiiivbpbp p4ttC pi tg48 pit5pteiui pmpgCiVutpCitqt itu",
"CCepCeCEpppiippztpb  559Ltar  r89q bigtitrt ttbCpp pCptMipitqt0i",
"aJpidpitCCpvpiiipuapt t,rCM 54rq0w it5twtdt tLCCpV ia3uavi iitpb",
"9CAi@ppqaiiitgiiitptp bttCM 3wqt508 s9ttibi thCFpM  SpaCv tkeiru",
"rJAMbiAp ptiiittiteipibpijv 0wt&tt98 4iiiti ttaLCi 6 CVC tiiiiip",
"i LJbtC q tp%b-Cdi>LbVibttp ttttr9q9 0tipi iiiCCVb 3 LCM ippi ip",
" +  Cba 4r tettppSpppiMitt8 t4w90tr0dttiii thiOpp3 8 LMV iip ppp",
" &&. VL 58 BiittpBp Cipb0wt irtth0 9ttgbAp iiigCpM 53 Jp pep iir",
"i % apL 35 vpOtqpip pppittt rtii$t 0ttrpapt bbqpip 9- CA tpapirp",
"t %% CL q4* evttppp  VaM0tptittitt 0tibCati pptp^p r8 AL iiibpip",
"pt %+ L 53- iabtppi 3 JJpiptwppitt iitpvCtt Vptb M tr AA tpppLp$",
"itt % b 895 ipiippp 8 ELa0iiv0bpii itqppbrt QiiC q rt AL tipp3ai",
"&ii -  qtrq Ciptvpp q ELiAipBpJivuipi$JpVit  irp  ti04a% itGCpCi",
"pip * Oitttd ipppp 5r aSp4bituEpvittttbBVtz  CiV 3trtqJt iitpaga",
"Vtp + t0ztkppiibpb 3t ~SAiVYp Avitiw bSMit 9 Vpi qt8wqD5 ttpCt3p",
"L,pivkirti=pbdit  0qt qMVpaip Aitiii iaCei 3 pap titwtqi tbipiib",
"AMitjtitii$pbti8 t4it aaitip AQpikt  bSAi 55 bb riiet+pb piip&t=",
"LLii0iitt*ppppzB ittAzpSpap  LCpCt 5 ipCb rt Ca tt titti pVpbvt5",
"6Ct4itiiittbitzv tt2OiApia 4AQppA 43bpAV  vt A trt tiitu tpptpt8",
"8EtzSptt*iMi3i<a tapipmpp 9 CEpa qw8rC  itttrL tit titqi LCp0Cp4",
"4EteMbiitpapttat iCVtbpi qq ELLht qMM iiiiw 8 tt9 iiwt&v LASbpp5",
"r>ttMpttttVCittb uVti+pk 93 E rtri   tpttt i tti ppiit4t ppCgbpi",
"9%tuH i5ttpbit:iitppupi qw/S rrpitiitpttp tttrtb   iwtb9 pKK p i",
"tkttC MtetS@ptpVtACiit 5qrJ 9tiNitiiitpVbitittbpCV tiqi9t KL p i",
"qtttC itwtV#vtiCtptit 9rvd wtpiitii9iiitiittupppbi ttrttt AJ p k",
"ttebG C9utMYptSztapgi t9t triitppi$pVittititMappai tprtyt AC  tb",
"3tpM AMiiiLapt Vp-iti9iit rppippttMpLippitiappSpibp   ibi Lp dit",
"diip AMVpCLLLt pthtuttqtt vpbppptCVAtttipipCbSiitiiipi pi JJ biu",
"Bipu KLCMaVCHp piitt0ette iCutpi ACVbhptttipppiiiitit Ciii  qiti",
"iiii  CVDACAEE pit+0gtttt pjiii pAAAtttttYCppiibtqtut bitt qiiOi",
"itt tt EJCpLEA rpgitwt-t gCbii  pSpitriripC+iiyVipti Mipit ppipb",
"dii irq brC8EQ4 pip$tttt SCpi  pbapiti5i-tbiitipi0ti ppSVippbtpa",
"9ip ppi 7SVYEJq pbittti3 LCiM p0pp0tt8itttXpuipiizp pCVCCpSCpVpq"
};
