/* XPM */
static char *Glass_64[] = {
/* columns rows colors chars-per-pixel */
"64 64 124 2 ",
"   c #45A7C6",
".  c #45ABCA",
"X  c #4BACCC",
"o  c #5DB4CB",
"O  c #4AB2D5",
"+  c #43B4DD",
"@  c #4DB9DC",
"#  c #57B2D1",
"$  c #53B6DA",
"%  c #54BBDE",
"&  c #5ABCDC",
"*  c #6ABFD7",
"=  c #6CBEDB",
"-  c #43B8E1",
";  c #4ABCE3",
":  c #55BDE2",
">  c #5ABFE3",
",  c #60BFE3",
"<  c #63C1DE",
"1  c #73C4DB",
"2  c #78C8DF",
"3  c #4EC0E7",
"4  c #55C1E3",
"5  c #5CC2E4",
"6  c #53C3E9",
"7  c #5CC4E9",
"8  c #5DC8EB",
"9  c #65C5E4",
"0  c #69C6E5",
"q  c #66C8E6",
"w  c #6BCAE6",
"e  c #64C6E8",
"r  c #6AC7E8",
"t  c #66CAEA",
"y  c #6DCBE9",
"u  c #70C6E7",
"i  c #73CCE6",
"p  c #7ACEE6",
"a  c #72CDEA",
"s  c #7ACFEA",
"d  c #6FD0E9",
"f  c #7BD0E7",
"g  c #75D1EC",
"h  c #7ED3EA",
"j  c #78D1ED",
"k  c #7BD2EC",
"l  c #7CD2EC",
"z  c #7FD3EE",
"x  c #7BD4EC",
"c  c #7FD4ED",
"v  c #6FD2F0",
"b  c #7DD5F1",
"n  c #7FD5F0",
"m  c #85CEDF",
"M  c #82CEE4",
"N  c #80CFEB",
"B  c #86D0E2",
"V  c #8AD2E6",
"C  c #82D3EA",
"Z  c #80D3ED",
"A  c #80D4EC",
"S  c #83D4ED",
"D  c #82D5EE",
"F  c #86D5EC",
"G  c #84D4EE",
"H  c #85D7EE",
"J  c #89D7EF",
"K  c #8DD9ED",
"L  c #96DDEC",
"P  c #9BDDED",
"I  c #9DDFEF",
"U  c #82D6F0",
"Y  c #85D5F0",
"T  c #86D7F0",
"R  c #85D6F3",
"E  c #84D8F1",
"W  c #87D8F1",
"Q  c #85D8F2",
"!  c #8DD8F2",
"~  c #94DCF0",
"^  c #9BDFF4",
"/  c #A5DCEC",
"(  c #A0DFF2",
")  c #9DE3F5",
"_  c #B3E4EF",
"`  c #BBE5EE",
"'  c #BEE9EF",
"]  c #A3E3F3",
"[  c #ACE5F3",
"{  c #A7E8F9",
"}  c #ABEAFA",
"|  c #B3E6F3",
" . c #BCE7F2",
".. c #B3E8F3",
"X. c #B5EAF5",
"o. c #BDEAF3",
"O. c #BCE9F5",
"+. c #BFE9F4",
"@. c #BCEBF7",
"#. c #BDEBF7",
"$. c #BFEBF7",
"%. c #B9EEF7",
"&. c #BCEDF6",
"*. c #BEEDF7",
"=. c #B4ECFC",
"-. c #BFECF9",
";. c #B6F1FC",
":. c #BDF4FA",
">. c #BBF3FE",
",. c #BCF2FF",
"<. c #C4E9EF",
"1. c #C2EAF2",
"2. c #C1EBF4",
"3. c #C0ECF5",
"4. c #CAECF2",
"5. c #C2EEF9",
"6. c #C1F1F7",
"7. c #C7F0F6",
"8. c #C8F3F6",
"9. c #C4F0FA",
"0. c #C3F4FD",
"q. c #CAF3FB",
"w. c #CCF9FF",
"e. c #CEF8FF",
/* pixels */
"T Z S y a y y w $.$ a 0 y w a 0 0 w w $.*.e e Z S C G w a w 0 q y y y q h z a h z S h z z j $.$.7 s z y q y 0 w 0 q a y w r G h ",
"S S C y y j 0 $.$ a y y a 0 y y w q $.*.y j Z G S G i y a y y y a q 9 z W z s c z x s z s $.$.: z s w y 0 r q 9 0 t y a y C h s ",
"G S Z 0 w T >.6 y 0 0 0 0 q w y 0 $.*.> G S S Z G w y y a 0 y a a 0 z h z z Z s c j a g 3.*.4 b h a w t y 0 t y y q 0 0 G h G h ",
"S Z W S s :.5 y g 0 w a 9 y y t -.$.9 c T S S c 0 y 0 q 0 z C z y C s c z s z z a h z *.$.: h S y y 0 0 y t 0 > t y 0 T G z h z ",
"C Z G e.9.7 y j *.w 0 0 a a t 1.*.8 g Z T 6...g y y q y Z Z G S S z S h Z i c z h I *.X : a y a 0 0 y w 0 y 5 w 0 y Z z z z z p ",
"c z 5.M 9 w a a ) a y w 0 y 0.2.t w z h $.$.c 9 0 w C G S z [ i S h C G z h S S $.3.% : w 0 w 0 y w w a y 7 a y > h j  .b z S S ",
"U *.t a y a y a 0 y a a 0 { $.e 0 s z a $.x z 5 0 C S S S [ z z h z s S c i w o.3.% : y a 0 q y 0 y a w y t y 7 9 G | 0 z g h z ",
"3.5 0 y y y w q w a w 0 M *.9 z z c z h < | O K z S h S Z j s h s S S h ] $.8 e K : y a i t 0 t y a w a w 0 w 0 j Z j s z p z P ",
"7 w y 9 0 y 0 0 y a a ;.$.t S s h h z S T h h S T h s Z G h G h S z 0.1.$ 4 j q.: j w a w y w w W 0 w a a t y w z h z c z c 0.2.",
"y a 9 0 a 0 y t w y 2.$.u S h z z z c g i h S z Z i h Z z z W h 0.$.@ : y a g 9 a a a a w a G S G w y a y a y z z z h s z 1.$.: ",
"y y 0 a a a y j y $.> s s h z z z x h j z z z W S z z h f S g -.O > a a a g 3.0 y 0 i j a G J G 0 a y a 0 0 G z z z S s 2.*.: y ",
"0 t q 0 y 9 y *.*.0 a a Z h h c h c z z i h a a j S S W s 4.$.: t g y j a j = j y y a a J s G y 0 a w y a s h h s j S $.  : t y ",
"0 0 t a a 9.*.9 5 j i w c c z h h s z y z h h z h z U z $.o.: g a a a j j 1.9 w a w a j G G a y a y t y S s s p g 1 3.: 4 w 0 y ",
"a 0 0 1 *.6 : w w w 0 S z z s z i s j c i h z S h a z 2.1.: y j g i a j a -.a y a g y G S j 0 a t 0 0 h z j h j 1.$.: 0 y a a 0 ",
"y v 2.X : : a a a a h c z p z a h h z S S z S z z Z $.e.: y i a i a a a $.j y 0 y a j y t y w 0 a i 0 h a z g *.4.> a y a y y y ",
"*.3.: : y 0 y a y T s z p s s c h h c h c Z S h z $.1 : y y y a a g j o.7 a y a y W y a w w a a 0 j g b j a 3.1.5 t g w a a a q ",
": : y y y a y y S Z h >.T j Z p h j h j Z h Z B 2.3 : w a a g a y y 1.7 w a y i a a a y a j j a a S z h h 3.2.5 y i 0 y w y *.' ",
"0 0 y a a y y i G [ ] Z h c s z g G z s j b 3.$.% : g w a a a w y *.7 a a g a a a w y a a a a a Z z s a 2.3.4 y y w y i 3.2.9 7 ",
"q w t 0 a r S Z ` m Z h U h z c z h h h 2 $.e.: y y y a y y a i *.5 j j a y y a y w a w a 0 w z U U s 5.$.[ t a y z 5.1 : 5 0 w ",
"0 y 0 w y C z *.j z s z a h s c s S z $.o.: : y y i j e 0 a 0 o.5 y y y j 7 a y y w a t a p Z S j c q.$.*.t a q.2.q > : q 0 g y ",
"t y y w h h *.h h c z c z U z z b 6.*.+ : y y a y a 0 y g y $.7 a y 0 w 5 a a y t a c j S s h c j a *.$.$.*.- : 7 9 0 y q y y 0 ",
"t 9 0 h h =.Z S U S a h Z z i c 3.3.: % a y y j y y a a y $.9 a y y 9 7 0 y a w C z z z S z Z z a 2.$.` % : % q t y 0 q y y y y ",
"0 C S Z p s S S h S z j s g ' 3.% : y y a y y y w a t y -.< g w a w y 0 w a y z C c h z Z S z c *.o.% : a y 0 q 0 0 9 0 q 0 q 0 ",
"S S Z T G Z G S z h z z Z $.2.> 0 i t e y a y w a t a p 8 7 0 a a y a a a y Z z z S Z W z z j *.) 4 t w y 0 y 9 0 t < t q a w y ",
"S W S G C z S h C N z M o.6 7 w w y w w y y a a 0 w 0 q.t a j a y y a 9 j z c h z c h W h 1 2.& t y y j a y y y y [ ] U a 0 q z ",
"C Z z C i T S z Z z $.$.e t y S h T S y y y w y a a 1.q g w a y y 0 y i z z S S S h s h 0.$.> y 9 0 t r 0 t y y q X.S ] : 0 z z ",
"S Z C g h S z Z Z $.$.9 a a z S h h w a y y y y 0 7.a y z z y y a j s h a s [ a Z Z s 3.$.9 r 0 0 y y y y q q y y q 6 : 0 s z z ",
"h G h h s h U z $.,.t w y W G C Z y y y y a 0 y a = q g z i a y a i h S j [ c z h a q.$.7 0 y 0 0 0 q t 9 y y w t t 0 y s h z Z ",
"S j C G G S %.*.6 a a j Z G C T a y w a a a y y o.a j h g z x z a h j S h g z i z j *.7 t 0 0 y 0 0 q 0 y 9 y 9 q q 0 z z z h G ",
"h S G h z $.$.> a w w W G S T a a a a 0 a a g *.y j g j z a z j z a a h g j S j c $.7 y r 0 q 9 q t a 0 S S S q y y z z Z S S c ",
"G S S S *.$.7 j j a 0 j G S y y a y 0 a 0 y $.a z j z z a h j x a a c g j z j a o.% q t y t y t y 9 9 T Z Z t y 9 9 S z z Z h z ",
"C G 0.*.@ : w y 0 0 0 w w 0 a a g y y y a $.9 h c j a j g h j g j a z j a a z -.o y w w 0 y 0 0 t Z h Z h z w y c z a S S z z h ",
"c $.o.: 0 0 j i y a y 0 y a a y 0 y a 0 *.8 j a S i f ] s C z j z c a z a j $.2.: y 0 t y 9 y a j z z c U y t j s G h h z j p z ",
"$.1.5 g 0 y y 0 y a 0 w a a 0 y w 0 y $.5 x i z c h ] h c g x g h s j j a 1.$.: y g 9 9 0 a t z z z S a S q s z z y S h S h S b ",
"6 4 h i 0 y y j 0 r t 0 0 t y y y t *.@ S z z a g z j h g j s j y z j w $.$.: 0 a a y t y y j j h h c s U z h c 0 h h S p z i $.",
": z z z 0 w y z i y q 0 0 w y q L $.4 x h g z z j z a h i a j g c j a -.3.: w y 0 0 w y y h h S Z a s z z z s y a h z Z z 1.$.5 ",
"h s c a t q $.! y w 0 t y a 0 3.*.: h U z S a 0 t a z i z j z h j w $.$.: q 0 y y 0 y z z Z z z z z h h Z U h j i h S S $.$.: G ",
"G u t w y t # : w a a 0 0 q *.1.5 b c s h z t e 0 s S z j z a i w $.<.: 0 0 y t 9 q a h z _ x i h a j j j x g h s h c 1.3.> c S ",
"h 0 0 0 0 y y w y y 0 w a *.; 5 z z h z z y 0 t i a z z z j a 9.$.. : 0 y y t j y z a h [ j a z z z z i g s h i a z $.1.4 Z z S ",
"y 0 y w w y a w 0 y i } $.5 & j c z s i 0 0 t a g c j c j a *.$.& % y 9 y y 0 y g z p [ c S g a a z a p j c z z i $.) 7 z z U h ",
"0 w g y 0 a y 0 a a o.i > U a s h z h y y a f j i g h s s o.o.: y t 0 0 0 y y S z p [ z h c a z c a j c z c h b $.O % s z h t y ",
"a 0 a y y 0 y y y | t q z S c a z S i U j z c z z z S $.$.*.: 0 w 0 w y y 0 j z j ] l h [ h a z h x i x c s z *.6 T z z 0 y y t ",
"0 w 0 y 0 y 0 X.0.w C h z c z [ c h S c S h h z z  .$.9 $.% t y i a w y y j h s z z g z G a z c h h i j z z $.5 f j j t 0 e w y ",
"y y y a a i $.i j S z h h z | h c S S h S h z o.$.7 0 a q.i y q y 0 i j z z G z z c f h h i z i c s j S a $.: z j z a y y 0 y 0 ",
"0 y a a y $.y C C h S h S [ h S h h z S h $.` > 9 a j $.: 0 g y a y y a c a s c j y z c a c a h j z z c *.7 z z z z 0 q 0 w y y ",
"0 0 a 0.o.0 S i S z S Z | p h W z T h } $.7 e j a a j , a y 0 t y y a a i S S z a a s S z s s a s z u $.: s S a g t q a g 9 q 0 ",
"a a 3.5.t b Z x j S Z [ S z z j h z $.& 7 y y a a g *.w y w 0 0 q 0 y S h i h j g a j a z h s i z $.# c a h z z w P ) q 0 0 0 0 ",
"[ $.t y y z c z S S [ Z c z S z j $.5 > a 0 y a a } 5 a j w a 0 t t s z a z z c j c j h j j z c $.8 Z h j z h g 9 t 9 9 0 9 q y ",
"*.7 a a 0 S S a z =.c c c z T 0.o.5 g y a a 0 a K 9 a g y y 0 0 a i i c a a i S a h h c h z 0.$.> j c j U s q y y q 0 0 y t q 2.",
"> w y y Z s z S S z x c S z $.1.5 y a a w y a 1.a y w w a 0 0 0 S c j z h z U a c i c z g -.% G s h z a y y q 0 0 q q q q q $.i ",
"a a 0 a y a 0 h S Z S C z $.$.7 a y g y w a *.8 y y w 0 0 y 0 C s z z S z z z z b c z z $.9 s a z z z y y 0 a y 0 j 0 9 & 5.5 > ",
"a y 0 0 t a w z h U h z $.$.7 y a y y a t *.9 a y a a w y q w a S w a S j s h z c c a $.5 i h g s z 0 w q y w a 0 a 0 q.2.5 a y ",
"t y q y y w y c z s z z $.5 w a 0 y y $.e.y w a y a 0 0 y y y a q i 0 z a z z z c z *.7 z h z Z Z y 0 w i a w y a 9 $.* > y 0 a ",
"q 0 w a y 0 S z a j s $.4 a 0 t y $.1.9 0 y 0 y a a y y 0 g a a i y z h s S h h S $.5 z j j c c 0 *.X.y 0 a y e y $.8 y a 0 y a ",
"0 a 9 w t w z z i a 2.$.a y y <.$.7 a y w 9 a w w y a t 5 a w g y z h j h j s z $.> z z z h t 0 y ^ x V y t y 0 $.5 y g a w w y ",
"q y y 5 t z i h s a $.o.T $. .> : y y y 0 y y y a g y 9 0 y a a a z j z i s a $.> y y 0 w w w 0 y _ { : y a t $.7 0 t a q 0 0 y ",
"0 w 5 0 p h c g s $.*.*.<.4 : a y y a y y 0 y q i y a w 0 0 0 S S z s h Z s *.5 w 0 y y 0 y w 0 g y y q a y $.7 y q w t q 7 w y ",
"y 7 j c S z j l 2.$.$.: > a 0 a a y w y y y ] G 0 w a w a 0 z h h a c a h [ 9 w w y w a w 0 y a y y a y j $.7 a 0 0 t 0 7 y y q ",
"9 W S z S z z a $.^ 7 g a 0 a 0 t 0 0 y 0 / ( y w t t q y z z z j g s 3.4 0 r 0 g w g a w y y 0 0 a a a 2.7 0 a 0 t w 9 y y q 0 ",
"S S G s c z c $.q i a w y 0 a y y a 0 w q 0 9 0 0 a 9 h a a z h a [ 1.e a w a t 0 y q q y a y w a a w $.4 y j y 0 0 y 0 7 y 9 5 ",
"S Z z h z i $.9 y a j a g j a 0 0 t t 9 y y y 0 0 w i b j a P 2.$.q a j y 0 9 0 0 a a y t w a j w y o.$ y t y 0 q q t 7 w 0 q h ",
"h h s S P  .g a a a w a S w y y 0 0 0 t 0 t y ! *.$.$.$.' >.e q q y 0 0 q 0 a 0 a y a a a g j z a -.w.5 a y 9 w t t 0 d 0 t z Z ",
"c Z h V ~ y j w 0 y y $.a a w y 0 0 y t 0 1.$.$.$.w y a h y g 0 0 y a w w U z S 0 0 a g a a z h $. .4 j 0 w 0 a y 0 0 0 r y h S ",
"S h G a a y y y a X.V y a y w 0 0 t 9 0 $.$.8.0 C U h p y 0 y w 0 y 9 y a c Z s a g z s s j z $.*.7 c y w w y w y w a y 0 w s G "
};
