/* XPM */
static char *Lava_64[] = {
/* columns rows colors chars-per-pixel */
"64 64 213 2 ",
"   c #2D180F",
".  c #331A0E",
"X  c #3D1C0E",
"o  c #231613",
"O  c #261A15",
"+  c #2C1C14",
"@  c #271E1C",
"#  c #2B1E1A",
"$  c #331D13",
"%  c #3A1E11",
"&  c #3F200E",
"*  c #2D221D",
"=  c #342015",
"-  c #3C2113",
";  c #33241D",
":  c #3B261C",
">  c #36291F",
",  c #3C291E",
"<  c #2F2522",
"1  c #2F2824",
"2  c #322622",
"3  c #392621",
"4  c #342924",
"5  c #3B2B23",
"6  c #352C29",
"7  c #3A2E29",
"8  c #37302A",
"9  c #3B312B",
"0  c #451907",
"q  c #431E0D",
"w  c #4C1E0B",
"e  c #551705",
"r  c #5D1000",
"t  c #551D07",
"y  c #5A1F06",
"u  c #531F0A",
"i  c #5A1F08",
"p  c #421F11",
"a  c #481F11",
"s  c #641D05",
"d  c #6C1E03",
"f  c #611F08",
"g  c #721500",
"h  c #751C01",
"j  c #7B1D02",
"k  c #44210E",
"l  c #4C210D",
"z  c #5D2107",
"x  c #54220C",
"c  c #5B230A",
"v  c #432112",
"b  c #4B2512",
"n  c #4C2814",
"m  c #40271D",
"M  c #432A1D",
"N  c #4B2B1C",
"B  c #532512",
"V  c #552A16",
"C  c #592A13",
"Z  c #532D1B",
"A  c #5A2E1A",
"S  c #53311E",
"D  c #5B311D",
"F  c #642306",
"G  c #6C2306",
"H  c #622409",
"J  c #6C2508",
"K  c #672909",
"L  c #6B2A0B",
"P  c #742405",
"I  c #7B2404",
"U  c #752906",
"Y  c #7D2905",
"T  c #732609",
"R  c #7A2709",
"E  c #742909",
"W  c #7A2B09",
"Q  c #612D16",
"!  c #6B2C11",
"~  c #782E11",
"^  c #63341C",
"/  c #6B351D",
"(  c #763110",
")  c #77351C",
"_  c #432C22",
"`  c #4B2F22",
"'  c #412F28",
"]  c #423126",
"[  c #4B3124",
"{  c #43332C",
"}  c #4A342A",
"|  c #563323",
" . c #5C3322",
".. c #51362B",
"X. c #413531",
"o. c #463834",
"O. c #513B30",
"+. c #623521",
"@. c #61362B",
"#. c #861C03",
"$. c #8B1E02",
"%. c #911B00",
"&. c #9C1E00",
"*. c #A41F00",
"=. c #AB1F00",
"-. c #822503",
";. c #8B2502",
":. c #842A05",
">. c #8B2A03",
",. c #8A2208",
"<. c #812B09",
"1. c #932402",
"2. c #9B2401",
"3. c #932B03",
"4. c #9A2A01",
"5. c #8C3107",
"6. c #883009",
"7. c #953206",
"8. c #A42401",
"9. c #AB2401",
"0. c #A42D01",
"q. c #AB2A02",
"w. c #B32501",
"e. c #BD2500",
"r. c #B42B02",
"t. c #BC2B00",
"y. c #AC3101",
"u. c #AF3408",
"i. c #BE3002",
"p. c #B63308",
"a. c #C41F01",
"s. c #CC1D05",
"d. c #C22500",
"f. c #CB2501",
"g. c #C42C00",
"h. c #CC2C00",
"j. c #C92E08",
"k. c #D32701",
"l. c #DE2601",
"z. c #D42D00",
"x. c #DC2C00",
"c. c #C43202",
"v. c #CC3301",
"b. c #CE3D01",
"n. c #CE3C0C",
"m. c #D43301",
"M. c #DE3100",
"N. c #DC3400",
"B. c #D53A01",
"V. c #DC3B00",
"C. c #D7360B",
"Z. c #DD3108",
"A. c #C33711",
"S. c #E42600",
"D. c #E32D00",
"F. c #EA2C00",
"G. c #E53400",
"H. c #EA3500",
"J. c #E43B00",
"K. c #EA3B00",
"L. c #E13B0B",
"P. c #F13401",
"I. c #FB3706",
"U. c #F23B03",
"Y. c #DE4500",
"T. c #DC5101",
"R. c #E44200",
"E. c #EC4201",
"W. c #E44B01",
"Q. c #EE4C00",
"!. c #E5450A",
"~. c #EC410A",
"^. c #F24301",
"/. c #F64C03",
"(. c #EC5301",
"). c #EB5D00",
"_. c #F35502",
"`. c #F85702",
"'. c #F45B01",
"]. c #F95B01",
"[. c #EE6301",
"{. c #EF6800",
"}. c #F46402",
"|. c #F46B02",
" X c #FA6C07",
".X c #F9640A",
"XX c #ED7100",
"oX c #EE7B00",
"OX c #F47402",
"+X c #F87407",
"@X c #F47C03",
"#X c #F97B02",
"$X c #FC740A",
"%X c #F57E09",
"&X c #FC7A0B",
"*X c #FC7812",
"=X c #EF8602",
"-X c #ED8C02",
";X c #F48305",
":X c #F88303",
">X c #F28904",
",X c #FB8B06",
"<X c #F5850A",
"1X c #FA8209",
"2X c #F68B0A",
"3X c #FB8C0C",
"4X c #F4920D",
"5X c #F8960B",
"6X c #F49A0D",
"7X c #FC8513",
"8X c #FE9C1B",
"9X c #FF9521",
"0X c #F8B031",
/* pixels */
"> 2 2 2 2 2 2 2 4 ; M ,._.}. Xa.a.&.2.;.z N ; 3 3 > 3 2 ; ; 2 3 - c T g.1XXXh.p 2 2 2 2 2 2 2 # 2 < 2 2 * < * ; $ X x -.g.B.-.p ",
"; 2 2 2 2 4 2 2 4 2 5 0 .X|.OXf.f.w.9.1.J x N 3 3 3 3 ; 2 4 4 5 - l G g.@Xm.x.- $ 2 2 2 2 < # 2 2 < 2 2 < < *   X w 1.2.!.B.x % ",
"2 2 2 < 2 4 4 1 # ; , w f.^.+XOXh.h.g.2.P H x X , 3 3 ; 4 4 4 7 v x I N.@XM.G.w $ # 2 2 2 2 4 2 2 4 2 2 2 ; O $ q 2.2.8.Y.P v $ ",
"2 2 4 2 2 2 4 4 * ; 5  .z S.F.%X}.m.h.1.8.G G u X . 5 2 2 2 4 5 k z 2.V.OXM.x.u [ { # < 2 2 2 2 4 2 2 2 2 O $ u G e.w.R.1.l $ ; ",
"; 2 2 2 2 4 * * * ; 5 ' @.) D.H.<X%X}.M.r.8.2.G w q . 7 3 4 4 _ k i x.G.@XN.P Z [ * 4 2 4 # # 6 2 2 4 * O + X G w.f.E.R.w $ 2 * ",
"2 2 2 < 2 * * 6 2 4 4 5 5 | u F.U.@X<X}.H.G.8.;.s t 0 q 5 3 5 _ w F x.N.T.m.+.3 2 4 2 4 < 4 # # @ o O + + $ l G e.x.R.%.$ ; 2 2 ",
"2 < 4 2 < 4 2 4 2 4 4 ; 3 7 X x F.H.@X<XOXH.G.x.1.-.i x w M N k x T N.1Xm.h.| > 3 4 4 4 2 1 < # # O + + $ X x w.=.E.J.. 2 * * 2 ",
"2 2 < < 4 4 2 2 4 4 4 4 2 5 { p x l H.H.1X+XK.H.k.2.G F u q q x H m.}.;XM.s B 3 3 3 2 2 2 1 2 4 O + $ % q u d 8.J.H.q 2 < ; 2 ; ",
"2 < < < 2 4 2 2 2 4 4 4 4 6 { $ v x z H.^.+X|.H.D.x.2.G G H T P v.z.@X/.x.J c l > 5 ; 2 2 2 2 7 $ $ q w z P w.J.D.l 4 2 * 2 < ; ",
"< 2 @ < 4 * 4 4 4 4 4 2 2 7 7 + $ B c G F.G.+X|.D.x.D.j P T R h x.$X@X@XG.:.c z w _ 3 3 3 3 3 O % q z x >.g.E.K.B ..4 < 2 2 2 * ",
"< 2 * 2 4 4 4 4 4 2 1 2 4 6 X.O $ v c P D.F.+X@X&XH.F.G.F.P.M.G.K.%X4X<XK.;.>.H u X X $ $ . ` v q w u d g.g.E.x ..3 4 < @ < < 2 ",
"< 1 < 1 4 < 2 4 4 4 2 4 6 6 X.O $ l c -.;.G.|.@X%X^.K.K.H.P.E.%X2X5X6X5X&XG.1.>.f w w w q q q 0 u z F 1.v.(.R.O.4 4 2 < < < < < ",
"< < 2 4 4 2 4 2 2 2 2 2 6 6 o.O b l H :.C.H.&X2X2X@X;X>X@X@X<X4X8XI.U.1X+XK.H.2.>.f f H z z H u P Y q.g.[.(.0 3 2 2 2 < < < 1 1 ",
"4 2 2 4 4 4 2 2 2 2 4 6 4 X.o + l x J >.D.H.<X}.>X4X4X2X>XK.G.K.K.K.E.E.Q.%X_.K.G.>.-.P T P I ;.r.t.t.).).u.K { 2 2 2 * < 4 6 2 ",
"1 4 2 4 1 1 4 4 6 4 4 4 X.O O + l c -.$.G.K.;X2X2X9XK.J.G.G.H.G / ) G 9.H.K.OXOXE.J.1.;.:.;.h.h.x.'.).g.r.Y v % ' 4 7 * 2 4 4 4 ",
"6 2 4 2 4 4 4 4 4 6 2 o O O + $ x G -.D.K.OX2XJ.K.K.J.H.H z B , _ _ ` / G H.F.OXOX_.K.H.H.k.^./._.v.m.i.i.G l X - + + ; 2 4 4 4 ",
"1 2 2 2 4 4 2 4 9 9 O O $ $ q 0 G Y M.G.E.2XI.K.K.W U H V ..7 5 5 5 5 _ A G l.F.G.%X+X}.'.`.`.h.g.( ~ g.t.J x k % $ + + 4 4 5 < ",
"2 4 4 4 4 4 4 6 { # + $ $ - q H T :.G.K.2X~.K.K.Y R +.m 5 5 4 4 4 6 5 7 _ Z G C.G.K.+X X}._.t.t.! ` Z G w.r.H l p % $ $ $ 4 6 4 ",
"< 4 4 2 4 4 4 O O + - % v w Y Y Y J.K.;XU.H.~.Y H B _ 3 4 4 4 2 4 6 7 7 7 M x P I G.K.}.}.h.t.z _ _ N H z 9.G x x k - - $ = 5 7 ",
"+ + + O O O + $ $ - - v k x Y n.G.K.&X@XK.G.P c x } 5 3 2 2 4 2 4 6 6 6 7 ' v c G F.G.}. XN.g.c _ M w z F q.d H x x l k $ = ; $ ",
"$ % $ + $ $ % % x v p l x <.N.N.J.R.1XK.H.F z x v ] 3 2 4 4 < 4 6 6 6 7 7 7 - l H G G.OX|.J.2.Y H c z Y -.g.g.G J c c c l v % $ ",
"w X X X k q q q q v 0 x G -.N.J.E.;X;XH.H.P z v ] 3 3 4 4 4 7 7 6 6 6 7 5 5 - & z I G.].+XQ.K.>.T P Y -.h.h.h.t.Y T F H H w a q ",
"G G u u t u z x w H y R -.B.J.Q.@X;XH.H.L.T v ] 3 4 4 4 7 7 8 6 9 6 7 6 7 ; - v l ;.D.K.@X@XE.J.5.4.N.N.N.m.v.g.g.1.P T F i z P ",
"Y I Y H z F G F G I -.:.8.G.J.1X1XG.G.G.T H 7 5 6 4 6 4 4 7 6 7 9 6 7 7 { ; v l 1.1.0.E.%X<X}.E.R.R.Y.%X;X@X@Xv.g.g.t.j G P I Y ",
"D.G.m.N.N.x.3.>.-.;.;.].J.J.1X1XP.K.G.z l 5 7 ; 6 6 4 6 9 7 9 7 7 7 9 7 + = b z ;.4.9.E.@X<X<X;X;X<X<X2X$X7XN.1XOXm.v.h.z.z.z.z.",
"N.N.N.J.J.J.J.G.H.G.G.G.K.K.1X;XK.K.>.x 5 5 5 7 7 7 5 6 9 6 7 9 7 7 { $ - % l G 4.0.J.E.1X4X1XW.[.U.K.J.J.G.J.M.N.@X;XV.m.m.N.N.",
"J.J.H.K.K.J.J.H.K.K.K.K.E.;X;XK.G.-.:.` 7 7 7 5 6 6 7 7 7 9 7 9 9 ; $ - k x H f r.J.K.oX<XE.J.J.R.J.J.J.L y D u z.M.@XOXOXOXN.V.",
";X2X@X>X,X;X1X;X;X%X*X3X1X<X1XK.G.-.T S 7 9 7 7 9 7 5 6 7 4 5 9 * + - b l z H P R.W.@X;XJ.J.K.T F J  .N > 5 5 M w H N.B.h.@XOX@X",
"H.H.H.:X1X;X;X;X=X;X0X2X;X;X;XK.G.g G z [ ' 7 5 5 7 7 5 4 5 5 + + = - b c z T v.R.1X<XE.J.I L _ 5 > > ; 5 3 3 > = q H B.v.v.N.J.",
"%.H.H.H.K.K.E.E.E.E.K.P.@X;X%X@XK.M.d F x v - } 7 5 5 4 5 3 ] = - % q x H G Y V.5X4XQ.J.s H | > 2 2 2 : 4 4 3 2 5 , N N Z D G c ",
" .E :.H.P.q.:.5.<.d K.G.H.K.%X@X_.J.m.T z w q - - _ 5 5 > _ = - q F c F Y q.N.R.>X-XJ.r x l 5 2 3 2 * 2 2 2 2 3 ; > 5 , M _ , , ",
"_ M x J Y G J A A A G I F.H.H.@XOXQ.G.x.P y x l k % $ $ + $ % & l u F Y r.g.J.;X1XN.x.x k ] 2 ; < 2 2 2 2 < 2 2 3 3 > 5 5 5 5 5 ",
"5 5 > M v q M N N N Z Q G L.H.H.OXOXK.x.G T z z F 0 X $ $ X q x z z F g.c.v.'.x.h.A.x v { 2 2 2 2 2 4 2 4 4 4 2 2 3 5 2 3 2 3 3 ",
"3 3 3 3 3 5 ; 5 5 _ N V H P F.G.F.OX|.K.G.P I T J F k q q q c z F P G c.v.}.v.h.c c x . 6 4 4 2 2 2 2 2 2 2 2 2 < ; 3 2 4 2 4 4 ",
"3 4 4 2 2 3 # : > 3 _ V z F r.F.G.OX@XE.E.G.:.3.-.Y :.u w u F G P I v.h.{.m.v.I z c - 4 2 2 4 2 < 1 4 < 4 2 2 2 * 2 2 4 2 4 2 2 ",
"2 4 4 4 * 2 7 # > ; : q u G -.D.K.OX@XE.Q.E.J.H.3.>.>.>.P G P I -.m.m.}.}.N.%.R H z - 4 4 4 4 4 2 1 6 4 4 4 2 < * ; 2 2 4 2 4 2 ",
"2 2 4 4 4 2 * < 4 O . q u 1.2.K.Q.@X;X3X;XQ.J.J.V.B.B.y.>.3.3.h z.m.|.|.G.V.>.Y H l - ] 4 4 4 4 < 6 4 4 4 6 4 6 * < 2 2 2 * 2 4 ",
"4 < 4 4 4 7 * * 2 O $ q z 1.N.K.Q.1X;X@X;X@X;XJ.R.R.R.B.B.V.V.N.R.U.Q.}.J.V.:.<.F z X % { 4 4 2 < 6 6 4 2 4 1 4 6 < 2 2 3 4 4 4 ",
"2 4 4 4 6 * 2 2 3 $ $ w z N.M.K.E.@X%X@XG.7X@X@X@XoX}.V.W.).R.OX(.V.R.Q.U.J.i.>.:.U l k v 2 4 4 < 6 4 4 1 2 4 4 4 6 < 2 2 2 1 2 ",
"2 4 6 9 # * 2 : - - x l x N.J.J.,X@X}.J.J.V.V.m.OX@X@X@XOXOXOXOXV.R.R.Q.OXK.J.J.>.>.G x x $ 5 4 * 4 4 2 6 6 4 4 4 6 4 ; < < 2 2 ",
"2 4 6 9 + * : - b l c H y m.J.E.@X1XE.~.>.<.Y m.v.v.R.K.E.Q.OX@X(.(.Q.OXOX@XE.J.J.N.>.J H q $ + # # 6 6 4 4 4 4 4 4 * * * ; 2 3 ",
"7 5 + + + + = c l l c U h J.E.@X@X^.K.6.^ S ^ ^ L Y c.J.J.K.K.OXOXOXOXOXOX}.|.(.J.N.m.3.Y z $ $ $ + + 9 4 2 4 4 * 4 ; 2 2 3 3 5 ",
"= $ $ $ $ $ p l x H G 3.N.J.J.@XQ.K.W | _ M 5 M N V F I N.z.z.N.K.H.H.F.H..X|.|.|.M.m.m.4.F q k - $ $ # 7 9 4 2 4 * 4 2 > 4 + + ",
"% - % v % l c F H J 3.J.J.J.$X@XK.G.U M _ , 5 > m Z z Y h.h.m.z.z.x.F.H.H.H.K.OXOXOXJ.N.m.I x l l % % - + # # ; * # # 7 5 O $ $ ",
"q q l x x x z G G ;.3.J.J.R.;X%XH.M.D _ 5 5 > $ v l x Y -.g.v.T.v.h.d.k.F.(.H.J.@X@X|.N.h.>.x x l l k + # * * * * * + O O $ % & ",
"u z H J z F G I 3.M.J.J.R.-X;X(.K.<.Z 5 5 5 } - l c R >.g.c.g.g.g.p.I d s C.G.m.v.@X@XN.v.2.>.F H c l $ + + ; + * ; $ + + . q w ",
"Y h m.k.h.4.3.3.N.J.J.R.>X%X2XJ.g.U Z M , $ X l z T :.w.g.h.v.P G G ^ +.N y F -.v.m.;XN.).m.0.3.E H v - $ $ $ = v = $ $ X 0 z F ",
"x.z.z.m.h.h.N.N.J.J.oX@X1X2X2XK.:.Y z x x w x z G P e.e.U L ^ M _ , 5 ' 5 _ c J g.v.@XK.J.N.m.q.3.E c k - - l - $ - + . z z P j.",
"N.m.N.N.z.J.G.N.N.@X%XU.Q.^.2X Xm.v.7.G F H d :.1.2.w.t.^ 5 , 5 5 > 3 5 5 5 5 c G m.B.@XY.J.V.B.m.U H l k q X - v k X 0 G 1.h.l.",
"x.N.M.&X@XOX;X@X@XJ.J.J.K.K.K.@XOXB.v.r.8.1.2.1.1.1.2.z _ 5 5 3 5 5 3 ; 4 3 5 ` H d m.N.OXOXV.J.m.m.-.u l w q w w w w P g f.k.D.",
";X:X%X1X;X@X&XG.G.G.!.U Y >.G.V.N.|. Xg.r.q.9.b.1.j c $ 3 5 3 5 3 4 3 3 3 4 3 > x c -.m.m.@XOX@XN.m.;.;.z y z u y T Y d.f.x.x.F.",
"OX:XJ.K.G.G.G.L.G L K H L U :.1.m.h.}.B.h.r.w.8.-.c l $ , 3 3 4 3 > 3 3 4 4 4 5 - l u -.m.B.@X@XH.J.M.8.;.H P P P I g.g.z.z.OX@X",
"D.x.R.l.x.G H c V Z M M M C J T y d.k.'.m.h.w.r.P c x $ 5 3 3 5 2 > ; ; 2 4 5 + $ X l >.t.N.:X%X@XK.G.[.G.j j h.h.h.h.m.x.+X@X@X",
"l.D.x.d H x Z , > , > 5 , 5 [ x x g k.'.'.m.m.g.1.H v % $ 5 3 3 3 3 2 4 3 > + $ X X F -.3.N.(.OX_.%XE.K.G.G.z.h.z.N.N.G.OXOXH.F.",
"D.P F z b v , 3 ; 2 3 ; 3 4 5 Z w H e.m.'.}.Q.m.g.T x k $ $ 5 3 3 3 3 4 > > + % q F G ;.x.G.@X1X<X<X2X XK.K.G.z.M.H.OXOXOXF.D.D.",
"H c b v , > ; 3 2 2 2 2 4 4 3 ` k z G z.z.}.}.z.m.g.F H k % $ $ + > 3 > : $ $ X z P P h.M.K.@X@X;X3X>X;X;X#X}.}.}.}.V..Xz.z.k.T ",
"l v - 2 2 ; 2 2 2 < 4 2 3 3 5 p l F P 2.z.m.|.|.#Xm.v.G z w l l - $ ; : $ % x F 1.z.x.N.oXOXx.J.K.H.K.G.H.Z.v.v.v.h.h.h.h.h.P J ",
"b M 5 3 3 2 * 2 4 4 * 2 4 3 X q u s 1.9.h.z.m.B.{.|.m.v.;.P J F l X X   k q P ;.x.x.N.}.}.D.D.g H L G D.M.h.n.H F H T d.d.>.G l ",
"M 5 4 4 4 2 * 4 4 6 4 6 5 $ X w s #.2.d.g.k.r.v.v.h.).W.v.g.>.P F z w 0 w u e.z.J.}.'.x.x.2.Q D v S D D z x n V C C H F e.;.Y i ",
", 5 4 3 4 * 2 * 6 4 4 3 = X G P h 8.8.G G V z H F h.g.W.W.t.g.t.d G P G T w.h.m.OXz.k.x D Z M M 5 , 5 , , N M : b n n w e.d.I t ",
"5 4 2 < 4 4 * * * 5 5 $ p z I j &.*.1.F , M M m M k w e b.Y.G.d.e.e.I I w.r.g.|.h.U ! Z M , > 5 > 3 3 3 3 3 5 3 ; = : l w.f.h i ",
"4 2 2 3 < < 4 4 2 > $ % z -.9.9.e.9.P V > > , 3 5 , , q z J R c.w.e.d.e.t.g.}.g.E H N , , > > 5 3 3 2 2 2 ; ; ; ; ; - b P f.f.l ",
"4 4 4 2 4 4 4 2 ; $ $ x H 2.G.x.*.j G x : , > > 3 3 ; > , v L i z d d.g.g.|.s.q.c n , 3 3 3 > 3 3 2 2 2 * * * 2 > $ v z J k.h.l ",
"4 4 4 4 4 4 2 2 5 $ % u h.^.E.=.=.$.j w b : > > 3 3 ; = ; $ > : w i #.g.XXOXx.z n , 3 3 3 4 4 4 4 4 3 2 2 2 2 ; 5 % l J 8.N.-.H "
};
