/* XPM */
static char *Leaf_Covered_Ground_64[] = {
/* columns rows colors chars-per-pixel */
"64 64 214 2 ",
"   c black",
".  c #1B0202",
"X  c #1B0402",
"o  c #260400",
"O  c #2C0400",
"+  c #200804",
"@  c #2B0A01",
"#  c #320A00",
"$  c #3C0C00",
"%  c #2D1104",
"&  c #281008",
"*  c #331402",
"=  c #3B1401",
"-  c #3C1A02",
";  c #391A09",
":  c #301A19",
">  c #3D2007",
",  c #2A2316",
"<  c #480700",
"1  c #410800",
"2  c #421401",
"3  c #4C1502",
"4  c #441B01",
"5  c #4A1E00",
"6  c #431E0C",
"7  c #5A1700",
"8  c #531C01",
"9  c #451D12",
"0  c #741B00",
"q  c #462105",
"w  c #4C2303",
"e  c #4C240A",
"r  c #532402",
"t  c #5D2501",
"y  c #552A03",
"u  c #5B2C03",
"i  c #51250F",
"p  c #562A09",
"a  c #5C2D09",
"s  c #5D3205",
"d  c #5D320B",
"f  c #622C03",
"g  c #6A2C04",
"h  c #612D0B",
"j  c #732600",
"k  c #7B2F00",
"l  c #643105",
"z  c #6A3404",
"x  c #6C3906",
"c  c #65330B",
"v  c #6B350D",
"b  c #6C390E",
"n  c #723704",
"m  c #7C3401",
"M  c #71360D",
"N  c #723A0E",
"B  c #793B0E",
"V  c #653511",
"C  c #6C3611",
"Z  c #673911",
"A  c #6E3912",
"S  c #663D1A",
"D  c #713711",
"F  c #753C14",
"G  c #793E16",
"H  c #763E18",
"J  c #7A3F18",
"K  c #774307",
"L  c #6C4019",
"P  c #764016",
"I  c #7A4117",
"U  c #774018",
"Y  c #7C4119",
"T  c #882801",
"R  c #972C00",
"E  c #8A3C02",
"W  c #823F09",
"Q  c #923700",
"!  c #993D13",
"~  c #A23C00",
"^  c #A83B02",
"/  c #C13B00",
"(  c #834200",
")  c #8B4701",
"_  c #82410B",
"`  c #8C450D",
"'  c #994601",
"]  c #944C0A",
"[  c #9E530C",
"{  c #814417",
"}  c #884312",
"|  c #854A14",
" . c #81441B",
".. c #974C15",
"X. c #985012",
"o. c #A94302",
"O. c #B04103",
"+. c #BB4500",
"@. c #A75405",
"#. c #A1550E",
"$. c #B35D04",
"%. c #B95F06",
"&. c #B35C09",
"*. c #B85E0B",
"=. c #A96407",
"-. c #AB660E",
";. c #AE6A0E",
":. c #B26005",
">. c #BA6402",
",. c #B66D05",
"<. c #BA620A",
"1. c #B4730D",
"2. c #BD730D",
"3. c #B77A0F",
"4. c #BA7E0F",
"5. c #AC6610",
"6. c #AE6B10",
"7. c #B26B10",
"8. c #B57411",
"9. c #B87511",
"0. c #B67912",
"q. c #BA7D13",
"w. c #B6761B",
"e. c #A96223",
"r. c #C94802",
"t. c #D84F01",
"y. c #C55300",
"u. c #CA5600",
"i. c #CC5901",
"p. c #CB5B08",
"a. c #D45600",
"s. c #DB5501",
"d. c #D55C01",
"f. c #DC5C00",
"g. c #DD5B08",
"h. c #E44E01",
"j. c #E94E00",
"k. c #E45301",
"l. c #E95301",
"z. c #E35B01",
"x. c #ED5A07",
"c. c #E5550D",
"v. c #E45F0B",
"b. c #F15C09",
"n. c #EA5E11",
"m. c #C76A03",
"M. c #C0670B",
"N. c #C06B0A",
"B. c #D56401",
"V. c #DD6300",
"C. c #D56D01",
"Z. c #DD6A01",
"A. c #D96B0B",
"S. c #C67300",
"D. c #CB7601",
"F. c #CD7A02",
"G. c #D57401",
"H. c #DA7501",
"J. c #D37C02",
"K. c #DA7B02",
"L. c #DE7F0B",
"P. c #E26201",
"I. c #E16900",
"U. c #E16C0A",
"Y. c #F0630B",
"T. c #E67808",
"R. c #BB8013",
"E. c #D58104",
"W. c #DB8405",
"Q. c #DE8906",
"!. c #D78408",
"~. c #DA8609",
"^. c #DD8909",
"/. c #C0831D",
"(. c #DC8714",
"). c #E48503",
"_. c #EB8602",
"`. c #E38A05",
"'. c #EC8B03",
"]. c #E28B0A",
"[. c #E38A0E",
"{. c #E58B0E",
"}. c #E98C0C",
"|. c #F18E04",
" X c #EE9306",
".X c #E4930E",
"XX c #ED930A",
"oX c #EE940A",
"OX c #EE960D",
"+X c #EE980B",
"@X c #EF9A0D",
"#X c #F19406",
"$X c #F89005",
"%X c #F39906",
"&X c #F1960B",
"*X c #F29A0B",
"=X c #E48D12",
"-X c #E88F11",
";X c #E48F19",
":X c #E59512",
">X c #EA9412",
",X c #E79916",
"<X c #EE9A11",
"1X c #F89911",
"2X c #ECA506",
"3X c #FAA10A",
"4X c #EFA511",
"5X c #F2A614",
"6X c #F9A313",
"7X c #F1AA15",
"8X c #F89E27",
"9X c #ECA024",
"0X c #F3A523",
"qX c #F1AE43",
/* pixels */
"S F Y c C F G F G F G c   {.;X;X;X{.-X  Y F e   k.k.l.k.l.l.k.k.z.  G F F *   8.8.8.1.9.9.9.2.9.  w D Y   OX*X*X*X*X*XXX  D G G ",
"F v y C G Y F F G F I v   [.[.;X;X[.{.  p I D q     l.k.l.k.l.z.    v F I *   z 8.8.w.9.3 8.9.9.  c I   OXOXXX*X*X*XOX&X  C C G ",
"G F G F G J G F G G F v a   [.=X{.=X:X=X  I Y v F N   h.s.  l.  ..D G G G c   1.8.6.8.9.9.9.9.9.  F I   *X+X*X XOXXX1X'.  D J G ",
"F G Y G Y     E F F G G v h     =X=X=X{.  I G G F G   h.k.k.  k.  B G I G v   7.;.1.9.9.9.9.z   C J   oX@X<X X'.OX&X>.OX  F C a ",
"G G F     Z.B.        F  .F v =           v G Y G F   j.  k.z.z.z.  G G G v %   ,.8.1.3 0.9.  b C G   @X+X@XXX&XOX&XQ.  C G w w ",
"F G w   C.I.  T.B.B.B.  r G J F F M v v v = qXF G F     >   z.f.k.  C G F D v               v C I G   *X*XOX@XOXOXXX  N G G G J ",
"J F C   C.C.  C.C.C.  v M G F G G G G F v v v F G G H 8 F v     z.  c F V D C   r @ O - c c F I G J   &XOXOX@XOX    v v G F G G ",
"Y F =   H.G.C.  C.C.  v M G F C Y F G G Y Y G G G G G I G F v <     v F F F H N C v C H I F G G G H             q v C F F F G G ",
"      G.G.    H.H.H.  v G J G F G G Y Y     F Y J G G J Y F Y v v C H G v c =.H G Y F Y G F P I I c g 2 6 d v c v C F y C G F g ",
"G.G.G.G.  G.H.H.H.H.  v G Y G G J  .Y   h.  J G ! F G G J G H C J F F F C c L I Y I Y f     t c G C c C F Y G F F F G B Y G N   ",
"J.G.G.G.  K.K.m.H.H.  v G G J       G   l.h.              Y F H I I F J A H I F F v     M.M.      F C F F G I H F C C v J F   J.",
"G.      K.G.H.K.K.  r F G G F   l.l.  l.k.j.h.h.l.l.l.l.  Y Y J Y Y F F C A J Y H   *.@.m %.M.M.<.  F F J F H P G F Y F F d   G.",
"  G.K.T.  H.K.H.H.  v F F G   k.l.l.l.l.j.l.l.k.O.k.l.  F G Y  .b e.    N F G G Y l   <.<.<.<.<.>.  m $ F D D F H D I G I   J.J.",
"K.K.K.  .   C.H.  n F G F F   l.l.l.l.l.h.l.c.l.j.h.k.  F Y F       5X  l I J I J C c             . d C C A F P H F G F G   K.J.",
"      w v       C F G F D v   h.l.l.l.  j.k.l.l.j.      F I   7X5X5X4X  f Y G I I Y F v c c r y c c v G A F F F     Y G G   K.K.",
"X u C F N v v M F G F r     h.n.l.l.  j.r.l.l.l.  v F F I v   7X5X7X7X  C Y J a N I I Y G G J Y F Y I V F C U   :.  H F C       ",
"v G G G G Y G G Y G G   l.h.l.h.b.  k.k.l.l.k.x.j.  D F  .4   5X2X5X  8 v Y p           N  . .Y Y Y I G G H   :.    u I C v v v ",
"G G G G G G F G Y J G   k.l.c.k.k.  l.l.            I G I o   ( 5X    C Y  .  z.  z.P.P.  r F Y Y Y G G G   :.$.    w Y Y Y Y Y ",
"F F c c G G v G F F G   b.k.k.l.k.Y.l.  * t 4 = r D G I J u       . C  .Y N   P.f.  P.f.z.  5 J Y B r  .C   :.  :.  C G G Y G G ",
"G J F G I G G I Y D     k.z.k.l.  l.l.k.  4 N G G Y Y H D   y f a C J Y Y C   V.f.f.  s.f.f.  Y I I Y Y @   &.  &.  v F F b Y Y ",
"  c I G G v N N     h z     k.  ,           F Y G Y c I V q c C U I F J G D   P.f.f.f.  z.f.  ; I J Y G |     :.>.  C Y v * =   ",
">X    F F G D v D N v v v =     n v w % 7 r F Y I G G Y v C  . .I Y I a I F V   P.+.r.f.z.f.v.  F J I F #   $.    v G J Y v   >X",
".X.X>X  G F Y F v I F G F b v v v v v D F G H Y G I F I Y Y Y I I G I F Y Y b   P.z.f.f.z.f.v.  I F G I v E   @ v I F I I v   >X",
"  .X:X:X  Y G I G G G G G F F F F G D F Y Y J Y Y F I F Y w = a I H G I Y Y G v   z.z.z.z.f.g.  I I F I - c C D G F F V F F   >X",
">X  .X>X  H I I c G N             F G I I J D F I F D G             w D C - Y D v       s.s.t.  G I I I 2 H I Y F C I Y Y C   >X",
":X:X  >X  9 Y J Y o       &.&.&.&.  t F F J I Y J J D   !.$.>.F.D.S.      u v I Y v g 0         F G D v v J I A C v F Y J D A   ",
"    .X0X.X  G G Y v   <.<.      &.&.  2 F U Y G F F Y Z   E.J.J.F.N.>.  v v I V Y Y Y c v v h 5 F I G I I F H H H D D   F D v = ",
"x l         F I I v -   <.<.<.%.  &.&.  C Y Y Y I F     W.J.J.F.S.S.D.  v F I G Y F I Y U I Y c 8 v F G C H 3     4     C I G v ",
"C c v b v N I I G Y C l     <.<.<.*.$.  4 Y I Y H   ~.W.E.J.E.J.2.F.  k A A I D I Y I I H F F J c v G F       d.s.    F I Y G  .",
"D I Y G Y Y Y G Y G G v c f             * 1 Y  .  ~.W.!.(.J.J.F.F.D.  c U H Y I Y I Y I H I P F F G Y   d.V.f.d.V.T   c Y Y Y I ",
"Y Y Y Y  .f 4 l  .Y I H I b c c v N c v v b G P   ~.,.~.) E.J.E.F.  $ c I I I F I F c       r H Y F   P.z.f.f.f.+.d.d.  Y Y a I ",
"Y Y r           r F G Y Y Y  .Y {  . . . .G F   ^.^.!.!.E.E.J.F.    c H C H F     Y   _._.  w D F F F   z.d.V.f.d.d.a.  I Y I J ",
"A     I.I.V.T.  8 Y P   I  . .G I Y Y I F I D 7       !.E.      ; c b J F I   '._.  _._._.  v F F G b *   f.d.d.f.f.f.  F I F Y ",
"  I.I.Z.V.T.Z.  r Y Y b    .           . .P v v v 2 &     . u c c F H H D D   L.'.'._.).  - D F G J Y 2   d.R d.f.V.V.  F I Y i ",
"V.B.I.V.V.I.Z.  u G Y I b    X XXX X&X    I Y I G Y I c c c c F C F J C H F   '.'.'._._.  l F H F F     f.d.d.d.d.f.d.  N J F   ",
"V.V.P.  V.V.I.  v F F F D     '.*XW.6X%X%X  Y I J I H F F H U F C F F     O   }.'.$X'._._.  f I Y   d.d.d.d.a.d.a.d.d.  G F   V.",
"V.V.  I.Z.V.Z.  C I D F C   '.  XX X X&X*X*X  J H F F u F F U U I F   '.'.  '.'.  >XE 1X_.  A U J   d.d.Q d.d.a.a.d.  5 G C   V.",
"V.  U.o.A.Z.  y I D v F v   XX X  &X X'.&X&X*X  I I b F F y I D P I   '.'.'.'.  _._._.    v P F G   d.d.d.d.d.a.      N { F   V.",
"  V.B.V.V.  - b I I v I C    X X X  '.XX&X&X&X  D H C | F N F U U F   '.'.'.  |.|.'.  u v F H Y f   B.d.d.d.d.  c C c Y I F   f.",
"V.B.V.    4 C Y Y I Y I C    XoX&X&X&X  #X X#X  x F Y c 4 D I I H C   _.'.'.  |.'.'.  C I I F H y   B.d.d.d.  u v I I G I D     ",
"      r z F Y G Y G F F v C   oX#X&X&X&X3X#X X X  F Y G Y F A I P H   _._.  ' j k Q $.  F I J F F   d.d.    x C Y Y G F I G   z.",
"v c b D I I I I F c   F G D C   &X*X+X*XoXoX X X  G Y I G Y J F * 2   '.  '.'.'.'.    + F F F F v       u v F I a A Y J v   v   ",
"I G F G F I         b P I Y b C     *X&X6X&X&XoX  M I Y Y F F H     _.  _.'.      X d C Y F F I b v c V F I Y Y P H I C   V F F ",
"F I J  .    '.).'.  C Y Y Y Y b C A               Y Y Y Y I Y C   _._.'.'.  I b D F F I I F J F P J I Y c F F Y I I G I b C Y G ",
"F F F   `.`.).).    z I Y G Y  .Y b v v c v v v C I Y G c w Y D #   ).)._.(.  s H d v C v I b v S v I P U I I Y     C D F I I I ",
"G q   }.`.@.).  ).`.  F I a n A Y Y Y F Y I Y Y Y Y Y Y I I F D C           : b c c c C H             a F F Y c   [     I F G F ",
"Y   `.`.`.`.`.  `.].  C I C v C G F I F F F F I I I Y D G G F v   c v v v v b I C v c %   >X>X:X,X,X,X    F F v     #.[   G Y G ",
"G     `.`.Q.  `.Q.`.  v I F I G F I y           y H I I Y G H   c C F I F I c Y F a -   <X    >X>X,X,X.X>X  Y C   [   [ [   F Y ",
"I A C   Q.`.  Q.Q.].  C Y Y Y I y     ;.;.5.-.5.    u Y I I b v I D D P F F F Y F F b C   :X.X:X:X:X:X.X9X  F C   [ #.  #.  H G ",
"F F   ].].  ].].S.Q.  C Y G I $   6.5.;.-.5.6.) ;.  p G Y G F D G I F u } v Y I Y F U v p                 C H F   [ [   [   C G ",
"I e   ].Q.].Q.`.].^.  v F G F   7.  ;.  -.-.-.6.;.  C F F Y G G C                 I G H c c h * ; - d c C F Y F c   #.[     C G ",
"G   W.Q.Q.`.`.].Q.  s F F D a     5.;.5.-.5.;.5.  C H G G I F     i.i.i.i.u.i.i.i.  H F I H G c D U F G H H G I F b         F G ",
"H   E.E.Q.W.W.  Q.  v G C       -.;.5.-.5.;.    x F F F I I   i.u.d.~ u.u.y.i.u.i.u.  I I F F I I I c d       F F F v c c V y J ",
"a   W.W.W.W.  c   Z D F v c c a             4 v F I H C c V   ' d.~ u.i.u.i.u.u.i.u.  v I U V I U I o     '.'.      I P J c $ G ",
"H   E.W.W.  b C c v H F G F F G v C v v v c F G F I I q / *   u.u.y.u.p.u.i.u.i.i.  C F A C A I I I y   '.  '._.'._.  I I G F G ",
"C         c C F c F D D H F F I H F F G F J G G I I F n C c y   y.u.y.y.y.y.y.    b F H F J F H I I v   ).'.    ).).  F F F F P ",
"C y l v b F I C F H           F F I I F F D I D I J I D F F c c               c D F F H F F P H Y J C   '.'.'.`.  ).).  H H F G ",
"G F G G G G F F F   ' ] ] ] ]   F F F F v ^ G G F F I G G F J G c d c c C c H G G F P Y l         F I v     '.'.).).).  H H F c ",
"G F G F G H F F   X.X._ W _ ` u   F F G D 4 = I v v C F J G C J F J G G F C F I Y P       R.q.4.  A G J v =             l J F F ",
"G D C v F F G r c               F F F G D v <         G F C J I D G G G Y F I F =   0.q.q.R.q.q.  w H F F v v c c c c c = F D F ",
"G F c c F G F C F G v c v v C F C c C v F D   h.k.s.  c v b F G F G Y F a D F K   q.q./.q.q.q.q.  w F F p F J G H F H F F N # F ",
"G a C  .- v H G F F F F G G G G G F G F D C   h.o.h.h.            F D C C C P   q.0.q.w.0.q.R.q.  f C U V C F G C c y s - & F G ",
"d I Y Y Y C I G a F F C             G G F D   h.l.l.h.h.h.T l.h.  G J G F H   0.0.9.0.( 4.3.q.q.  n C I F P D             C F I ",
"Y Y Y Y Y F F F G F C 4   8X}.}.}.}.  G F v   k.j.k.k.k.k.h.k.k.  D F I F b   9.9.K 9.t 0.0.0.0.  O C J G     &X&X&X<X&X  F F Y "
};
