/* XPM */
static char *Leaves_64[] = {
/* columns rows colors chars-per-pixel */
"64 64 222 2 ",
"   c black",
".  c #081701",
"X  c #0E1E05",
"o  c #141F0B",
"O  c #0C2402",
"+  c #0C2D01",
"@  c #0F220A",
"#  c #122407",
"$  c #132B05",
"%  c #14240C",
"&  c #152A0B",
"*  c #1A2B0E",
"=  c #133306",
"-  c #183905",
";  c #15330B",
":  c #1A330D",
">  c #163A0C",
",  c #1B3B0C",
"<  c #162310",
"1  c #192611",
"2  c #162A11",
"3  c #1B2C13",
"4  c #173614",
"5  c #1C3313",
"6  c #1C3B15",
"7  c #1D3C1A",
"8  c #203B0A",
"9  c #202C16",
"0  c #212D19",
"q  c #213515",
"w  c #233B15",
"e  c #23351A",
"r  c #233B1A",
"t  c #293F1C",
"y  c #262F22",
"u  c #2B3C22",
"i  c #1B4202",
"p  c #1B450C",
"a  c #1D550F",
"s  c #1E590F",
"d  c #1D4315",
"f  c #1E4C16",
"g  c #1E431A",
"h  c #1F4A1B",
"j  c #1E5515",
"k  c #234507",
"l  c #234B07",
"z  c #24450B",
"x  c #244B0D",
"c  c #2C4E0D",
"v  c #20540D",
"b  c #2C540C",
"n  c #234314",
"m  c #2A4617",
"M  c #224C15",
"N  c #2B4A14",
"B  c #22441C",
"V  c #2A441B",
"C  c #244C1D",
"Z  c #2C4C1B",
"A  c #324D1C",
"S  c #225516",
"D  c #2E5313",
"F  c #245B16",
"G  c #295D15",
"H  c #25541B",
"J  c #2A541D",
"K  c #265B1B",
"L  c #2A5C1D",
"P  c #315317",
"I  c #365C17",
"U  c #31541A",
"Y  c #365B1B",
"T  c #2D6F0E",
"R  c #32620F",
"E  c #276317",
"W  c #2B6316",
"Q  c #2C631C",
"!  c #2E6A1C",
"~  c #366715",
"^  c #31651E",
"/  c #3C631B",
"(  c #326B1E",
")  c #3A6A1C",
"_  c #3B7413",
"`  c #3F7915",
"'  c #36721E",
"]  c #3B731C",
"[  c #3D791C",
"{  c #244521",
"}  c #2A4523",
"|  c #254B22",
" . c #2A4C23",
".. c #334C23",
"X. c #265121",
"o. c #2A5523",
"O. c #2B5427",
"+. c #2C5C22",
"@. c #365825",
"#. c #325C24",
"$. c #34562D",
"%. c #325B29",
"&. c #2E6322",
"*. c #2F6822",
"=. c #2E6628",
"-. c #326524",
";. c #3D6525",
":. c #346C23",
">. c #3A6E24",
",. c #34642A",
"<. c #3B652A",
"1. c #366B2A",
"2. c #3A6D2B",
"3. c #367223",
"4. c #3A7325",
"5. c #3D7925",
"6. c #367128",
"7. c #3C742A",
"8. c #3E7A2A",
"9. c #3B6832",
"0. c #3E7532",
"q. c #447D17",
"w. c #45771B",
"e. c #427C1D",
"r. c #406924",
"t. c #427425",
"y. c #427C24",
"u. c #4A7D24",
"i. c #41762C",
"p. c #427C2C",
"a. c #4D7D2B",
"s. c #416D35",
"d. c #447534",
"f. c #447C32",
"g. c #477835",
"h. c #4C7C39",
"j. c #527D33",
"k. c #527C47",
"l. c #458116",
"z. c #498214",
"x. c #45821D",
"c. c #4B851E",
"v. c #4B891C",
"b. c #50851D",
"n. c #538C1E",
"m. c #54911E",
"M. c #468223",
"N. c #4B8523",
"B. c #448822",
"V. c #4E8924",
"C. c #45812D",
"Z. c #4A842C",
"A. c #4E8A2A",
"S. c #508624",
"D. c #538C24",
"F. c #5A8F24",
"G. c #508129",
"H. c #538D2B",
"J. c #598D2E",
"K. c #4F9726",
"L. c #559125",
"P. c #5B9325",
"I. c #5C9927",
"U. c #55922C",
"Y. c #5B942C",
"T. c #5D992C",
"R. c #468132",
"E. c #4A8333",
"W. c #4D8934",
"Q. c #4E823C",
"!. c #568533",
"~. c #538D32",
"^. c #5B8936",
"/. c #53833C",
"(. c #528C3C",
"). c #559232",
"_. c #5B9433",
"`. c #5E9932",
"'. c #5C9639",
"]. c #5F9D3A",
"[. c #649A26",
"{. c #649A27",
"}. c #61972B",
"|. c #639B2D",
" X c #6A9E2D",
".X c #638C39",
"XX c #619732",
"oX c #639C33",
"OX c #699E33",
"+X c #67943D",
"@X c #639D3A",
"#X c #66A02D",
"$X c #6AA12E",
"%X c #67AA2F",
"&X c #74A82F",
"*X c #66A234",
"=X c #6BA334",
"-X c #6BA837",
";X c #66A13B",
":X c #6BA43A",
">X c #6EA83A",
",X c #71A633",
"<X c #75AB36",
"1X c #78AA34",
"2X c #71A63B",
"3X c #73AB3B",
"4X c #79AD3B",
"5X c #76B03E",
"6X c #689746",
"7X c #659B43",
"8X c #6BA642",
"9X c #6EAB42",
"0X c #74AD42",
"qX c #74A847",
"wX c #79AD42",
"eX c #7AB342",
"rX c #79B24A",
"tX c #7FAD58",
"yX c #81B23C",
"uX c #82B541",
"iX c #86BC55",
"pX c #8EC05C",
/* pixels */
"_.5 N.H.oX`.U.  7 4 7 6 5 L -.H L   oXoXV T.Y.Y.oX  2.  =XY.U.x.|.*XY.  2   Q -.6 e 3.6.4.8.i.  O.C   A.M.t V.|.oXP.4X3X  2 y.] ",
"r Y.l b Y.0Xx.  d.3.! p.<.& % %.+.  x.oX>XD.oX`.U.    T.,X|.qX      _   e   ( p.2.C.( q J >.4.  C M   A.A.A.;.O I.|. XyX  % 5.) ",
"~.A.H.A.H.:X  :.*.>.' 7.7.i.4.8.  2   _.P.L.  _.A.  @XoX XT.oXoX/.  `.  <   4.:.B 3.>.d.8.C.C.  J %.  y.@Xn.D.>XA _. XP.,X  i.>.",
"A.A.oXU.;X  4.4.Z.; i.C.3 # >.  3 |   N.oX  n ~.!   Y.|.P.V.I.- U.  u.  3 o   ( W 5.p.p.3.p.7.C.  $.X.  U.U.oXV =X.X[.4XyX$X  t ",
"e.y.~.    p.4.h. .3.% ( r Z.7.  O.O.  ).  l   ].  oXP.eX2X|...@X:X  :X  B O       3.4.7.>.E.8.5.3.    2   8XA.#X|. XOX X X,X  ( ",
"y.    &.7.( f.8.5 i.p.y.3.p.4.  %.C |   A.M.y.    F.D.$X..J.N A.|.H.H.  g   oX2XoX  E 7.>.3.5.7.8.  g  .5   >XoX|.|. X X4X}.  p.",
"  2 p.7.>.h.r h.4.p.p.f.^ p.  |       <     5     }.qX=X!.oXD T.T.U.[   {   A.L.=XoX              h.O.Q -.L   _.A.<X|.D.2XU.{.  ",
"%.  W 3.H 4.Q Q 3.3 5 (     % g o.X.X.H X. .  h.~.`.U.oX`.U.q.N.N.    B }   2XD `.D U.  r 7 7 r   Q Q 6.Q &.L     XXU.J.`.c OX  ",
"{   8.: E 7.q 3.6.      5 2   C X.J O.O.O.C g   8XV.J._.;XL.oXA.  1.+.  .   =X,XS.4X X4X  B g   d.Q Q J 1.5 ,.+.J       8X=XT.  ",
"0   F 4.E.3.4.6.>.  :XD.    + d O.%.9.3 X 3 X.  _.i D.Y.Y.A.rX  s.L Q   B   @X,XA P.,X X  q 5   >.Q :.q :.8.1.>.&.Q 2 B         ",
"3 ;                 V.Y P.F.    * X.* H O.H X.  T.H.Y.|._.    2.6.6.f.  C   0XP H.i {.uX,X    8.H 6.3 w +.-.7.4.:.3 |       C C ",
"| | g d C > J 5 L   }.}.b  X=X=X  t H H C C h             -.o.2.8.J 3.  |   oX4XS.q |.|.2X  w   5 2.( >.7.G :.:.#.2   Q.T B.    ",
"  M %  . .J 1.L S    XD.`.|.OXP.=X  * o.H X.C   g L 7.  L :.5 d e 4.p.  }   oXP.=XD.rXpXY.  u   -.7.*.:.8.    Q Q   ).Z.A.M.M.).",
"*X    q * +., Q &.$   2X!.D.J.OXF.P.  +.h C 2         6 :.( *.r E.W 6.  g |   P.U.T.  iX=X  O   &.E Q 4.  :X  6.  6Xq     D.`.A.",
"Y.:XD.  : S @.6.:.e   #X_.D., V.P.P.  q X.    :.-.7.3.    Q :.q G i.>.  4 {   L.`.:XA   H.  ;   8.4.    V.r.*X  Z.] n A.N.  D.`.",
"*XU.T._.    :.4.+.{   D.V.V.H.V U.c.U.    E 4.:.( 3.3.3.  # Q r -.6 R.  2   Q     `.@X@X    &       oX2X3X|.uX  y.5.U.c.D.`.    ",
"oX, Y.D.].  +.5 | { &   0XU.Y.x.w H.N.  7.! 7.( i.2.G (   :.4.; > &.  3   :.L K J           e { B    X1X$X=X4X    M.y.) v.U.V.V.",
"D.H.oXa.:XH.  7 | { B 3   `.^.w A.Z D.  :.7., L Q p.W.'   -.:.S S Q             1 C   * : * 3 g t   }. X+X1X>X  B   H.U.Y.oX@X|.",
"x.D._.H.0XA.  4 2           H.H.V.D.V.  Q L 5 L p.7.7.5.  o.>.-.    0X2X_.oX    K H o.  3 6 % {   uXOX&Xm N |.  r C   N.U.>XV.oX",
"                  *.G *.j $             L 1.4.4.>.4.W.  6 | *.  P.`.P.|.:X  P.  H S   r 5 , B w   <X=X  +XoX}.  2 | o     x.oX`.",
"q r t * %   >.-.3.8.-.6 +.,.K C   [ '.<.:.( p.7.3.4.  | | {   `.3XoX_.    ;X`.  H 2 X.    B 6   oXOX2X  {.&X:X  | 9.J +.C       ",
"B 4 1     >.>.7.6 4.! E >.S H L %.  O % 2.>.>.f.7.  3 e B   {.1X^.=Xx.a.D.T.).  S 3 L L :.  |   H.XX:X  =X/ oX  L -.G L *.B ,.+.",
"  %   L : > f.f.H  .: 5 n K j +.H   3 :.>.        5 g C   |.$X#X:XP.j.P.n.|.).  H 5 *.5 :.  e   T.D u.  2X=X_.  L         L H   ",
"7.  3   >.>.p.3.( Q 1.Q -.; 1.r X   L     *     J 3 O.  %X|.D.oX3Xj.I.|.T.`.Y.  f L -.8.<.:.    _.Z   U.=XD.  F F :.  :.  >.  p.",
"7.C.  q             Q :.L Q -.H       > q   |.  C C f   wX Xw.x r.@XY.` U.A.Z.  L :.G f.-.H -.  H.  D.:X|.  &.:.7.  :.f.V     3.",
"3.4.  5 g e   y.~.p.            > %.C *   @XP.  %.O.9   oX` H.7XoXN._.l.D.M.              ! +.  ]   _.V.  Z :.>.+.*.:.8.-.  7.4.",
"5.7.7.  ; }   _.H.U.H.A.  * 1 r 6 d U   oX/ $X  d H e   2X|./ T.|.I.N.Y.[   E L 4.7.>.:.p.      R L.    | H Q 0.6 3.4.:.Q   3.7.",
"- /.t.  * g   A.N.u.A.N.A.  e g 7 q   #X|.<XI.  O.| C   oXl P.L.Y.U.P.    G 8.( ' >.7.i.f.3.7.      g B 4 &.:.Q 6.>.:.3.  3.( 7.",
"w ; y.y.  C t   A.V.'.;.p.H.  { r   }.c / |. X    X.3   H.U.oXP.      |   O 4.Q 7.(     5.4.:.y K     g O.S -.; K K E   B   >.V ",
"# >.p.(   1 5   t.e.e.d.e.Z.  q -    X8 V c =X  5               Q   H ; 4   f.p.C.C.4.p.    :.F K &.1.  5 ; w 5 e 3   g B   p.8.",
"Z.g.i.,   & C   _._.] /.U Z.i.     XD.=XI  XP.  3   *.3 K 3 -.:.L   4.:.>.g.  :.! ! ! :.p.p.  7.>.a   d.              1 M   ( ! ",
"( r >.>.  $ d 6   e.[ N.e.'   5   D |.wXOXD.N.  n   S &.2 q -.K :.  G w :.E 6.    8.:.3.3.8.3.    E   H.N.5 8 V Z N M.  w   ! w ",
", 1.+ :.  # %.g <   Z.G A.Z.  q   I.:XN I.U.`.    5 G +.+.q *.3.    Q >.4.p.Q p.:.  ! 3.4.Q f.i.-.F :.  `.`.;XB c.3Xc.c.  e   >.",
"^ -.                    W.E.  $   H.Y.c.J.`.N.  >.Q 0.:.7.5 3.  3   :.6.:.i.:.Q 5.(.  s 3.i.3.6.-.&.6.  oXA., x.v.G.  D.=X  q   ",
"&.  $ ! ( 7.-.f.H X.  0       q   Y.N w D.D.  O &.:.5 Q *.1.Q   6   -.d 8.-.; ' y.p.4.  5 ( 6.>.:.*.:.  ].).a.*XL.2Xn   P oX    ",
"  8.5.7.>.>.4.Q ^ +.O.  % & # %   e.z N.T.  w L &.0.K -.E K   7 C   Q 8.7.2.5 8.4.( 5.>.  B r             U.V.oXq. XoXV   oXL.  ",
"4.( C.Z.7.G 3.5 5 K M H   | 6 {   N.H.8X  m & L *.L :.                  :.( ( 7.7.q p.4.  B   *.-.1.-.L 3   `.A.V.P.eX=X  U.D.  ",
"E.s p.p.8.5 L Q 5 -.-.  % 4 { B   w     # X.o.H Q     :XY.P.H.c.T.U.P.  Q 8.Q.7.v p Q &.    Q S F S K 3 J :   U.U.P.) }.,X  T.  ",
"  ! 3.q & -.>.2.-.&.&.  X.X.g g %   * h +.J H K   H.Y. X$X=XS.:XT.R L.      5.(.i.3.5 :.  +.&.>.-.:.5 : Q H Q       V.D.|.$X    ",
"5   3.3.:.:.                    3 2   d S L H   U.|.`.P.Y._.0XN P.D.T.  H 9             ( :.L K H n :.$ 2.:.  B 6 &             ",
"*   8.8.Q   oX}.=X|.P.U.e.`.e.D.  r   %.-.-.  L.V.H.I D.|.a.u.oX-XL.  M X.:   q & 3 , B   -.S &.Q.:.6.f.:.:.   .7 5 C r g   5 q ",
"  ( 8.>.  Y.2X}.oXA.H.    rXu.c G.    2.&.  oXY.:X6XY.w x Z ..A U.J.  X.r H +.  6 ; % * d   K : :.4.Q :.7.  { r 2 | C B   -.-.K ",
"' 3.!   V.U.  Y.Y.P.  _.w.t.'.N.`.  3     A.V.D.qXw U.D.`.e.).*XI.  J H 2.,.              C.  q *.! F                   Q +.Q >.",
"  Q.  D.P.oX{.  eX  oX}.=X'.}.A.U.  3     A.V N.:Xc k `.oXT.oXN.  M J 1.1.  4XI.oX/ ) *XU.` b         U.] M.M.D.U.D.).  t.,.6.( ",
"g   oXP._ Y I.P.  H.=XY.Y U.D.      7 V   V.e.P.L.I.*XU.).A.9X  Q &.&.f   H.Y.=XY.H.D.oXq T.M.V.  = 5.~.A.H.Z T.N.V.H.V.    3 H ",
"B   oX>X[ P.T.e.XXU.>XU.J.c.  9.*.2.  % 1   tX9X X|.:X2X      +.O.*.L   D.4XoX3X`.7Xz oXn A.x.%   (.y.'.5 H.Z r U.U.D.j.;XD.  C ",
"O.  Y.U.A.0XY.U.L.*XP.`.@X  B H Q >.(   g 7             o.&.K   @ g r   U.P.T.D.w V.P.H.Y.D.M.  B   N.M.Z.V A.`.H.v.Z e._.`.  & ",
"            Y.M.oX:X      H -.-.J +.>.8.  p   E G f 3 -.f.G 7.-.  B   I.L.I.Z oXY.Y.U.N U.H.   .C  .  N.H.U.H.5XN.7XA.q.n x.U.  ",
"K.=.-.&.M +.        O.o.-.-.:.r Q 3.R.( 7.  :.:.1.+.d.8.7.:.! ( p.  e.*XS.D.c.@.|.P.`.T.U.  +.      C   '.N.e.U.|.D.k H.=XoXJ   ",
"_.& +.&.Q B L -.&.  o.&.C -.*.7.:.:.2.5.:.  3.S <.*.E ( i.6 4.! 4.  Y.@.$X}.wXI.:Xz._._.  +.Q Q Q -.  %   _.Z.N.V.A.V.D.V.c.V.  ",
"u e K -.2.6.G -.-.    L +.        :.q 8.( 4.  C E &.! :.5 (.Q ^ Q   `.T.oX XoXL.:X@XqX  H :.H K 7.f.8.7.2       N.4XP.y.q.:XD.  ",
"H &.= $ 2.V :.&.  O.d     ( i.'   &.( i.( p.  #.7.6.8.3.4.6 5 7.>.                    o.:.= J *.( 7.4.( F   L 1.              &.",
"5 &.& &.:.:.>.3.      8.7.4.( 6.  3 >.' ,   4.E.3.7.! 3.' p.q 3.&.>.p g   H L f +.  1.6.7.-.>.6.2.7.! 5.C.  Q -.-.  K *.H B   :.",
"2 2.2.2.p.^ >.    &.-.>.5.p.( >.  $.E y.  4.! C.8.4.  6.>.E.R.4.! Q E   -.8.Q o.  H   *.3.H 8.3.S , ' M >.8.  K   *.1.3.:.g   -.",
"5 d.v Q >.L 5   Q E 4.f.W.p.4.7.  7.( 3.  E p.3.4.4.  7.E J 4.2.      >.! ,.Q   >.L -.  6.W :.7.R.(.4.= 8.8.7.  0.7.6.p.( B   -.",
"H 5 L L 7.        *.i.  (.7.W W.  F 9   F 8.3.7.C.  C   :.3.4.  J 1.:.! Q !   :.F >.+.h   ( p.4.4., 4.4.n W.>.  :.-.7.4.  d   *.",
"5 G +.    v.oXM.  :.!     C.4.  7 3.  L.  Q :.    g C #   :.Q 4.      4.7.  >.>.>.! #.| g   7.( C.p.y.( p.^ 3.  >.:.7.6.      -.",
"&.L   T.}.}.T.U.  (   3.p.8.!   C   P.oX|.    | 6 3 ,.f +.  6.! +.! 8.  R.  8.3.4.-.& C d #         E.8.W.4.p.  Q t 4.Q ,.=.*.j ",
"    oX=XOXOXP.H.    7.p.p.^   g C   D.I P.D.  C 6 +.K H +.Z       :.Q (   3.:.( C.= | 5 K &.+.F S o.            :.7.4.6 L &.L % ",
"D.XX,XF.|.Y.oXoX  @.2.3.4.Q   H |   Y.A b.n.V.  H 1.; q 2 2 +.+.H   >.s.7.-.8.6.^ { % +.&.C q -.-.L f J j J 2.&.Q :.5 o.-.q S # ",
"I.|. XD.m.|.|.U.  >.E.>.E.i.  C   @XU., oX~ oXl.  L H 9.-.6 -.H   /.  k.                K Q &.8.F 3 5 C 2 o.+.Q Q % o.&.: L K   ",
"V.D.    P.U oX|.  2.Q 4.8.  J 3   U.@.+XJ.oX:XY.  &.,.&.L &.1.  V.).u.    2 -.Q 7.6.8.6.    3.6.:.:.X r             G :.Q K r   ",
"oXY.  I.oXOX:Xn.  Q 6.8.  +.+.O.  M.Y.`._.U.D.Y.:X  o.&.&.    N.A.oXu M.  2.-.8.:.*.7.6.:.Q   -.$.%     H.L.U.oX}.U.  *.L &.  P.",
"T.  P.|.}.*XI.  -.1.    H +.+.X.  J.V.`.5 Y.w.Y.D.  K S   N.Y.U.J.w _ ].  5 5 # %.! >.>.>.! 7.  &.s.  A.e L._.|.Y.T.=X  L   M.oX"
};
