/* XPM */
static char *Sand_with_Rocks_64[] = {
/* columns rows colors chars-per-pixel */
"64 64 145 2 ",
"   c black",
".  c #1E180A",
"X  c #211A0F",
"o  c #241D12",
"O  c #2C2315",
"+  c #242118",
"@  c #34291B",
"#  c #3D3425",
"$  c #432506",
"%  c #4B2303",
"&  c #53300E",
"*  c #5D3008",
"=  c #503012",
"-  c #663306",
";  c #6C3504",
":  c #6D3807",
">  c #67360B",
",  c #6C370A",
"<  c #6D390B",
"1  c #723706",
"2  c #743906",
"3  c #7B3C06",
"4  c #70370B",
"5  c #743C0B",
"6  c #7A3E0C",
"7  c #603B17",
"8  c #6D3D13",
"9  c #733E11",
"0  c #793E10",
"q  c #42372A",
"w  c #453A2C",
"e  c #493D2E",
"r  c #473D30",
"t  c #4A3E31",
"y  c #7C4007",
"u  c #7D410D",
"i  c #7E4310",
"p  c #7D491B",
"a  c #4A402F",
"s  c #50402F",
"d  c #4D4132",
"f  c #524536",
"g  c #554836",
"h  c #544639",
"j  c #56493A",
"k  c #5A4B3C",
"l  c #5D503F",
"z  c #60503E",
"x  c #5C4E40",
"c  c #5E5141",
"v  c #645545",
"b  c #685646",
"n  c #665846",
"m  c #685947",
"M  c #665748",
"N  c #695749",
"B  c #675949",
"V  c #6B5B4B",
"C  c #705F4E",
"Z  c #6E5E51",
"A  c #705F50",
"S  c #6F604F",
"D  c #72604E",
"F  c #6F6151",
"G  c #746454",
"H  c #786657",
"J  c #776856",
"K  c #786857",
"L  c #766658",
"P  c #786759",
"I  c #776958",
"U  c #7B6A5B",
"Y  c #7F6D60",
"T  c #7F7060",
"R  c #823C04",
"E  c #893F05",
"W  c #803E0B",
"Q  c #804006",
"!  c #83440E",
"~  c #89460E",
"^  c #86480F",
"/  c #89480F",
"(  c #924D0F",
")  c #854510",
"_  c #894711",
"`  c #864912",
"'  c #8C4B12",
"]  c #844A19",
"[  c #8C4E19",
"{  c #924E14",
"}  c #914F18",
"|  c #955115",
" . c #995416",
".. c #9E5817",
"X. c #965318",
"o. c #9B5519",
"O. c #9E591A",
"+. c #A65917",
"@. c #A35C1C",
"#. c #A25C1D",
"$. c #A55E1E",
"%. c #A95F1E",
"&. c #A6601E",
"*. c #A9611F",
"=. c #845020",
"-. c #8F5620",
";. c #955521",
":. c #935B25",
">. c #9B5A20",
",. c #985E35",
"<. c #A45E21",
"1. c #A55E21",
"2. c #A95F20",
"3. c #A66121",
"4. c #A96322",
"5. c #AB6223",
"6. c #AD6323",
"7. c #AC6423",
"8. c #AB6324",
"9. c #A86425",
"0. c #AA6424",
"q. c #AF6425",
"w. c #AF6627",
"e. c #AF6927",
"r. c #AF6728",
"t. c #AD672A",
"y. c #AF6929",
"u. c #B06625",
"i. c #B16926",
"p. c #B06827",
"a. c #B06729",
"s. c #B06928",
"d. c #B46D2A",
"f. c #B26A2E",
"g. c #B56D2D",
"h. c #B56E2E",
"j. c #B87131",
"k. c #816E5E",
"l. c #81715F",
"z. c #836E63",
"x. c #807060",
"c. c #837263",
"v. c #877565",
"b. c #877569",
"n. c #897C6C",
/* pixels */
"  v L L H I L L P L I L U I z.f   4 ' ' { ' ` O.{ ' { ' { W 6   6.7.w.5.7.8.5.w.w.f.d.s.r.s.u.u.s.w.e.s.w.s.e.s.s.s.g.g.s.f.s.,.",
"  M v L I U L G I I I I U U v h   = 2 { | { { | o.{ ' ' ' _ ' u     #.5.s.w.5.e.w.& & i.5.5.w.w.i.w.i.s.r.r.w.5.e.s.g.g.w.#. .{ ",
"  n M I P U I G L L L L U v.v c j   u ' { | | _ ! | ' > < ) _ _ ! 6   <.5.5.w.9.e.7.9.| | s.s.#.#.$.#.#.#.#.#.$.3.#.#.#.$.#.O.| ",
"  B V V U J I P U L I l.x.M v v x k   ' { u         p 6 _ ! / ) ! u 6        .O.| #.#.#.O.#...r.               .#.$.#.<.$.X.| | ",
"  V V V V U I U U I P U V V M B B f   O.O.  H L G G       6 ' _ _ ) ! 6 6 6                     6 6 6 6 5 6 5       f.o.X.o.X.( ",
"  B V j V V V V M b V M v n V b d d   { !   k G L G V S F   8 : | { {  .! ! u u 6 6 6 6 5 6 6 6 6 6 5 ! ) ! ! u 6 6             ",
"  V V V V V V V M B V M v n V w w   ! ' u   k L L V G G G G   ] | | { | | { ) ! _ / 6 6 6 5 5 ) ! ) _ !                 6 6 6 6 ",
"  d M B V n M v n m M M c w w w   $ ' u   v v x.Z G V S Z j f   6 X.| |  .| O.X.) ^ ) _ / ) ! ) ! | 6   D G V S F G V V   2 6 6 ",
"  w e w t d w M M m V f w w w w   ! o.)   v x v L V V A j j j   u { |  .{ |  .o.| O.| o.| | | { i     G L G G V G G L V w   _ _ ",
"  w q e d a d d k v w w q a e   i 8.O.u   v d e e w t t j h   ! 6 { | { | | 8  .o. .o. .|         L G L L L G G G G I f d   5 ! ",
"    q t d d t f d q q q w e   6 *.<.#.u   w r e w w w         u O.O.X.| | | o.| | |  .O.  v.k.K G L G H H L K L G L U f f j   / ",
"5 5     e q t d d w q w     u i.    O.' u             ~ 5 ! ! #.#.#.X.O.o.X.| o.| |  .)   G K L L L L P U G L L L I k h f d   ) ",
"3 5 6 6     w w e w     :.u #.  V M   O.O.2 6 6 6 4 [ 3.#...#.$.$.2.5.5.5.$.$.$.w.O.)   L L L L L L L G I G L L I k k j k j   _ ",
"    2 6 6 5         7 ! 6 O.{ )     ] O. .O.O.O.O.o.o.O.O.#.O.5.5.%.5.7.5.5.5.*.w._   L K I G I G G G L L L I n M j g j j k   ' ",
"#.$.      6 6 u u u u  .| |  .|  .O.O.               . . .O.#.&.%.u.o. ._ % ;.| X.)   L I I L G I K G L L k.n n m j k j k j d   ",
"#.#.#.#.O.                            5.w.s.i.X.-.s.       .X.o.O.o.|           ! =.  G V V x.x.U x.T b.B M V M M j j j j k t   ",
"O.O.O.#.O.` O.#.5.5.*.$.5.#.$.#.#.#.#.w.w.w.s.s.a.g.r.y.g.     . .)   L G L U   { !   G G L L L L M L m n B V v j j j k j w w   ",
"    O.#.#...O...*.                      #.#.$.$.5.s.g.y.g.g.g.    '     j f t   6 6   G G G G G G L G M M V M j j j j j j e e   ",
"6 u               ! _ / _ / ) ` ) ! ! u         #.#.<.g.s.s.g.g.g.  #. .      X.) 6   V G V Z G L L v V M v v j j j k j w w o   ",
"/ _ ! / ` ! ! _ { ` O.X.{ | { | {   | u ! ! ! 5     9.#.#.j.g.s.s.g.    O.o...X.{ 6   d d D G G G G M M M M v j h j j q q t   _ ",
"6 6 6 5 5 /  .| X. .|  .| | X.    n.  u  .o.! ! ! )     u #.O.f.g.g.s.f.              j j j G G G M M v v M j f j w w w q   6 5 ",
"          u u { X.| { { u     V V V M   6  .| o.) ! ! !     *.*.3.g.y.w.y.e.y.w.i./   j j j j f V M M v M j f # w q q     5     ",
"G G L L M     u u | { {   f V V M V V V   6 | | | X.6 ! ! !     $.#.<.e.a.s.s.s.s.`   t f f f f d q s v k j q q q q   < <   J L ",
"L L L L L V b   ] u { { ]   w L V V V Z h   6  . .| X.| ` ! ! )     #.$.$.$.$.O.O.O.!     w w q w w w e j q w q q   < 6   U H P ",
"I U L I I F V M     u | 5     w f f j w q   !  .| | |  .O. .) ! u 5   #.#.#.#.#.O.O. .  6       q w w e w q q w   : _   k H L L ",
"L L L I J U G M V v   6  .: 6             6 Q o.X.O. .| o.{ | u ! 6 !       #.#.#.O...  6 4 4 <         q q     : ! '   x U I L ",
"I L G U G H F G V v f   u  .| 1 4 5 6 6 O.X.o. .{ u O.o.O.o.|  . .! ! ! 6 6           ! ! ) { | u u 6 6     > < _ _ 3   v v v I ",
"U l.K J H L c j f w w w   u o. .|  . . .o.O. .X.o.` | |  .{ | | | |  .) u ! ) ! ! ! | { | { { ' ' ' ' | - < { { ' ' '   v M M M ",
"V U I U U f k j j e t e   u  .O.o.X. ...O.O.o.o.| X.X. .|  . .| { | | O. .| | ' | | | | { ' { {                   5 '   L M M V ",
"n V V v k k k j j e w w   5 O.O.O.O... .O.O.O.O.X.X.| X. .{ | | | { { | | X. .|  .| | | { { u   o U z.G L I L G L   5 '   V V B ",
"V V V k k k l v k t w   6 O.                      | X.X.| $.#.#.O.{  .4 5 5 | | | { | { | u   M M v G L G G G G F D   4 5   V B ",
"V S V k k g j k w q   u O.  u.w.i.s.s.s.s.w.w.w.s.    X.| | { O.O.|  .| ! ' | | ' ) { { {   n v v V H L G F G G L G V   5 5   e ",
"e w q w j f l q     u     w.i.7.w.y.y.y.s.y.r.w.s.9.i.    | | | | | { | { | { | ' { { ' u   v v v M V L L G G G G V k f   _ 4   ",
"      w w       R u   7.w.w.5.w.      s.f.y.9.s.s.s.s.w.s.    | | { | | { { { { | | ' _   f j v v N V I U I P n M v M k   2 { 6 ",
"6 6 E     9 9 u 6   7.          8 < >           w.s.s.w.e.s.w.    | | { { { { | | | { { 5   d j f k t w t w M n v v v v v   ' { ",
"{ |  .6 2 3           3 6 5 5 4 5 : 4 4 4 : < 3     y.s.e.a.s.w.s.    |  .| | X.| { | { { u   k t t e t e t t d c v V w w   { | ",
" . .o.O.      / { ! ! ! ! _ ! _ ) ! ! ) ) ! : < : >     s.a.s.w.s.w.s.                      u   o q e e d d d d e q w d   1  . .",
"O.{ 6   I G V     u ' _ / _ ' ' ' ' _ ! ! ! ) 6 5 < : <     r.5.y.f.s.w.r.w.y.w.5.5.$.{ X. .        o q q d d d t w .   ! .. .O.",
" .5   K G L L V V   u ' ' { _ ' ' - _ ' ' { ' ! ! u < < , ,     #.e.y.u.u.a.w.g...o.            ! /         t q # o   u  . .X. .",
"|   k x.L L L G V B   6 ' ' ' ' ' , ' / ' ' { ' ' { ) ! , , < :                     6 ! ! ` ! ! ! ! ! ! 6 6          . . .6 o.o.",
"{ 6   d t d d j j d   6 / { ' ' { { { { O.#.( { ' ' { { ! ! u < : < < < , 5 6 6 u ! ! ) / ) !           { |  .o.....X. . . . . .",
" .5 u   j d d e x   9 6 { | | |  .#. .#.#.#.$.$.5.%.| { ' | _ ! ! u ! ! ) ! ! ! ! ! { { | o.  I L I I w   { |  .|       ! o. .| ",
"..o...6           5 6  .{         #.#.#.$.$.$.$.%.#.$. .| ' { { { | { { { { | { { { ' |  .  L I I I e t   | | u   L G c     / { ",
"O.O.O.#.#.6.*.+.$.#.O.{   L P H H   ! |  .| X.$.2.6.%.%.%.| | { | { { | { {  .| { | | | 5   e d d h t   5       G C G G e e   { ",
" .O.5 #.O.#.#.#.{ {     K L L I I I     u | {  .| | 5.$.#.#.&.$.{ { | { | ' { >.5 ' { | ' 6     +     5   O J V V V N B w d   X.",
" . .O.#.o.O.        J H L G L U I U U I   ) O.o.o. .o.O. . .O.#.#.O...{ { | X.| { { { | { { { {   6 3 {   G G B B B V V d w   u ",
"O.O.O.O.    L L G I L L I L L L L I K I f   6 |  .o.      | | { | | |  .{ { | X.| | | | | | | { X.X. .4   e I G V n v q w w   6 ",
"O.#.#.!   G L G L H L L I L I L L I I U j j   O.6   L L l.  X.{ | { {  .| |  .o.| X.| | | | X.o. .o.X. .  x k c r w q q q   5   ",
"*.3.`   G L L G L I I L I I U P G I U U f j   u 6   L K L   u |  .' ! | | { |             {  . .0 O. .X.6       e q q     4   $.",
"%.$.)   I G L L L L L L L L L I I v I U f j j   6         p u { | | { {       <.5.$.5.5.&.      {  .X.| X.' 4 4       4 4 ;   5.",
"6.w.  j j H G L P P J L L L P I I I U x.f j f j   5 6 5 5 u { | |       O.#.$.#.5.5.5.5.3.5.5.5.       . .| X.| O.$.| | (   5.%.",
"%.7.  g j j f U L I J L L L I L U I z.V v k g j   6 | | | | |     G P                 3.5.&.6.5.w.s.y.                    $.5.*.",
"        f f f d Y U k.I P I B U I z.M M M M j j e   ' { |     G G K G L   u  .| | { |     6.w.w.w.w.e.e.i.u.7.6.7.$.$.5.5.`     ",
"_ ' X.3   f f d d U U z.U U U U M M M n v M g q w   ` '   U L G G G L I H   u { | { | { |     e.w.w.i.s.w.s.u.5.w.5.9.5.6.  | | ",
"' | { 6 6   d w q w v v M M M M v N M M M v k w w   }   j j V G G G e f f d   O.O.O.o. .O.{ |     s.e.w.w.w.w.5.w.`       | | { ",
"_ { { { 6 5     w w w v M M v B v v M M v B j w r       j j k k e t d d d e   o.O.O.O.o.O.O.o.| |                   {  .| | | | ",
"          ; 5 :     w M M M M M d # t e e w w #      .    j g k t t w a     u O... .O.O.O.O.O. .#.| | { X.| | X.| | | | | | | ' ",
"I L K U k.    : 4 2     w d w t e e e e e q q     5.#.|         d d     ` !           O.O.#.5 O.o.o.o.| o.'       | X.| X.X._   ",
"I I P L U U U     [ 5 2   w w q q w w q q       o.#.O.O.$.| _ )             5.5.i.7.i.      O.O. .O.O.X.    m I j   '  . .)   G ",
"I K I V S V G V G     2     o o o X o     - -     2.O.%.#.#.5.*.$.5.5.5.w.*.7.5.*.6.*.7.w.i.    O.O. .  k b f d k @   | O.  G G ",
"U U V V F G V V G L L   5 5           ; < 5 4 < <     r.5.5.*.*.*.7.7.u.%.*.$.&.*.7.w.w.w.u.u.s.  o. .  w d d d d o   o.  z V V ",
"U Z A G V B F G G L G I   4 4 ) 6 5 6 5 6 ` ` 5 5 4 4     5.w.5.&.5.%.5.3.i 6.&.w.7.w.u.7.w.i.s.w.  ..)             y o.  k F G ",
"B G G G F G L G V G L I I   5 5 ! ! _ _ _ _ ! ! _ _ 5 5 *   e.5.5.7.w.5.5.w.*.w.5.*.w.w.7.7.u.O.w.%.    |  .O.<.O. .o.X.  v C G ",
"V G G G L G G G G G G L I I   4 4 _ ! / ! ! ' { _ _ ) ! u 5   5.5.6.*.w.5.w.w.5.5.5.w.w.7.w.u.w.w.a.i.w.                  b M L "
};
