/* XPM */
static char *Sand_64[] = {
/* columns rows colors chars-per-pixel */
"64 64 59 1 ",
"  c black",
". c #BF7E19",
"X c #C17F1A",
"o c #C3821C",
"O c #C8861F",
"+ c #C58522",
"@ c #C68824",
"# c #CB8B25",
"$ c #CD8D2A",
"% c #D08E2B",
"& c #CF912D",
"* c #D09026",
"= c #D2922D",
"- c #D49533",
"; c #D89635",
": c #D69936",
"> c #D99A36",
", c #D69738",
"< c #D79A39",
"1 c #DC9D3C",
"2 c #E09F3E",
"3 c #DEA13E",
"4 c #E0A13F",
"5 c #DE9F40",
"6 c #E19F40",
"7 c #DFA343",
"8 c #DEA542",
"9 c #DFA345",
"0 c #E3A240",
"q c #E0A242",
"w c #E1A543",
"e c #E5A443",
"r c #E0A344",
"t c #E1A545",
"y c #E4A644",
"u c #E4A546",
"i c #E6A847",
"p c #E8AA46",
"a c #E7A748",
"s c #E6A949",
"d c #E8AB4B",
"f c #E8AC48",
"g c #E8AC4A",
"h c #EAAD4C",
"j c #EBAE4E",
"k c #EDAF4C",
"l c #EEAE4E",
"z c #EBB04F",
"x c #ECB04D",
"c c #EDB04E",
"v c #EDB14F",
"b c #F1B24F",
"n c #ECAF50",
"m c #EDB151",
"M c #EEB251",
"N c #F0B552",
"B c #F1B453",
"V c #F1B655",
"C c #F8BA5B",
/* pixels */
"i7tqqttqw7t7w3q11qwwuw9qt3w7u hhmvmhvnhznmvmmv    3q17141171111>",
">>:-wdt7tuttu37q331witqww737t1     hBlhBlvm   41#+4711>:111q11>;",
">::,:1t87q3qww7qq7tqqtr$w377-@7wu3q        3qww41t357133w>1>111,",
",,1>>:>:1=->,uqqu7q3uw33>7111>41331tq11t7qqutwqq7q71771113111<>:",
",>>>,1-1,-&1uw7tutqqu34wqq1q17wqw3w7q1w34q4q7rqw31qq1w131@@>>>>=",
"qtqte4qw32q31qtqhq71q        1t,472e7qwtqe3t1qq4t23qt7wq1111q13q",
"t8te7t3313qq1t3w1    vshhllmv    31qw173ww:,:--,%3qqq1711q11q135",
"w713311,1        mvlvmhmdvdvmzdhl  347uq737rw75qwq3q111374113111",
"w11,11>1 lvhhmmdmvmBBlhvBhdlmhBhBnv :3qq3u3u47wtt411q3q1>w531q31",
"1=<>q1111  damvvmBmfX=-%-$==-->=-dhp  83q7qq3wuw&13q3qqq73313141",
"31114w131>< :-:-------:,:---=,--::=3hv      wtuu1q3411q313q>q331",
"11>11X1133>1    ->-----$         >->::-:,>:; 1uw7133q>33     311",
" 11q1>11>q1>1311        31w371qw3 >>>,-->:  qwwqq371    zimzm   ",
"B  311>11112>1111377>31q113qq37uw3        7wiw1w7   hhhzhlhhzmmd",
"mml  >637313113>137q41w71q3#o34w3qwqqtq7tteq5733 Bhlshhvbhmhlllh",
"mhvhh           q7317q4q311737qtrwh8qwqw4wtw41  zmhnldmhvhzdlnmv",
"VdhhhvdzvvuiBhli 717qqwwqw11qqwq3q##1w7qwtq   BBmBmvv-;=-==:-==&",
"$$$ovdhpvlhnh&: 3w11wqw31qt173q717wqwwqq   BmBmmBm4*=--------::-",
"&$$#=##$@**=:= 31344323q1113113q        hlmhmzhl:-->---:        ",
"   %-%$=,&$   171q11111313w11qq ihhvmhmzmvmil*-=::::-   1111>1w1",
"113        77q3383q1q3q3111377>3  -=@:1&@==-===--:=  331q311>513",
"1>>,1111131111113*>1q13u313q133q73    &=----:-:    >331111#>qqq7",
"1111>>##=1>3131q1317      37343341711q         qq141q71111>13111",
"73134111111141q3    Blhlvh   q1qw174qqq1143tqqq7ww73w>3111111q3q",
"   3113111141   vhvvvhvvhlvmB   13q>w7833q3uq1u4q7qeq334413     ",
"hhd          flhhBhlhlhvmBlvmdhm  q331eqw&2qqweq1135374711 vlhhh",
"hlhmihhdhhvhvmhlizhv==-*$BBmBmhmvB  11w1wq11wtqqwwwww11331 11>11",
"   hddvhhshhlBvh-===->=--=*=#ihhzhvB   q     4qw44141q11111     ",
"q11  BvhhhvBl-*----->:,:--==&==>hvmBmhm mBmmm 3tt711q13>>>@$11>w",
"17711 -$-%%===--,:-                zmmBvBm   33371q>3q11313117w3",
"wq7341    $=---    e3317q137113811w       173331q11q11131       ",
"    q11713     74qqqq11$41>113133>1311471q73133137131    lilvvhv",
"zlih  w417111qq13wt3311>3:11131734151q1713$>311411   hhhiBhhlhih",
"hlhhhh  3q113q1711=%w313133131311113>11<171<3414  Bihddhhhvhvhmm",
"bhlsihhB  11113>7181q37113111111,1>>1>113q1711  ihvimddvv==,*-==",
"$--=%pldvd    31313331q11714>13,41>31>31111   lBvddvh#%=#=-;--=-",
"-=--=$==%$uhhB q713s7w113-,--::::&-,1>1111 vhmmmml=*--=-@=,>---,",
"              313qq33q713147115--:111173>> :-==$-$-:-,--::      ",
"111111311311111117qr3q3511333111111>113w311               >11113",
"11=311q111113111333>111>13731#q1317>31111113331>>11>1111,<1113w4",
"11311q713111,=+13334qq371141111733>>1334113113133117113q13@O1113",
"4131113>><11>uw1qw1        31q11111371$$1111111113>3q11317111q37",
"331111111113131    hmvmhluv  ,1314113131173q413331>1113q11111113",
"q37qq131q1     mmvvhmvmhvBhlv  >712q4qe31q333>311::1---;:1373111",
"17wt73313 vhvsvmvvmbvlilhmmhdpv  337715wq3qt1,-:,,::,:>::-1:11q3",
"13qu141,41    hBmh     --=VBlzdhh   1wt7373w311>=:->--w131114>11",
"qqw4#*13171171    3>311 ---%=Vdhshhv    1371q31>q7q3>33341q:>1@1",
"q1q311313311q1q1171q5>33  $->%-$wddvhmhC 311313qqwq37q4t>&<>1<1 ",
"    >3111q318qtq13414>,734   -==-@@=$$@ 11131733587ww31q4      l",
"hhhh  1131174354w323>1q14311q          53>31131#11q1qq1  wuuudsv",
"mmhlml  31111173q141>3133$3113147wqq1331733113>>133q3  hpBhqemvh",
"lhsfzmdd        q33q1q133qq11117q1qt7>4q431#=,11173  lhmimhhhivv",
"@@odzphhhdhvlvhl 211113q3q11qq33131311q1w11q11114  zvvldv.@%$$$=",
"+$$%&@#husuhb-$ 37131q1wwq71>wq34          133   lvmdml$-$--:==-",
"  $$&%&$+#&$-  q1tq31>q31qq1>31w dlhihdlmlB   nhmmvhm=-$:=&-    ",
"<1    +$$+   71t333w>r77tw3113133      vvvhhlmzvmvv+=>$&    1133",
"31,311    3344wq7ww$#1q13531#114qq13q11   lmvvlzB-=$-   3143171q",
"37q3111>1111131qtq374qqq31q1q1q71131w3qqq1           wwr11717tq1",
"3q71311>1t37w1q31534333713117qqq311413@3u3wtqwq48twuu73qq8*=#q11",
"313>11$q311131q73wq11           1q71r1q31313qwq4tutq8qu3q7w$qq>1",
"311>11111331qqrq3q   zhhdfihhfhd   u11113ww:7qqu41wq7wqq31q33131",
"1>>11<343q17314q3 vhsnvhhhhhhhmhihd   41uqww7qw      47w7q3w3731",
"371131q1>17qqw3q11         vhhmdhhvhhl         lmuhh1 1uw7q37713",
"31qq131137117111171113334q7  dhhihdmshhdshhhhmvnhu   qqu73wq341q"
};
