/* XPM */
static char *Slime_64[] = {
/* columns rows colors chars-per-pixel */
"64 64 51 1 ",
"  c black",
". c #439E00",
"X c #45A500",
"o c #48A600",
"O c #46AA00",
"+ c #4AAC00",
"@ c #50AF00",
"# c #4EB201",
"$ c #52B501",
"% c #54B603",
"& c #51B404",
"* c #53B704",
"= c #54B604",
"- c #51B800",
"; c #55B802",
": c #57BC02",
"> c #54B804",
", c #56BC04",
"< c #59BA03",
"1 c #58BD03",
"2 c #5BBF03",
"3 c #59BB06",
"4 c #5CBB05",
"5 c #5ABD04",
"6 c #5DBF05",
"7 c #59BC08",
"8 c #5DBF09",
"9 c #5AC004",
"0 c #5DC005",
"q c #5DC207",
"w c #5FC507",
"e c #5AC109",
"r c #5DC108",
"t c #5EC508",
"y c #5FC908",
"u c #5EC111",
"i c #60C306",
"p c #62CB07",
"a c #60C20A",
"s c #60C408",
"d c #61C40A",
"f c #65CD0A",
"g c #65CC0B",
"h c #66CE0B",
"j c #65CB0C",
"k c #68CD0C",
"l c #66D10C",
"z c #69D00D",
"x c #69D10D",
"c c #66CA11",
"v c #69CF11",
/* pixels */
"*$$$*$# 85r5qq85qqqqsre6r >%;%$$%;$+#++#+#####*+#+**###*$#$$**$#",
"$$$$$>##   qqqq8qq6ist6w ;%->$%-=*+#$#+$*#+#@+*#$+$**###$$$OXO#@",
"$#*#**$####  qqqqqtrqtr ;$=$;$++++#*=#$###++#*$**$$*$$X$$#$XOX%*",
"**$$*-$*$#$$; 6rrrzfsq $$-$$+O+O+OO$*+##+++*#$5q9qq597:#$%$*$#**",
"$$$$*O$=;$##=1 strfjs q;;$$%++#++O+O+O+OOO**155655qq9q51$$*$$$$$",
"$*$$$$$$$$$*-<3      q51$%$$*+#O+OO+++++O*#5<555r46qrqq55<$*$*$$",
"3,><>7$$#;3>%>;>;>q5qq565%*>$$++#+OO+OO+$$1555       $95X61;5;:3",
"5>-::;;$;;;%$;;;1;3qqr1q56$;*$*$O+O++O+$*1576r .ooXOX 55,6r3<<<;",
",;;$$;%;=;3;>5psppffsq5qr65%;->$+O++X+$$1r161 XXOXoOOO ,5151;5>>",
";>$$>-->;;><       ppfr66<56=->-+O+OO%*<6566q OO++OOOOO 5555556;",
"-*$%%;$:-;  OOOoOOO  pfsq56q1>$>>++$$%q65;1q O##+#++oXOO  q5ffff",
"##XO$#*$> O+O+OOOOOO. ypfqqs5i6>>>-38q6q535  +#####+#XO+O+  ;w98",
"         #+O#$*##O+OO+ jffzqq5qr66qsrq56r  +#####,+##+OX+O#+    ",
"$#+###+#++#$#*#*#*++OOO qpffffjzkfqqqq   #####+#+;;#####OOOO++#+",
"##+##+*$*-$$*#$#*$$OOO+O  qfpfkfqiq6  ####$#+###$##$#*#$$#++++++",
"#$#$$$;%$=$*#**$$*$#++O+OX   9qrqj  #$#**#$*##**#*#$$#$#$#$#$+##",
"*$$$$%$-;%-e>$$#$###*+++++OO+     *$#$#**$@##$$*$$#$$$$#$$#$$$$$",
"$$;;%%$$;>tr9$$$#%$*$+++++#++##+##$$$:;;;$-%**##*###$$#$*#$$%%>-",
":55<5$%$$;;$>%$$*$%$$*+++++#++#**#>3>;-;;;;%;-##$$#%##OO+;>$$;$%",
"165191%;,$$=$%.#$%$*$#$$++##+#*-$>$;>;;---:$%;;$#$X###OOX*$$#$>5",
"66q65<q$-;%;>>$$>$$$;$$$$$$$>-$;;q55;>;-->>,;$%-##*###$*-#$$#*55",
"9a  :655>;$$%$*$;-#$%$$>$$$;$-;1q99599;;q;;;>;;;$*#+####$$#*53  ",
"  .. >91$;$*$-$;#$*$%$#-$-$-;;q9q5515qq5q995;;>;;-;#*$#**#$;  X.",
"O+OXX 615%%$%$-$#$##*$*$-$>$5s9rq556q6q55qqtq5;-;;-;;-;-$$$ XooO",
"O+++O. 95<$$$$$$*$$++O+$$$$;sqsq55q%     pps656;%;;:;;%    O+O+O",
"OOO+++ 5f51$%OO#O+OOO$$-=>;qw<qq5<  ..XXX  pp96%$$-$-  $$++#OO++",
"$#+#OO ippq5;;OOXOO;$$-$$9r$%q5qq ....X.X.. ff35--   *#*#+#+#***",
"$;$$OO+ qpf56r>%$$$-$;%5r56#q:59 .X+OO+OOO. ppf51 $$,e$%$$$-$$$*",
"$#$%$++ 96ff5q9rq65qqqq9596q55qq .OO+OOXOOOX pj855 $>$-*$$$-;$$;",
"#$$*$#+O 66fff8qqqq1rqww9q959;5 ..XOOOOO+OO+. fp555  ;$$;=;$%;;$",
"%%*$$$### 5qfffqqw9s99596555,15 .X+OOO#++OOO+ ppp91q5       %%$$",
"$;%$;*#+++ qqqqrqqqqq5519#+5p15 XXOO++#++#+OO+ pff6q6115q5;6 ;$%",
"$%#$*#-*O++   w1j   955>6;1531; oOO++#+###+#OOO spffrq951q5 ;-*%",
"%%%$*$*#*#++++   O+X :;5555<5>: OoO#+#++##++#+++  k1q5695  ;>;=>",
"%$%#*$$$#+#++++O+O++ 755;5,    OOO#++++X$######OOO       ;$,;%;$",
"$%$$#X$#*&##+####O+++ 5135 OOO+O+++###XXX+#####$*OO*$$*$#%qqq65;",
";$-%$+$*#$+######+#++ 555: OOO+O#+#++########*##*#$*$$$#:qqiq5qq",
"q#$%*$$O++$##+###*#+O 9391 ###++###++#$#+##+#####+##$$#55qfkziqq",
"5$-$*$$+OOOO#$#####+# 55:; ############$*##X*##**##$##1:5qsffq5q",
"5,-;$$$+++OXOO+++O#++ 6s11 ##+#*#####**$##*$$$####$*$51515qq99rq",
"15:$$>$*+++OO+XOO+#*# 1f;; **##5:>;%;:;$##$*$$##$##**5191js15156",
"q1q;$$-**##$O++O+##$$# 5q %$#*3<<%<55;,:##$*$#######955      c55",
"9515$$##$$$$$$O++$;$-$+  +$$3;>,15<3151;;*#$;##-#$#,55 X.XOOO  5",
"6q6qq1q1q55%-$$$$$$$-$$$$;$551qsjppk65q135$$$#$#$#5q< .OOXOOOX 7",
"9qqq5q65p1q5q$$;O$#%$$*$$$9,,plk655fpy355>55;$#$5159 XOOOOXXXOO ",
" qqs5ffpkflf611>;=$#$$==;5qrfz1     ;59:,,<55<<;5516 OOXOOOO+XXO",
"O qq5rqe9qq6q55,1%$$-*$-59zp6q OOOO+  :51;9;511:q55 XOOOOO#++XOX",
"OO  q5qqqq5655q5<5565<91155q  +OOXX+O+  3551555qqu OOOO+++++##OO",
"++OO         qr6,9q1q5159q5 +++++OX+OOO+  199519  O++OX##+++###+",
"*OOOOXOOOOOO. 5qq96965q5q9 #+++O##++###O+O      XOOOO+#++++#X++#",
"$$OOOOOOOO+OOO qi9q95q9qt ##O###+##$#$##++OOO+XOOOOO$#*##$#++$$#",
"#####+OO#$#OOO+ s5qq5q   ###*###*+O++O$#*#XOOOOOOO#*#####$##*###",
"########++###+O+      ##$$##$$$$+#XOXOOO#+###+#+###$$$##$XO*####",
"+##*##*###+####+##+#+###$$$$#-$#+XOOXOOX++#######$$$#**##OO#$##*",
"#$+##*##++#**##++*##*#*##-$##$##+O+OO+OOOOOO+O+#$$-#$$*####$$#$*",
"#***##+*XXO##++#########$,$$##$##*#####OO+OOOO+##$$#$;###+$$##*#",
"#$######*##$$$###$$#####$#$####$$*+#*+###OOO++##;5$#-$$-$#*##$$$",
"-#--$#####$##;$;;$$###**##$#########$#$**+####$$;,r$>-$*;->%>>$#",
"->$$$$$##$$>;$%$$$-%$#######XX$$####+###;$$###*$#-$%=$15;:;1;;-%",
"$$;$$$5$$%%;;9q99q$$*$$###+#XX*$#$##7;:;;3;5$$$#$$$$96q5;>     -",
"$$$$$$$$>;56irq5555;$;=$#########$$3%;;;;s95966r15965553  ##### ",
"    #-,<;;qrqpfff955;3;*-;####$##;%;      qqvfqrqr6vfq  ##$-####",
"$### ;>;$9rrrqffq155,5;$;;      -;; ##+#++   qfkfpfj  +$$$###*##",
"$#**$  $;5q9q56555:1;:11< -->*-;   #+##++#+++       ***$$$$$#*#$"
};
