/* XPM */
static char *Smoke_64[] = {
/* columns rows colors chars-per-pixel */
"64 64 70 1 ",
"  c black",
". c #8D8B84",
"X c #908E86",
"o c #8F9088",
"O c #95948C",
"+ c #98968E",
"@ c #97988F",
"# c #9A998F",
"$ c #979690",
"% c #999790",
"& c #979990",
"* c #9C9B93",
"= c #9F9E98",
"- c #A09E96",
"; c #A19F98",
": c #9FA096",
"> c #9FA098",
", c #A1A097",
"< c #A4A39B",
"1 c #A8A69E",
"2 c #A7A89F",
"3 c #A9A89F",
"4 c #A7A6A0",
"5 c #A9A7A0",
"6 c #A7A9A0",
"7 c #ACABA3",
"8 c #AFAEA8",
"9 c #B0AEA6",
"0 c #B1AFA8",
"q c #AFB0A6",
"w c #B1B0A7",
"e c #B4B3AB",
"r c #B5B3AD",
"t c #B4B4AC",
"y c #B7B7AE",
"u c #B8B5AE",
"i c #B7B8AE",
"p c #B9B9AF",
"a c #B7B6B0",
"s c #B9B7B0",
"d c #B7B8B0",
"f c #B8B8B0",
"g c #BABBB3",
"h c #BCBBB3",
"j c #BBBAB5",
"k c #BCBAB4",
"l c #BFBEB6",
"z c #BFBFB8",
"x c #C0BFB7",
"c c #C1BEB8",
"v c #BFC0B7",
"b c #BFC1B9",
"n c #C1C0B7",
"m c #C0C0B9",
"M c #C4C1BA",
"N c #C4C3BB",
"B c #C3C3BC",
"V c #C4C1BC",
"C c #C5C3BC",
"Z c #C5C4BC",
"A c #C5C4BD",
"S c #C8C6BF",
"D c #C7C8BE",
"F c #C9C9BF",
"G c #C7C4C0",
"H c #CBC6C2",
"J c #C7C8C0",
"K c #CBC9C3",
"L c #CDCAC3",
"P c #D1CFC7",
/* pixels */
"retrufressCCSSH 09w7774<7 *+*OOO w0777<7571  mxxccMAMAASHKKK 997",
"e     rrukmCAA rw7   e775 OO*** 05<7e75712 - lclxlm     AKKL 775",
" <<757 eetpxm fs  JGS  << %O*O 77777717<  * cmmcxC rtetf ASA 171",
"<<75737 tefhh f AAHAHAC ** OO <<2<177<< *-* zmxxl tetteef AK <<<",
"<<<<<7<7 rrtll AHHSSKAA -* O+ 777<757< **** lclx 0eew   fl A <1,",
"-  *<<<77 tuthMMFAMCHAA * OO*% *1<171 -<*-X llkh 9eet C kf M <<5",
" lm   <1<7 utflmhsfjlAmM    #*%  <<1 O*#*** ljtf eee0 mc  ml <7 ",
"xlhmnl *<1< etfkfffhlAmAcMmM OOO% * -*      lfrt 09e77 llcc 117 ",
"lllflx -<<7  tfruufkchcmCxccm -+** -X KKAKAK ft  e90775    1<7 u",
"kxfkmll <<<09 etsjfttfmkcflccl *;%@+ SKSKHKKS  e97q977777<<<1 st",
"lkhcxml :**707   dptfpflclxlhm <<** ASKSAmAKK  e77797571<<7< tfp",
"hjffluk ,,*<<<<<< etrteefllMkc <<<* AAAKACCASC 777777777577 etaf",
"ffkcxk **<*#*<<<<< ttttttfxhlll <** AACAHllmCA 57777w77777 tttff",
"xhklxll    -***<*<< 7tttetfhlf <<** AAAlklklm <9<<37779e0e ertku",
"lmlxlhMmAMm .+**-<< 99paukffuf <*; PCAMffklll     <7<77we0 tttsf",
"tilllxmMmCmx ++<<-< 77eututff <<  KAAAlfuflc HLLKK <5<e7ee7  usu",
"rrkkznlmACmmC *O*=* 77rtuuet  < ACCAMmatukk KLLLLLH <7979977<  e",
"eetlkelpmCCCm ***<* 777eeuf 4<< mCAAxfsuffj HKKKLKC <7777<<<177 ",
" et9e0eefxmmC %***<< <7rerr << mmlASfusff  CAmAGKKC <*<7<<7<<3<e",
" r99e9ermjhCzx  +-** <9eetu -< llczxktsp CAmMhxxGDC <<-<;<-<*<7<",
"7 te09reflxcccrt *;< 7eeeee <<* mxlkffff AAAmlhllCMm    <<-<*<<<",
"<< errrrklfhlh0tt *- 77re0< <** llfstifu Ammmllhfhjsmxll ***<<51",
"<< r7etethfljfete *< 173<<< *-**     ffs Cmcxlkhhihshlkll O**<<<",
"  1rtrrtsfkfk9tt7 %*  <<1  *<**;,*<77 ftt  mfhfffffffsmff ***<  ",
"777tetftuute79tee ***-   ***   ***<*7< ffft fshutfshffxxh *<< 37",
"777eeuttt97798e97 ********  AcC  ***<<7  iuu eer9ettttxlf *<< e8",
"777e7ee07777eree ******+O AAHFAAA +***<<<       etsffrfcl <<< 79",
"7e775777757wetr *******%* MASmAAAn -**2<<<<17<77 etteklxj << ee0",
"97777777770e0  ;*;****** CASASFACm -*&*O<1<7<<577 rtkuls <<7 e0r",
"7777777177   <<*,;*+**** AAGKAAAMcH     <**<**<<< atfkkf 77 ette",
"e7777     -<<<<<;**-    CCAHASAAmSLKKKHA o&***1<1 7fust 17 0ee90",
"7    ,-<<<<<<*<<<;* CcmmACmCASAAAAKKAAKHM %***,,< estee    eeeee",
" 5<<<*<   <,<<<<<< mmmckMmMCC   SKAHAKSKAA **O<<< etfst er77ee70",
"<<<:-  CAH  <<;<;* llfemmmAm kfp  AGAHHAAA O*,<<< eetre r7e77   ",
"**-O mCSCCAA *<;<* fuetlxmm tstsep cCCAASA **-<<- eefte 777e ;-*",
"+** lxCMASAAC ***O# w  lxcz tuftfut ACAAAc *<<-3 7etet  <77 ****",
"*+ cmcCCmMmAA #****  77 lf tphfttet mmmCm --;<< 7ree  <4<37 ****",
"  jlzzllllACn ***=-<<77 ff ffus9etu cmCml **<<2 770  <<<<1 --   ",
"hffffllhklhmM O   *=,<<< a jhftrret ccmMxt <<<< 777 <     O* xll",
"hfkhpflffkfmmm CAA  **-*<      rtet vxllter <7<4 7  <<**OO* llmx",
"psfsestetsfjlAcmCAA O-*<;<7<777 tt flxlfeet <<<<  <<<***+*O fhkk",
"ftptteteeetfxMmmASmH ***<;777  etr xclltree <<<<< *,*$      flhf",
"tret     etijfhmmASA *%*-*<7 7ete hlllheee 13<<< *O*  CAACCm aut",
"rrr MMMMA uufffkmMmm +*-<77 eera shxlkxe  *<<*< *$* xmCSGMAmm tr",
"7t AmCMmMc t efhllcM %O-<7ee pg fttfffs **-<*  +*** mAAACmxlk tw",
"99 AcmmlCmM M   lcll *<<<30e f sterrth ****-* OOO* CmCScb    e07",
"ee MmAMCmCmmCCm hlhf %***<77 u t7 tf  *****O% OO*$ mcAmm es7e097",
"  cmmcMmAMmMMmC sklk   -**<7 uf  ;  $<*;*>*%       xmCm 0e7777  ",
"mmmmxmMlmCCmmMC dh  Mml **<3 fut <-<***<*** 373<<< mCxk t7777 ll",
"xlcmmlcctetmmnzx  mmcmCc *-< tttu  ;  <*;O* <7<<=-7 mcl 9777 lll",
"mmlccx09eee9ehklxlnclmlm **<< tutat ee  <*- <7;--<* nlx 9e74 mxk",
"khffll797e777uhukffkamll *;<17  uette0ee ,* <:<<-<0 klh tt77 fll",
"s077777777777trfruutsul -;#*7777        q  <<<<<   mnmlk e7e ffj",
"5777717<<<<51eeertrurfpf   **77777777777 7**<<<< mmckmsa etet us",
"7711757<<<717eee0utteefutf *O,177777<71777<<<*< mclhter7reeee7  ",
"<77<   <<*<<87<777etesttfft **;<<1<<<<<<<3<<;<< khf0et77979e7777",
"6<  lnm  <<31171<<77rqeeitt ***<<<<    <<<<<:<- fat7ee7e0177<4<7",
"7 mmncmmC <,<<*1<<<79eeteet *%-**< eftu 7<<-**< eetet7ee777<777<",
"7 zlcmmCC <    <<;<7779eree ***=* eereee <<   << 7790777773    <",
" ulslxMCAM AAAH <<<7<3779  **O-* trrseee9  977  577777e777 70e7 ",
"tssffllxmAKHLLHS <<<7777 <#**@#* etu09777we77777<*      77 79777",
"rerueefhcCAKKHHH 2<71777 <**#**+ e7e7777e7e9777   MAAACA  7e7879",
"eeeetrstrhCAHKFH 777<7117 **&*<+ 7e97e<7<<7<7< CCcBCmAAKSA 7897w",
"e0rrtetttjxmCCA 7777<7311 *O*O** 97e775<<<<<< CCACAASSHKHSK 797e"
};
