/* XPM */
static char *Snow_64[] = {
/* columns rows colors chars-per-pixel */
"64 64 50 1 ",
"  c black",
". c #C4D3DA",
"X c #CAD5DC",
"o c #CFD9E0",
"O c #D4DEE3",
"+ c #D9DFE4",
"@ c #D6E1E6",
"# c #DAE3E6",
"$ c #DDE8E7",
"% c #D7E3E9",
"& c #DCE5E9",
"* c #DEE8EC",
"= c #E1E5E7",
"- c #E1E6EA",
"; c #E4EAED",
": c #EAEDEE",
"> c #EDF1EF",
", c #F1F2EF",
"< c #E5ECF0",
"1 c #EBEEF1",
"2 c #F1EFF0",
"3 c #E7F0F0",
"4 c #EBF0F0",
"5 c #EDF1F0",
"6 c #EEF4F3",
"7 c #EFF1F4",
"8 c #F0F2F3",
"9 c #F4F3F2",
"0 c #F3F4F2",
"q c #F6F7F3",
"w c #F2F0F4",
"e c #F4F3F4",
"r c #F3F6F4",
"t c #F4F5F4",
"y c #F5F7F5",
"u c #F8F7F4",
"i c #F9F7F4",
"p c #F7F8F1",
"a c #F7F8F7",
"s c #F9F9F2",
"d c #FBFAF4",
"f c #F8F9F7",
"g c #FBFBF7",
"h c #FCFAF4",
"j c #FDFAF6",
"k c #FBFCF6",
"l c #FCFCF7",
"z c #FBFAF8",
"x c #FCFBF8",
"c c #FDFCF9",
/* pixels */
"fttt9re,t8t0q8w1:885851:w:81r11:155;5:;;<:::;:::1:58:w>988tt8et8",
"00880a558tr58551>::8r5151::17          :---;;;:X:;:111::588t8082",
"8514:7r31::115%54:51:1;;:;   flllffjffc  <@#;<::;1:;4:1:4;::5:t>",
"  5:1;:;5-:::1:11;1;1;;;  fffpffkjucjfsjq  -#&&-*;;-:<-;        ",
"sf   ;#;:O-&71<14<:;1&; ffscjfclkffujqffsfq &#@#@@-&&   tfjffffs",
"fzffj  ;&&-;&;;;6:&&;  0quqfffcqjfujqffxffqt  +##@&  8tttqqqfqfx",
"xfljfcf @##&@&#&#### q5qquufffufft0qt,8,t080q8     0w5r1:t>:t808",
"q0,fffs0  @OO@@@&*  afqfrpqafaqqqfuqfqft805w051888>08:1548115>88",
"r>0:0fqpuf  %O%O  tfzt8qfq9tfafqftqf:qtt,f>8>56rr588r41:1;15:55:",
"18::t0qaffaq    rtt08qt8t:88ttf0u85,5858e8t5:5855:55;<551:11::1:",
":1:r000fqq0qtqt80rq0t0rtr585:85rtw5000t5*:>05585:5:1::8:;::;1:1:",
";;-:#-14qq8qt08r8t88>&::8>5a:85wr05tw85r51115;8>:1511-::;;:;&;;;",
"--;11;#::00:551:5:>11>555:r>5:55518r75::8:55555         5#:;;-;;",
":--;;;;::::1:1:1;:15;:15:::17:<5*:15141>:515>  jffflfjlk   #&;<&",
"*<-;;&1:41::;&;&-;:11;51:1:;::-&-1-::5::458  fffclflfjkjluj 5;&&",
"####&-:::1&&*       11::---;;;;1:14::1;1:  fffjlfcfxjfcflfkf  ;&",
"#####&#*;&;  afqffqf   ;;;&&;::;;;::;:;; fuffccclcfjljxffssfsf  ",
"  @&&&*    fsfffflsffzf --<@;-;;&;1-;:  fqfsflffjfuufjffuqfsjjxf",
"0t     q8uuuxsffffjfqupu ;&######@<;- affufqfpqfjjuwtq0taqfpujqq",
"0t89rqtqz8,t0qqaqfqqq8uaq  -@*#@@#@  tfpfqq8qsfszktq-r8q8t8010fq",
"8wr8580550wtrtt8t5r8q00q8q0        80ffp5raaa8qttt0r,008a0005r80",
">:::>81115;;1;;:55::5>5r555r858008>:>50>q088t8q088r188850815rtr0",
":;11=;         1;::11:1>:5441:>:5:5>:885000580800:,588::5:;5>:::",
"::;   jfffjfjsl  ;&#5:::5&1;5:;15:15558>:85r151>565>855;;1:4:5:1",
";  jffcfffsjsflfs -&&&::;;:;5:51;11=4:4:15:0:;1::55t81:::;:11-&*",
" ttfsxlflfsfjafqql  #&@&11:;:-;::-;---:::;;:;:::;:5-;::;;-;;-*; ",
"q88fqffffflf8jftqqqf ##@O@;;1:-:::#;@#O&;;--14;::11<:&&<;&;&&& q",
"qkspqqzfsqaqufuqqtapt @@#@O%&@#&*&:5:;6:;;;;<-1:;:;:@;;-##@*@ tq",
"t0qsuqaq08ta0q0attqfft  @%@#@&*            4:-;<;;&&<.;O@@@@ 88f",
">tt8t8q:888r80w0qtq,tfff       ffffffclfcfq 1-&&&&<&@&#@##  8ra0",
"tt0qq00atr:50580805t8,8qt0afajfkfslffjjfsq0t  ;*&@@;@#@#O 5158::",
"8000p::018558@;808118:55q08t0stpaqffqpfa0fqq0q  *&@#@OO  :;555:1",
"11-::;r1105:555:>555858:q5009uqtff0u0a8t>t,0t>0t       1;8::::=1",
";1::;:1;1r:>57;1::6505:588r>816:8855>85-0r>:0q8t880:>:::::5;;-;<",
"-*-#-::5-;;@;;::4:5:18          -:1;1:5>0r850>51:45;w:;:-:;  ;&@",
"O;&&@&;;:;-;;:;---:   zsfffjsufq ;-:1::1>::155:61;;::;;    ff   ",
"  -;#%*&--&;;1@<;  cfftufsfsfffff &;&@;;;&:::::;;;;-   fqfllsfff",
"l,  *#O@##&@OO&- fsqpfatffljapu9qf &#&;*#---;-$@@@  fffffjfjljll",
"fsaf @#@##@@@&@ qaqtqfatq8taaqqttqq  &&<&#@#@##   pqpufqujqfsjsf",
"ffffq   @#@%   0qt9:t,-,0qtqr5r9q,aqa  &@@#&&  5,aaqffsfqqffsfll",
"qqftqfr>    :t:585>10t0t20q:8::w65:,ufa      q80fqtfqaff;&qqqutf",
"fqatt8r55:585tr1r8:55565818::w1:::>0r50tr8,8085tqa,pftft0fqqqfqt",
"085t80555:55551;:::-551::::::;:5:8:151::55>wq15q08,580qt,80%,5q0",
"88880,,:r51::;;;:::-:;:::5;15>:#4::8518:::;::-::055t:>:8w8r00555",
":588111::;:-:;       ;#-;:7;<;>:1::1:;:       -;15:5580>551:1>w>",
":::;o:;@;;:-  pcfxfsf  1<-11;:;:;::-&  apaqjaq  -;-5::8:::;50:::",
"1:5:;1;**:  atffjffqfq0  :;&-:-;-&&: 8ffsqfqjffq  1;-::1:;7-;;:;",
";&:-*&;&: 0uftjffffjfqffs  ;;#*@#@  qfpxffffffflff  <;;4&*&&;*&;",
";<;;@;;: uffffzfqflsjfqfffs       :aq,,fussfpfffuaff ;&;:#&@;;#;",
"&#&;&:  t0tafttffau0,0tqfaquu088005:08t8t8aqqffstsf0f  -&@@@O@#*",
"      1>t80q0,tqu808>q0qqtqq8q8,:580500,r08w5a88qaaapqq   &OO;&#",
"5>1>58:1:r>55-0>858t:0,80tr>1::51:5051>5>5:1>:858r885rqa>t      ",
"15:55:141::51::7:1::1:585w::5855:>;:::5:4::5:1:15;>0qr850:>q550r",
";:>:5:::;:;::1-;:1;::5:65555:      1;:;-5;--::@1:5551r1:7:60r>8t",
";4--;;:;&-1151::O*::;-5::6   jfljjf  :-;;-<;;-1:41>:5:5:756     ",
"    ;&&--#;-<;-<;-::;1:4  sfqffffjfsq  &&&&#-;-;<:;;:5:1   jsslk",
"kfsf  ;&-#;:;-;;--;;;-  fffqafpllxfsjuq  @###&&&:;-@:5  fqfffkfl",
"fflkjf -;&&##&O--&#&  ufpqfufuffppfplfffp #@@@&&&&::  ffqqfqfzja",
"ffffffs  <*&&@@@@#: qqttqqtqaff<faqstatqfq  &#@@#-, jqpfqasfsuqu",
"pqfq0ajff    &     q,,,8,t>uq8up8qqqxqfqqq,0       qpujtqqfqua,q",
"fauffffffffuj tq8qt>t08855>r85,5>qta88>>8qa8888t88qt0ttq08tqqqqq",
"tq8s00ffffuffqqtq088:58155&555r5:515>88>a8t0800tqt,faq8:0t,pqt0q",
"at08tqfq8qffufqt8555:5::855545r:1:55:7:5::1:5:89r:55:08ttq80tqqa",
"q0qtqpqqqtqttq>>15::;::::4:;5-55:1;5;::;;::::1858w0890qatqat0q,f"
};
