/* XPM */
static char *SPace_64[] = {
/* columns rows colors chars-per-pixel */
"64 64 128 2 ",
"   c black",
".  c #050017",
"X  c #08021F",
"o  c #04032C",
"O  c #0C082F",
"+  c #010033",
"@  c #0B0736",
"#  c #0D0B37",
"$  c #02023D",
"%  c #0A0439",
"&  c #0E0C3A",
"*  c #110E3E",
"=  c #16153E",
"-  c #18163F",
";  c #17183F",
":  c #18183E",
">  c #0C0E44",
",  c #170F41",
"<  c #171641",
"1  c #191644",
"2  c #1A1846",
"3  c #171748",
"4  c #1B1749",
"5  c #171848",
"6  c #1C1A4A",
"7  c #1C1A4C",
"8  c #1F1A4D",
"9  c #1E1C4D",
"0  c #081057",
"q  c #1F1B50",
"w  c #1F1E52",
"e  c #1E1F56",
"r  c #1F1F58",
"t  c #201B44",
"y  c #201A4B",
"u  c #231B4F",
"i  c #221C4F",
"p  c #251D4F",
"a  c #221B50",
"s  c #231D50",
"d  c #241F51",
"f  c #211E54",
"g  c #211F55",
"h  c #1F2053",
"j  c #1F2054",
"k  c #1F215A",
"l  c #202053",
"z  c #202156",
"x  c #262054",
"c  c #222259",
"v  c #23225A",
"b  c #22235C",
"n  c #29285D",
"m  c #31305F",
"M  c #222665",
"N  c #202769",
"B  c #22296C",
"V  c #353361",
"C  c #252D72",
"Z  c #282F75",
"A  c #27307C",
"S  c #2D367D",
"D  c #2F397F",
"F  c #30377F",
"G  c #42457D",
"H  c #6A5A6F",
"J  c #625174",
"K  c #6C6075",
"L  c #A2683E",
"P  c #A46B43",
"I  c #AA6F45",
"U  c #AC734A",
"Y  c #BE8556",
"T  c #BB876A",
"R  c #A78974",
"E  c #AF8F7F",
"W  c #A79175",
"Q  c #C08555",
"!  c #C08857",
"~  c #C38D5D",
"^  c #C49061",
"/  c #C99569",
"(  c #D49F71",
")  c #CFAD79",
"_  c #D3A277",
"`  c #D8A575",
"'  c #D8A778",
"]  c #D7B077",
"[  c #DAB67C",
"{  c #2E3781",
"}  c #2F3881",
"|  c #303781",
" . c #323A83",
".. c #333B8B",
"X. c #37428D",
"o. c #3A438E",
"O. c #3C4691",
"+. c #3E4893",
"@. c #585183",
"#. c #404994",
"$. c #5B5D9C",
"%. c #67659C",
"&. c #6B6A9D",
"*. c #747490",
"=. c #7A7298",
"-. c #7171A5",
";. c #7271A8",
":. c #7B7DB7",
">. c #A08687",
",. c #B99980",
"<. c #BBA289",
"1. c #8B89BB",
"2. c #DCBC92",
"3. c #DEBF92",
"4. c #E0BD81",
"5. c #D7B7A0",
"6. c #E8C78E",
"7. c #E7CD89",
"8. c #E1C292",
"9. c #E4C195",
"0. c #E8C79B",
"q. c #E7D59E",
"w. c #F6D5A0",
"e. c #FFEAA4",
"r. c #FFFBAA",
"t. c #FAE4B6",
"y. c #FFF2B5",
"u. c #FFF3B6",
/* pixels */
"d i s s d d a y u u a 8 2 2 4 1 1 2 2 2 2 2 3 1 4 2 2 2 2 < < 2 6 2 6 2 6 2 3 6 4 2 2 6 2 f a q s q w f q f - 2 2 2 6 6 4 4 6 4 ",
"i i i s s x J 8 u a s 2 2 2 1 1 < 1 < 2 2 2 1 2 2 2 2 2 & 2 6 6 6 3 < 2 8 2 3 6 2 2 2 2 q q s q s q s e s 2 < < 2 2 6 6 6 4 2 2 ",
"i i u i u d i 9 u u < 1 2 4 2 2 2 2 4 1 < 2 2 1 2 < 2 6 8 3 6 2 6 2 6 2 6 2 6 3 2 6 < w s f s s s z f f 2 < 2 2 2 < 2 2 6 = 6 2 ",
"i s d i d i i u d < 2 4 2 4 1 4 4 4 4 1 2 < < < < 8 4 4 4 2 2 2 5 2 2 6 4 + 2 2 3 < f z f f w s e f 2 2 2 4 2 < 6 6 6 6 6 2 6 6 ",
"i d i p u d i d 4 2 1 2 4 4 y.4 8 4 2 2 4 < < 2 6 6 6 6 6 4 6 6 6 2 2 2 6 < 2 2 l z z f e f w < < < 2 2 < 2 < 2 4 6 6 2 6 6 6 2 ",
"i d d s p i - 2 < 4 4 2 4 9.2.e.y 4 2 1 2 2 < 6 :.6 6 6 6 4 6 3 2 2 4 6 2 2 2 c z c w b < 2 2 < 2 2 2 2 6 2 6 2 2 2 3 ] 6 2 6 8 ",
"d i d p d < < < < 2 4 4 1 4 2.4 4 4 2 1 2 < 4 4 6 6 6 > 6 6 4 6 2 2 6 6 6 c e w z h < 2 < 3         4 6 2 2 6 2 3 6 2 < 6 2 2 6 ",
"d i = - < - - = < 4 2 2 1 2 4 4 4 4 2 2 2 q 6 8 6 8 6 6 6 6 4 4 6 6 6 2 c z c c c 1 2 2 2   .. . . .  6 2 2 2 2 2 6 4 4 6 2 6 4 ",
"< - - = = < , < 2 2 4 2 2 4 4 1 4 4 ,.6 f 8 6 6 q 6 6 6 8 6 6 6 9 6 c c w c c c < 6 < 2    .o.O.X. .F   6 2 2 2 6 6 6 2 2 6 - = ",
"- - = = < - < 2 < 2 2 2 < 6 2 2 4 8 6 w 6 8 w 6 8 4 6 6 6 6 9 6 8 c j f c z c 2 2 2 2   F o.+.O. .F D C   6 6 6 6 2 6 = - - - - ",
"< < - < < < < 1 < < < < 2 2 4 2 2 8 w w w 6 6 9 8 6 6 6 2 6 6 6 b b z z z s z 2 2 < <   +.+.#. .S  . .C   6 6 6 2 2 < = < < < - ",
"- - = - < = < - < t < < 2 < 2 2 8 w 9 q 6 * 6 6 8 2 6 9 6 6 < 8 c c j x f =.< 2 2 2 2    .A  . .} F B B A   2 6 2 < - - - < < < ",
"= - < < - - < - = 1 - - < < 6 6 9 8 w q 8 6 8 6 6 6 9 6 6 6 2 c z f z z z f < < 2 2 2   F S  .S S B B N   2 2 2 - - 1 < < < < < ",
"< - - < - < - - - - 2 6 6 6 6 8 6 8 q w 6 8 6 9 6 6 6 6 8 w e c z s f z f e 2 1 2 2 2   C S Z C N M N B   2 2 < < - - - < < 2 < ",
"< 1 < < 6 2 6 6 6 6 2 6 6 2 2 6 6 8 w 8 8 6 9 6 6 8 6 6 w s s z s x f s w < 2 3 2 2 6 6   B B B C B N B   2 2 < - = < < < < 2 2 ",
"< 6 6 2 2 2 6 6 6 4 4 2 6 o 4 8 8 8 9 8 9 8 8 9 6 c z c c z z c c z z j w 2 2 2 < 2 6 6 6   B C B C     6 2 1 - - - < < < 2 2 2 ",
"6 6 6 6 6 6 6 6 6 6 2 6 6 6 6 2 6 k j b c z c c c c z z c c c c j f f s 2 2 2 2 2 6 4 6 6 9         6 6 6 6 < - < < < 2 -.2 < 6 ",
"6 6 6 6 6 2 6 2 6 8 6 8 6 6 c z j c z e c c c c z c b j b c s $ j j z z 2 2 6 2 2 2 6 6 6 6 6 6 6 8 6 2 6 < < < < < < < < 8 w 8 ",
"6 6 4 2 6 6 2 2 2 2 6 2 b z z c c z z z z c z c z c c z c c z z c j c 8 6 2 6 6 2 O 6 2 6 2 2 6 6 8 6 < < - < < < 1 2 < < 9 8 6 ",
"6 8 # @.6 2 6 6 9 6 < b k z z c f x z e h e z c f c c c z c c z j z 6 6 6 6 6 2 6 2 6 2 2 2 6 2 6 : < < - < - < < 2 < < 6 8 w 8 ",
"6 8 6 6 6 2 6 2 2 c c c c c c z *.j c c c z z z z c z c c z w c 9 9 6 6 2 6 6 2 6 6 6 6 2 < - < < < - - - - < < 2 1 2 8 6 q 8 8 ",
"6 6 6 6 6 6 6 6 c c w z z f w f z z e z c c z b c z z z f z 6 9 9 6 6 6 6 2 m 2 6 2 - - - - < - = - < = < < - < [ < 6 8 w 8 q 9 ",
"2 6 8 8 2 4 z l w z w c e j j z f z f c c c c z z 6 6 6 6 6 8 6 9 6 6 6 4 6 6 6 6 - - - - < < < < - X < < < < ) [ 4 6 8 6 6 V 8 ",
"8 6 8 8 x z z z f z z j z f c c w z w r b 6 6 6 6 6 6 2 6 6 6 q 9 6 8 8 8 8 8 2 - - - 1 < < < < < 1 < 1 < < 1 - o 6 6 8 6 9 8 8 ",
"8 9 z c c z c z z f z z j z c z f l z 2 6 6 6 6 6 6 6 6 9 8 i 9 8 8 9 4 9 9 9 < - - - 1 $.< < - - < 2 9 6 6 6 6 6 2 6 8 8 6 6 6 ",
"c c c c z c x z 1.z z e x c z f w c 2 2 2 6 2 8 8 8 6 6 9 4 8 8 %.6 8 6 6 6 i < < - - < < < < 6 2 6 6 6 6 6 6 6 6 2 6 6 8 6 2 z ",
"b c z c s x z f z c c c z c z f 2 2 2 6 6 8 9 6 6 &.i 8 u 9 8 i %.i 6 y 6 6 < - < < - < < 6 6 6 6 8 8 9 9 6 6 8 6 6 8 6 x z z z ",
"c b x z f s c z z z c c c c z 2 2 6 6 6 8 i 8 8 i 6 6 6 i 6 6 8 9 2 y i 6 6 1 - - - < < 6 6 8 6 6 6 6 6 6 8 8 6 6 6 c z f c c f ",
"b c x x x z c z c x c c f 6 2 6 6 6 6 i i a i 9 6 i y 6 6 u i y 6 y 8 i y - - = < < < 6 6 2 6 8 6 6 6 6 9 6 9 6 6 s f c c x f n ",
"c c c f z z x f c f s 6 2 2 4 6 i i i $ y.d i i y u 6 6 i 6 y 6 y 6 2 8 < < - - 1 < 2 6 6 2 6 2 K 6 8 6 6 9 8 6 c c x f c b b c ",
"M b c c x z c c c 6 2 1 2 2 6 9 i i q.0.8.2.E i u 6 y i 6 y i i 6 6 i - < - - - - - 5 6 2 6 6 6 8 6 6 9 6 8 z x f x c % x c c c ",
"6 8 6 8 i 2 2 6 2 2 2 2 2 2 i i i i u y.w.y 6 6 i u 6 u 6 y u - - = - - = - - - = 6 4 6 5 6 2 2 6 8 8 8 6 s l c c x f c c c c c ",
"6 6 2 6 6 < 8 4 6 6 2 2 6 y y y 8 i s i y i i 6 i 6 y u - - - - - - = - = - - 6 5 6 2 6 6 2 6 6 6 6 9 6 c z x z f b z z c c < 6 ",
"6 6 6 6 2 2 6 2 6 6 2 6 y y 6 u u y i u s i 2 i y i 1 - - - - = = . - < = - 2 3 2 6 2 < 6 6 6 6 6 8 9 2 l s s l z z c z 6 2 6 6 ",
"6 6 6 2 < 5.6 6 2 4 6 6 6 6 6 y i 6 i y u 6 i y y < - - - - = - = = - = 6 2 5 3 2 6 2 6 2 2 6 6 2 6 6 s c z s l s z z 6 < 6 2 2 ",
"2 6 6 6 2 < 6 4 6 6 6 2 6 6 6 6 6 2 6 y y 6 i y < < < - - - 6 2 2 2 3 2 2 < 2 4 2 2 2 6 6 6 2 8 6 6 f c z z f z w 2 2 6 6 6 6 6 ",
"6 4 2 6 6 4 6 6 6 - - < < < - < - 2 6 i i i - - < - - - 2 6 6 2 2 < 6 4 6 2 2 2 2 2 6 6 6 6 6 6 6 b z z c c z f < 2 6 6 2 6 6 6 ",
"6 < >.6 6 6 6 < - - < < - - < - - < - - - < < < - - 1 6 5 5 6 < 5 6 2 2 6 2 6 6 7.[ 5 2 6 2 6 2 c e c c z z j 2 4 2 6 6 6 6 6 6 ",
"6 6 2 6 6 < < < < < <       < - - < - < - < - < - - 6 6 6 2 5 2 2 < 5 2 6 6 2 6 6 2 6 6 2 6 6 c c c c z j 2 2 3 2 6 2 6 <.6 6 6 ",
"6 6 8 6 - < 2 < < 2   C  . .    < < - = < - - - 2 2 6 6 3 4 6 2 6 < 6 2 6 6 2 6 2 2 6 6 6 c j e e z z < 2 2 2 2 2 2 6 6 6 6 9 i ",
"2 6 1 < - 2 2 < <    .X.} X.{ }   < < < 2 2 < 2 2 6 6 2 6 2 2 6 2 6 2 2 6 6 6 6 2 2 z f s z e j c z 6 6 2 6 2 6 2 2 2 2 6 6 6 8 ",
"6 - 1 < < < 1 <   } O.O.X.X. .{ Z   < 2 < 2 2 2 6 6 6 2 2 6 6 2 6 6 2 6 9 s f s w w w f z w e e 2 6 < 2 6 2 6 6 2 @ 6 6 6 9 6 8 ",
"; < - < $.< < <   X.o.o.X. . .S C B   2 2 2 2 6 6 2 6 6 6 2 6 6 6 6 s f l z l w e f h z z e w 2 2 2 < 6 6 G 6 6 2 6 6 6 2 6 6 6 ",
"< < < < 1 - 2 2   O.O.X. .} | S C B   < 6 2 6 2 6 8 2 6 6 6 6 4 c s z c x c c l s l w h z w 8 3 2 2 6 6 2 3 2 6 6 6 6 6 2 6 6 2 ",
"- < < 2 2 6 2 2   S  .{  .S S  .B N   2 2 6 2 4 6 6 9 6 6 2 8 z z z z c c j c c z e c b j c 2 2 2 2 2 2 2 6 6 6 6 6 4 2 2 6 8 - ",
"- < < 1 2 6 2 3   {  . .F S S Z B B   2 6 6 8 8 8 6 9 9 6 8 s z c z z f z 6.b z j j z c c 2 2 3         2 2 6 2 2 6 2 6 6 - - < ",
"< < 6 6 6 6 6 6    .S S  .B B B M B   2 6 4 6 6 6 9 8 6 6 z f f f z c c n 4.0 b h z c j 6 2 2   T _ / ^   2 2 2 - - < = - - - < ",
"< 2 2 2 6 2 6 2 2   B B C B B B M   2 6 6 2 6 6 &.6 6 6 c f c z z f f c c H c b z c c 2 6 2 6   ` ' ~ Y U   - 1 = < = - - - - < ",
"6 8 6 6 2 6 6 2 2 6               2 6 2 8 6 6 6 6 6 6 c c c l z c w w c c z z c c z 2 6 2 6   ^ ( ~ ! ~ U   = < < - - - < < - 6 ",
"6 6 6 6 6 2 6 2 2 2 2 6 6 6 6 6 6 6 8 8 6 6 9 6 8 6 6 z c z f f z c z z c z c c 6 2 6 6 2 6   ~ Y Q Q L I   - - - - - - < < 6 6 ",
"8 9 6 6 6 6 2 2 6 6 6 2 6 2 6 6 8 6 9 6 6 9 6 8 6 6 z z z z f s f c c b c c 2 2 8 6 6 4 6 < <   I I P P   - < < - < < - = 8 6 6 ",
"6 6 6 2 6 6 2 4 2 9 2 6 6 6 9 6 8 8 6 8 6 9 6 6 6 b c z z c z c z f 4 6 6 4 6 8 6 6 4 < < - < <   P P   - < - < - 1 - < 6 6 8 6 ",
"6 6 2 6 6 W 6 6 6 6 6 9 8 6 6 w 8 8 8 6 8 6 6 6 c b z z c c z 2 5 2 < 2 2 6 6 6 6 2 < 2 < < < < <     < - < - < < - < 6 6 6 6 q ",
"4 6 6 6 r.8.8.$ 6 6 6 6 6 6 8 8 8 8 8 8 6 8 < c c c c c z 6 6 2 6 2 6 6 2 6 6 6 6 < < < 3 3 < 2 < < < < < < < < < < 6 6 6 6 6 8 ",
"6 9 4 6 6 % 6 6 2 6 9 6 8 9 9 8 6 w 9 9 6 w c z z c c 2 < 2 2 6 6 6 2 6 2 6 6 8 2 < 2 2 2 < 3 < 2 2 1 < < < < < 2 6 6 6 6 6 6 8 ",
"5 6 6 2 6 2 2 6 6 6 6 6 9 8 6 w 6 b c c e c c c c c 2 2 2 2 6 6 2 6 2 2 2 2 4 6 2 2 2 3 2 2 < 3 3 < < < < 2 2 6 6 6 6 6 6 6 8 6 ",
"6 6 6 6 6 2 6 2 6 6 8 8 6 c b c c c c c c h z j 1 2 2 2 2 2 2 6 6 6 2 2 6 4 6 < 2 < 2 t.3 2 2 < 2 < < 6 9 6 6 6 6 6 6 6 6 6 6 8 ",
"8 6 6 6 6 8 6 6 8 6 c z c c f c c c z c c c c 2 2 2 2 6 2 2 6 6 2 6 6 2 8 6 8 2 2 2 < < < 2 2 2 8 6 9 8 9 6 6 8 6 6 8 6 6 6 8 6 ",
"9 9 6 6 8 8 6 6 c c c c c z x z c c j z c z 2 2 2 2 2 2 6 2 R 6 6 6 6 6 6 2 < < 2 2 2 2 2 2 8 6 6 8 6 8 8 6 2 6 6 8 6 9 6 8 6 4 ",
"6 6 9 6 6 6 9 z c x x z z f c z z c z z w < < 2 < 6 3 6 2 5 + 2 2 6 6 6 8 < < < < 2 < 2 2 8 8 6 8 8 6 6 6 6 p 6 6 6 8 6 8 8 6 2 ",
"8 6 6 6 6 6 f f c c c c &.c c z z c b - 2 2 2 2 2 2 2 6 6 2 1 2 2 6 6 8 < - - - ;.< 2 2 8 8 8 6 6 6 6 6 6 6 6 6 6 6 9 8 o 6 6 6 ",
"8 6 8 6 s w c x c c z c c z z c z 2 2 2 < 2 2 4 6 2 6 6 2 6 6 2 2 6 2 < - - - - 2 < 9 8 8 6 6 8 6 9 2 6 6 2 4 6 6 6 6 9 6 8 6 8 ",
"8 8 6 s z f c s s s c c c c 2 6 2 < 2 2 2 2 2 2 6 6 6 2 6 6 8 2 6 < < - - < - < - 6 4 6 6 6 6 6 6 2 6 6 2 2 6 8 6 6 8 6 q 8 6 9 ",
"6 s f f f z f f f f f f 2 6 2 2 2 2 < < 3 2 2 2 2 6 2 < 6 = < < - < = < - < < - 2 6 4 4 6 8 6 8 6 8 6 8 6 6 8 8 8 6 w w 8 u 6 w "
};
