/* XPM */
static char *Stone_64[] = {
/* columns rows colors chars-per-pixel */
"64 64 75 1 ",
"  c black",
". c #272727",
"X c #2B2C2C",
"o c #30302E",
"O c #343534",
"+ c #373837",
"@ c #383A37",
"# c #36373A",
"$ c #373939",
"% c #3C3D3C",
"& c #403E3E",
"* c #3E403E",
"= c #40413F",
"- c #3E3F40",
"; c #403F41",
": c #3E4040",
"> c #424242",
", c #4B4C4E",
"< c #4E4E51",
"1 c #504F53",
"2 c #4E5152",
"3 c #525455",
"4 c #565857",
"5 c #555659",
"6 c #56595A",
"7 c #5B5C5E",
"8 c #5D605F",
"9 c #5D5E61",
"0 c #605F62",
"q c #5E6163",
"w c #626365",
"e c #646867",
"r c #646669",
"t c #68676A",
"y c #66696A",
"u c #6A6C6E",
"i c #6C706F",
"p c #6D6E71",
"a c #6E6F72",
"s c #6F6F72",
"d c #706F72",
"f c #706F74",
"g c #6D7071",
"h c #6F7073",
"j c #6E7074",
"k c #6D7475",
"l c #707172",
"z c #717175",
"x c #727277",
"c c #727474",
"v c #727477",
"b c #747477",
"n c #737876",
"m c #737478",
"M c #737579",
"N c #747679",
"B c #78777A",
"V c #76787A",
"C c #76787B",
"Z c #77797B",
"A c #78787C",
"S c #797A7C",
"D c #797B7D",
"F c #7C7D80",
"G c #7D7F83",
"H c #7F8183",
"J c #818285",
"K c #838486",
"L c #848487",
"P c #858589",
"I c #858689",
"U c #87898B",
"Y c #888A8B",
"T c #8B8A8C",
"R c #8B8D91",
/* pixels */
"vjuubvzuzazG %% 39wwweq0wwrwe0qqee % 32999qwqw09q<3 @ erzhVllfbj",
"hhuavDjhbNMMK %@ 97wrewrwwwqw9wry9 % 3567q7q99q23< %% w9hhvvjaha",
"haahzNNkzz8zvl % wrwwwwweqwwrqeru %%%          << %% eeNMuhuvawu",
"ahNvzhbzVabbvfa - rwrw9q7eqqwqw12 @*%@@%$%%%%%+  %%@ yjaazazzauu",
"uazNhNvDVvzhDvj > ewrqweweqwww63 %%            %@@% weaaazjhhhhe",
"uzMNBbVVNNNNhzN > 5qrwqqww9we35 %% TUzzDJPGKGPP  %% eeVhaajlzuha",
"NvvbMDzvzvNNzvj @ 55eeqwwwwr55 %* abMajhbvzvzVHUL %% qrauNzaluua",
"bhuvvluuhbzzazh %% 355wr73355 @@ NvvbaNMjlzNvaaNUP = qwqjbzauyad",
"vuvuavuhzvNhzzz %%           %  NMMVthbMlDhNlznVDLJ > wqavNlyaaa",
"aayaNhhjzvvvavl ->%%O%>>,>,>% NzNahlalMbNNNNvbVVVzK % wwrzvaaulu",
"hahbbvlvhaalzhw %%%%%%:>%%%%@ hzMMjzhzVbMzbVVVVNhvlJ % ewvzazjwa",
"uauhzyahzvhbNvq %@        %> NzzvNjzzzbVNvNbNhDVNNzz @ qrebjazja",
"uazNbuhduNhuvw @* qwqqqqq7 % qbvhzzvzzazVzNVvbNNNvMh @% q9evMvvv",
"balvlaahllh7qw % wqe9w9q97 % wjVz7abzMMvzNvNNbzVzlzlh * wwwqeNVz",
"rewww7wqwewq9 % wwqrwwwqq9 % qwMazh7lzavMNVMzjlhVbzla %% wrewwww",
"eerwqqwwqw99 @@ eww9weweq7 %+ qMzjvhhzavlvNNzzbrhNzzza @ qeqwwee",
"             % 7wqqwwqwq0w O% rzhaalahazzNzvzNNNvNNzvv %@ qr3   ",
"@%%%&&%@*%%%@% qqrq0ewwq9w @- ezhhzhlvadhhzllbMvNMzzz @%%    %;%",
"           %-% 29wwww07www >% uvzuNbzhjlhlNazhzzNNzVM %%*%:%%=% ",
"aje7q99hVau  %@ <399777q93 %@ rvhjjzzalhjhvuahNlMnMzw %%%>     z",
"wwrwq9wqewzvz %% <2>eqqw2  *: 9rlvzzuvzhahMvlaajzMzw %%   ww9wwe",
"w909qwwwwrq9zu %% <<33   @%*%% yerhaahzuhvhhzhzhadM0 % 9qq9wrrrr",
"wwrrq9ww7www9hj @%    O%%X %%% qewruzNzalhhalzzzvhr -% 7977qqqqw",
"reeeerrewwwqwweD %@O-%.   P  %% 39wwvNNauhavqzahhee * q779732wwe",
"reerereee0wwwwew %%%   PPDVJP >% 3r9eeMhhzuvaazu9w >% 9997qqw39q",
"wwqwwrerrwqqwqwq >% uzlvzblhjN %% 39q9ewwq0q77w97 +% 399779wwwqq",
"w9wrqwqrww6rrrww % aahvuuabjzlG %> 379q7ww99ww9  O-: ,7997q9wq9q",
"wewww9weeweeweww % uavaazaaaluuG %%  7r        +%%%% <97997q9ew0",
"rqwrrweewwerqwq @- llzzhazllaahuD -;%  X%%%:%@$    %: w7779qww0r",
"qwwqewrwwwwwwqw %@ ujzvNhzhahuuuuD %%%%%>      yuuz % <7q9wqweew",
"rrwererrrrqqwqw % qNauazzjzMadahuyJ %%%  6697976977z % 279e9wwqq",
"rewrywqwqwqww9w % uzzuuuvzaauuuuuru @@ 979997q779wwq @@ 3q9reeqw",
"rrqer9ewweqwwe6 % Vhzhauvulzal7wuueu % q7q77977999w9q % 2rwwr3qe",
"rrrewewwwrqe553 % VzVeuhhlvlzaieuuuu % 7qq76qq9w90e67 %+ 3eee6yr",
"rrrqww33903323 O- ehzhzqahhlaauueyur @ 9qwwq77q97qw7w7 % 5ruwrrw",
"wrre9ww9w32233 @% 7hlhzuaaabuuauuueu @ 9q999997ew99wqw *O 6urrry",
"ewere9w533<   O%% 7Njzaaauauuuuuueua @ w99w979qqwqwqwr %@ 6765eu",
"52535533   @+@%%%> 7hajahalhayuweuyy % 3779677q7q9qqweq %% 67777",
"        #%%@   %%% 99zaaeuahhuyuueur % 5w979799wwqq7qw6 @%O     ",
"%%@*%O:%@%  ewV  %@ 97areuaauyauaya @% 3977qqw799qq7w63 @%%%%%>*",
"@%*%%>%X  eeqrrub %%  7hruauuuuzha7 @* 327qq9wwqewqr53 :%%      ",
"  %%%   e7wewryrMV >%@ 9huzuujaah97 -% 22279w995ww966 %%  lhvRPU",
"vP % q9qeweewerrrlD O%@ 06rr769ewww %%%  22wr9qeew35 %; hzvjljzv",
"zv % 7wweerrrwwwyrwN  %+ w9ww9w9   &%%=%O  33<5365  @  zzzvDvlvz",
"h => qwweqerrqere5rwVN @ wr99   %%%X  %%%@@  535  %% zvzvvzlzvDv",
"z % 6ww9wweuwqrur7wwrV >%    O@%%   uN   $@%@   >%@ ahNajvzVVzvv",
"N = 6ewqwrwqrrrreeewewN %**@%o   qqwq9qze   %%%$%% huljzbhDzzwNz",
"N % 69wqee9wrerrwrerr0e %%%   rwq99wqwwrwhha %%>% zuzzzVavjzvjhN",
"M % 36w9wrrrrruuqeertrw %% eeeeqe77qq79rrwqvu %% rMMMhavNhzzMvjv",
"z %% 3rrreerrwwreerrwwu & 9wrw99wwq9e9rwr9eqqz % wzaMzhzluaaazzM",
"Nu % 75erwrwwwwererew66 % qw0wq06ewewewwreww9e % wqzvazzaNhuaDVz",
"re % 759eueeewrwrrru57 >* 5wwqwrr0wee9wwwe9qwqw % qla9hNhNlzNvNV",
"q7 % 3569ewrrewrwwe566 %% ,weeeeqwwe99wwewwrwww % wvbzhlvaalzMNy",
"77 %* 6656weerwwer56  @*%%  ,rrwwwrr9wwqrq7wrrer % raMzaMzMvNvrr",
"  %@%% 63565yyrr37  %$>O%*>@ 33ewwwwqwwwrrrwrwrr ; wrvzaNvvbyrrw",
"$%%@%%@ 53536557  *%%     O%% 332www779weeww5wqwr % eVhhlayree  ",
"%%   X%@  66667 O*>  er7ww  X%  353ww9qqwwweerwqr % eerqrqre  %:",
"  YUY  %%O 33  %>  90wwwwqw9  :% 233rww0wwqwqwrrew % ryuew  *:> ",
"UVVvUPH  :%  %%  779w9wwwqq9ww -* 339q9qewewwereee ;&     %=%  J",
"vbVzvjKHK %%%% q9w9997799w7w97w %% 35wee9wqwwrrwrrr %%>%%%@  Puh",
"NNMvvvhzHP %> ww97q2wq9qwq7q9qq9 => 399q7wewqwrywwr %%:%   Gvzhz",
"vzab9uMzzP -: 9qw5q379qwqqq97qe97 % 29w7eqrrw4ry7ew %%% erlVzzzz",
"vNvzzhNhauH ;% w97qq9w79wqw999e9q %> r99q9wqwwewr9e @% uuuNvMzlv",
"vlNNbvjhlzG X% 399797qqwweq6q7qwq @% 3w97999wwwwerr %% urNDNvbhN"
};
