/* XPM */
static char *Tiles_64[] = {
/* columns rows colors chars-per-pixel */
"64 64 76 1 ",
"  c black",
". c #3D4650",
"X c #3C4C58",
"o c #3F5463",
"O c #404D5B",
"+ c #435665",
"@ c #465966",
"# c #465C6B",
"$ c #495E6E",
"% c #4D5F71",
"& c #4A606F",
"* c #4C6372",
"= c #4F6876",
"- c #4F6778",
"; c #516676",
": c #516977",
"> c #516778",
", c #556C7B",
"< c #586E7E",
"1 c #57707E",
"2 c #59717F",
"3 c #576E80",
"4 c #596F80",
"5 c #577080",
"6 c #5C7483",
"7 c #5F7886",
"8 c #5E7789",
"9 c #5E7A8B",
"0 c #5F7E90",
"q c #607785",
"w c #607787",
"e c #617987",
"r c #607688",
"t c #627B8A",
"y c #627B8B",
"u c #657A8A",
"i c #617C8A",
"p c #637D8B",
"a c #647D8B",
"s c #647C8C",
"d c #667D8F",
"f c #697E8F",
"g c #637E90",
"h c #687F90",
"j c #65808F",
"k c #658090",
"l c #678090",
"z c #668292",
"x c #698393",
"c c #6A8292",
"v c #6D8395",
"b c #6B8494",
"n c #6C8494",
"m c #6E8697",
"M c #6E8896",
"N c #658599",
"B c #6D8798",
"V c #6C8799",
"C c #6F8899",
"Z c #6E8999",
"A c #718797",
"S c #718B97",
"D c #718A9A",
"F c #738B9A",
"G c #738D9B",
"H c #758D9B",
"J c #728B9D",
"K c #728D9C",
"L c #748C9D",
"P c #77919D",
"I c #79919F",
"U c #7493A4",
"Y c #7992A1",
"T c #7B95A3",
"R c #7895A8",
"E c #7E9AAA",
/* pixels */
"                                                                ",
"  DGGYCBDLKDDDD   AHILLPLLHPYD   cdlmcgbdldlgg   mDDDBmcMDGLDD  ",
" Dr76tt66525665< Cpretttt6tea66 Cc5<5<5<<,::<<< CK76tetep6e6p6u ",
" Dttt7e6e566565* Ct6t6665766656 C,<54<,<:,,<<<< CD7$7t66etttt6w ",
" Dww6t6tt65<;65* D66t56e666666e D<2<4,<,,,:,<<< Db666t6et:teeet ",
" Jrteetaew66266& D666665665666w D:<65<<<<<@<,<< Dv6wttptt666767 ",
" Dtett7t67t6565& m6666566666666 m<555<<,<,,<<<: mm6et7tt6u65w66 ",
" C67e6666e66555$ C66766w6656556 Cp522<5<,:,3<<, CL6ew7tttt66666 ",
" m656e666et6666@ m6wt666w65566w mJ56,225,<:<<<1 mG66tet6w666566 ",
" m55;666w6ew676$ K6656<56<5556w Km2<555<<<<<<<5 Km666te66666666 ",
" B56w66e6656666# C6552555<55<65 CC55556<<,<<255 Cd6666e65565666 ",
" B<66<667766e66* M55$<<,<<26<46 MG5655565<<<<<5 M<6665656676566 ",
" b6w656666566e6& c55<<<<<<5,<<; cm66;5456<<<<<5 c<6562525<76t66 ",
" b666556655w665* b52:<<<,<<,<<$ mm56566555<255< b,665566665566; ",
" p<26$%***$*w2*X m5<<:*$&$@###$ mA555655656531& mp56<566w6w666; ",
"  *=&*****&$$2*   ############   A**=&*****&$$   #**=&*****&$$  ",
"                                                                ",
"  cbmcbcMCbL1MB   lcCCmbcvCcBm   GLGHPLDHLTIII   KDMDLGDDMGHHL  ",
" c<,5<<2<55<655* d<,,,:<,,<,,<< CMautetpeepwt77 Ut6t66666665665 ",
" c,,<<<561<652<* c,>::,<:,<,:<< C567t6t7tet6eet U766666545<<456 ",
" c5,<<2255565*<& p,:,,,,,,,,<<: Je6w6ttt67ttttw C666565261<5<55 ",
" d<<,<5656155<,$ b>@,,,<<<,<,<< D66667t6e766tet b66<55<<<<<5665 ",
" d55<<522525<1,* l>:,>:,<<<<<,< m6666ee6w6e6et6 C52565<<<,,51<: ",
" l55666256515<<% t>><:,<<<5<54< C66w66w6566te76 C655655,,<<<<6* ",
" b56556554<2<<<$ t::::,<<<256<6 m6e66666676t66w b55665<<<:<<<<# ",
" c4556656<<<<,:$ d:::,,255226<< K56665e666w6666 h<241<<<::,<,,# ",
" c<62556552<<<:$ 7:,,<5<<<5565< C65655656665665 c2552,:,::,:::@ ",
" S21<<552<<,<5<$ p:,<5555<<<2,; M:6655656666666 p,<<:<<,::::>,@ ",
" l<266625<<<:<<* g,<<455<4<<<<* c556616<6667656 d::;<:<::;;:::@ ",
" c5<556<5<<<<<4& c<,4555<4<<,:* b:<55565e66666* 9:<:<<<:<:::$<* ",
" 555656665<,<,*$ l**&$$$*$**$&* m:6<555*#****** 9::5<<:,::<:,&$ ",
"  **=&*****&$$,   **=&*****&$$   **=&*****&&$$   ***=&*****&$$  ",
"                                                                ",
"  M15555666666D   Kecp:<,566d6   d7:;,:>:<::,<   B6:ecf25,626S  ",
" c6<2<56<466566O b6566656665555 C7:*:>::,<<<,,< K:5<6566566t666 ",
" c55<<545;55666; d2666666666666 D**::;,:::,,<<< K,<55556<6,w666 ",
" d155<5552<5665< h5t66555566666 D**>>*::>:<<<<< K4556655<56w666 ",
" 8<<13<55<65<<52 D55666665w6566 m*;*;:::;;::<,, K:555666666we66 ",
" p,,,452552<<55, l6666662566665 C**;;;:<,::<:<, K,6256655656665 ",
" p3<,<5<<5<3522< 56265656666656 m*:*=;;:::::<<: K,626666566w666 ",
" d1<:<<,<<25<65: 26666664666652 K,***:::=:<<<<, K<6665666e66665 ",
" p<<<,<,<,<5566; e6t666666w6565 C6;::;>:>:,<<,: K65666666r666e6 ",
" p:<,<,,<<22565; 6w666666<665<5 M5;;:::>:,:<2,: K55666we6666666 ",
" l<<<,,<5<<<555, 66666656w66655 c6;:*:,:,,:,,;, K56e566wt667766 ",
" g<5<<<<<<2<555< 66w65<66675526 b9*>:*:,,*:,*,; K56666e77665666 ",
" c<5<1<:<4265<<$ t6665w666tt66& m7;*;,<:::;,::: K52656e6655676* ",
"  *$$******@$$&   :#**$$w7<*$$   :$$@@#$@@@&,@   ,*******&****  ",
"                                                                ",
"  ttttttttttttt   lpgg7glllllN   99lg09BNllNll   0900980g0CKRE  ",
" Dmtt6ett768w55t ld6:,5,,7<,<td lll:l<5<<-<,,<l K84*;;=;**55ggg ",
" L6wrw66te66666: p<<,<<1<<22<5< lb565555665656< K7**=*;;;<:::52 ",
" M5666666t7676e* t<5<5<<155<<1< lc6654666646655 K:*****:*,,:<:< ",
" m26655666wtw76* t<,<<<<<<,<<3< lb265565666e666 K:**;;*;:*:,,,, ",
" m667665566t666* t,,,<,<<<,<:<< lc665665e666666 K<,,;::*::<<4,, ",
" G66666626twtt7; g,:,:<,:<,::,: lc6666666666666 K4<:,:<:,,,<<,, ",
" C<6665666w6t66: 7::;,<:<<,,@:, cc565<6667666w6 K:,::<<,,:,<:,< ",
" m566665666eeee; 7:::=::,:,:::= lc556666666666t K:,:<<<<,:<,,<, ",
" B7766656666665> 8;:;:,,::,::>: lj527666666666t Kt<,*<<4,:<:<<< ",
" D666655677tw56* 8*;:;::::::::: ll5656667666666 Kl,<<<,<<<<1,<$ ",
" me6&666ew6665w* p$****-;:*,;*, lb556665565566* K,<<<<6<<<<,<<@ ",
" C6666556tt6et6* 8**;:>*:-;::=# lm66$252256666; K*<<<555<,<<,,$ ",
" C6651667t6t665* 6****;>:>:*::$ lc<5<261656666: K,<55255<<,1<<& ",
" 6*$*&;**&::;:*$ $$*+@o+@@@@#@$ cp**&*&*&$$$*$* K*&*$*****$&**& ",
"  **=&*****&$$$   **=&*****&$$   **=&*****&$$.   **=&*****&$$#  "
};
