/* XPM */
static char *Wallpaper_64[] = {
/* columns rows colors chars-per-pixel */
"64 64 226 2 ",
"   c black",
".  c #AF4800",
"X  c #B34B00",
"o  c #AA5300",
"O  c #A55800",
"+  c #AC5900",
"@  c #B25400",
"#  c #BE5700",
"$  c #B45D00",
"%  c #BB5D00",
"&  c #AC6202",
"*  c #B26101",
"=  c #BC6301",
"-  c #B56B05",
";  c #BA6B00",
":  c #B96D09",
">  c #A97103",
",  c #BF7602",
"<  c #BD750B",
"1  c #BF7C0D",
"2  c #C25E00",
"3  c #C46502",
"4  c #CB6502",
"5  c #C36B02",
"6  c #CB6D03",
"7  c #CF670F",
"8  c #CC6E08",
"9  c #D16B03",
"0  c #D26D0B",
"q  c #C57303",
"w  c #CC7303",
"e  c #C47C04",
"r  c #CC7A04",
"t  c #C5760A",
"y  c #CB750B",
"u  c #CE7B0B",
"i  c #D37504",
"p  c #D27B05",
"a  c #D97904",
"s  c #D3740C",
"d  c #D37A0B",
"f  c #DA7C0D",
"g  c #D57411",
"h  c #DB7515",
"j  c #D47B13",
"k  c #DA7C13",
"l  c #DD7C1D",
"z  c #E2760C",
"x  c #E57D13",
"c  c #E37C1A",
"v  c #CC8303",
"b  c #C5820D",
"n  c #CE810A",
"m  c #D58204",
"M  c #DC8206",
"N  c #D48A07",
"B  c #D5830B",
"V  c #DA840B",
"C  c #D38A0C",
"Z  c #DB8A0D",
"A  c #DD930E",
"S  c #CE8413",
"D  c #CA8A15",
"F  c #CB8519",
"G  c #CA8F19",
"H  c #D58315",
"J  c #DC8414",
"K  c #D58B14",
"L  c #DC8B14",
"P  c #DD831D",
"I  c #D48A1B",
"U  c #DC8A1A",
"Y  c #DD9414",
"T  c #DD921B",
"R  c #D8971A",
"E  c #DE9A1A",
"W  c #E2840E",
"Q  c #E28A0B",
"!  c #E38612",
"~  c #E48B13",
"^  c #E2821A",
"/  c #E38B1B",
"(  c #EB8C1B",
")  c #E39314",
"_  c #E89715",
"`  c #E09917",
"'  c #E4941B",
"]  c #EA931B",
"[  c #E49B1C",
"{  c #EB9C1D",
"}  c #F2991F",
"|  c #E6A11F",
" . c #EBA41D",
".. c #D88A25",
"X. c #DF9020",
"o. c #D39728",
"O. c #DC9D2D",
"+. c #E48F24",
"@. c #E79520",
"#. c #EC9523",
"$. c #E49D23",
"%. c #EC9D23",
"&. c #E49A2A",
"*. c #F19D23",
"=. c #F49D2D",
"-. c #D7A02D",
";. c #DFA32B",
":. c #DBA436",
">. c #E6A323",
",. c #ECA324",
"<. c #EBAA27",
"1. c #E4A429",
"2. c #EDA42B",
"3. c #ECAA2C",
"4. c #F3A424",
"5. c #F4AB26",
"6. c #FAAF27",
"7. c #F4A62A",
"8. c #FAA72B",
"9. c #F4AC2C",
"0. c #F9AC2D",
"q. c #F7B12E",
"w. c #E6A232",
"e. c #E5AB32",
"r. c #ECAD35",
"t. c #E7A43E",
"y. c #E4AC3A",
"u. c #EAAB3C",
"i. c #F6A935",
"p. c #F4AD34",
"a. c #FCAE32",
"s. c #EBB136",
"d. c #E6B33D",
"f. c #ECB43D",
"g. c #ECB93E",
"h. c #F5B233",
"j. c #FBB334",
"k. c #FDBA37",
"l. c #F3B63D",
"z. c #FBB439",
"x. c #F4BB3D",
"c. c #FCBC3B",
"v. c #FDC23E",
"b. c #DFAC40",
"n. c #DDB445",
"m. c #E8AE43",
"M. c #F3AE42",
"N. c #E5B343",
"B. c #EBB543",
"V. c #E7BB41",
"C. c #EDBA44",
"Z. c #E0B44A",
"A. c #E5B94B",
"S. c #EDBC4B",
"D. c #F2B742",
"F. c #F3BC44",
"G. c #FBBC44",
"H. c #F3BD4B",
"J. c #F9BE49",
"K. c #E6BC54",
"L. c #EDBE51",
"P. c #F2BE52",
"I. c #F8BD53",
"U. c #FFBF66",
"Y. c #EFC043",
"T. c #EDC14D",
"R. c #F5C146",
"E. c #FCC245",
"W. c #FDC847",
"Q. c #F4C24C",
"!. c #FAC54C",
"~. c #F6C94E",
"^. c #FDCA4D",
"/. c #E3C351",
"(. c #EDC253",
"). c #EFCB55",
"_. c #E7C15D",
"`. c #ECC45D",
"'. c #EECA5D",
"]. c #F4C553",
"[. c #FAC653",
"{. c #F5CA55",
"}. c #FBCB54",
"|. c #F4C659",
" X c #F9C659",
".X c #F5CB5B",
"XX c #FBCD5B",
"oX c #FFD256",
"OX c #F6D05F",
"+X c #FDD25C",
"@X c #FED95E",
"#X c #EFCE63",
"$X c #EDCD6A",
"%X c #F5CD62",
"&X c #FACE62",
"*X c #F3CF6A",
"=X c #F8CF69",
"-X c #EAD166",
";X c #F5D265",
":X c #FDD363",
">X c #F7DB63",
",X c #FED965",
"<X c #F6D36B",
"1X c #FDD56A",
"2X c #F5D96D",
"3X c #FEDA6C",
"4X c #FEDA6D",
"5X c #F6D673",
"6X c #FCD671",
"7X c #F4DC75",
"8X c #FEDA71",
"9X c #FEDC73",
"0X c #FFDE72",
"qX c #FEDE75",
"wX c #FEDE7A",
"eX c #FEE16D",
"rX c #FFE274",
"tX c #FFEA75",
"yX c #FEE37B",
"uX c #FEE97C",
"iX c #FFE583",
"pX c #FFEC83",
"aX c #FEEE8B",
"sX c #FFF189",
"dX c #FFF492",
"fX c #FEFA90",
/* pixels */
"/ |.(.XXXX3X%X  :X{.&X.X{.F.1X6 {.~ :X3X:X3X;X:XwX  0X+XqX[.:Xg.XX3X8X].3X<X  #X:X:XXX1XpX4.} h k *.= :X%X3XQ..X0X  :X+XH.l.XX= ",
"y 1X9 6 [.yX|.  :X&X{.3X}.].1X3XeX:XS.:X3XXX1XW.1X  XX3X3X[.6.8XwXQ.1.(.yX[.  3X+XuXK :X[.. 7.{ ] ' * &X&X&X].f.XX  XX3X+X4 XXH.",
"1X6 [.>X.X8X3X  |.%XN XX3X3X<X1X,X1XqX6XXX5.:X1XXX  3X3X1X:Xq.+X' XX8XXX:XF.  '.3XY Z ,X,X0XfX#.7.yX]. X3XN v 3XpX  !.h.:X].:X3X",
"8 1X3Xd 8X@X:X  3XXXA 3X:X1XQ.g G.aX8X<XwX,X}.3X3.  :X1XH.(.XX.X>Xq 2 |.:X].  %X(.[.:X:X<X:X:X= g 1X1X X:X1X1X!.:X  [.:X3XB :X=.",
"R .X+X:X:X3XXX  3X=X&X{.^ f qX0.j.k ,Xx qXXX:XrX8X  .XrX:X Xi.3XuXXX3X1X}.r.  .X1X1X3Xh -X/ : 1X{.2.J * B rX(.}.qX  J.XXXX+X0X= ",
":X<X,X{.}.!.+X  W.:X8X: ,.j.0  .v.8 5.] s XX{.B.].  r.1XqX.XqXu Z <X&X1XXX:X  yX:X1Xl.L :X.XXXXX8XiX+XpX%. X3X3X8X  :XXX0X[.:XrX",
"wX:XaX:X1X3X:X  :X0X1X1X@ z.0.s 7.3.h.2.pXW.l.&XXX  3X3X}.qX XpX>X1X].:X3XQ.  .X:XoXXXyX..|.XXpXk 1X1X$ rX:X3X:XW.  XX{.:XD XX[.",
"eXB Q.+X[.^.H.  1X1XXX%XH.s 8 X 8.8 s 9 .X1XT.3X{.  j.+XU n XXS.%X1X3X:X+X.X  7X8X}.1X X:X:XXX:XtX&X{.3X[.,X|.:X0X  .X&X:Xz.W {.",
"+Xs.:XR.S.XX[.  :X:X+X.Xz.9.j.# 6 4.j.a.h }.Q.:XwX  .XXXK 1Xu XXwXX.yX%.m.,X  <Xl.3X:X8XXX[.+X1XyX|.F.1X8X3XXX}.3X   X}.:X:X[.S.",
"&X] q 1XqXXX}.  XX3X3XO ! k.= @.j.j H ) X :X:X}.1X  =XXXy ].iXn =.1X2X+XXXF.  :X:X1X1X:XXXXX3Xi.E.XX>X}.}.1X:X3X0X  &X&XXX! ~ w ",
"Z |.+X3X:X,X3X  Q.N.C.!.3 % .X*.8.y ,XiXqX<X3XrX6X  }.1XC.rXOXo.rXqXrX3X1X1X  :X+X|.Y 3X0XX.pXW.@ 8XJ.+X|.` +X<X,X  :X&Xu.1XOX' ",
"rX3Xf.(.XX3.1X  :X:X!.%X=X1X1Xj { L +XXX{.:X%XXX:X  <XyXA.XXXX6XyX3X<X,X1X8X  0X|.&X5X}.,Xo q.s H 7.0.1X8XC.:X:X:X  ,X8XB.XX1X..",
"|.C.H.3X3X^.3X  e.0XZ ~.^.+X:XOXp Q.XX:X1Xq .X<X3X  rX+X=X1X1XsX0 XX8XrX:X<X  .X0XXX3XrX:X{.H 5 w U pX+X3XB.Q.R..X  rXXX0X!.XX0X",
"3XC.]..X+X:XH.  :X%X.X3X1X&X%X:X; XX:X3XS.}.J 1XE.  '.6X1XXX1XE.k.t +X8X1X&X  2XXX3XQ.0X0X0XS.8 k R.H.3XQ.rX+X3X3X  }.:X.X+X:X[.",
"d yX&X+X.X[.XX  3X3Xi 1X:X4 N.|.u &X3 :X3X:XL XXE.  1X:XF.[.}.9.V yX%XXX X1X  7X3X8X3X1Xj C H.rXqX3X_.+X{.XX,X:X,X  1X.Xx.[..Xk ",
"L }.L 1XF.].}.  XX1X.X[.*X].aXj I = :X:XOX|.:X:XXX  [.{.j [ j.+.z.y E.u 1X}.  1X}.0XrXU :X{.XX1X{.i.u U 1XJ.rX:X,X  +XS.P.P yXe ",
"l 7.7.3 3X:X[.  0X3X:X:XrX<X:X% i 8XXXqX8X_.8X{.}.  f.F.6 7.0.r 5 9.*.0.C.:X  :XXX3X%X< ' 0X3XL i 0XXXZ <X3X1Xg.tX  R.qX+ 7.{ 5 ",
"3 8 &.XXrXXX3X  3X1X:Xs f / 0 3Xq qXu % $.qX+X[.F.  0XF.P 9.q 5 [ & G.d 1X,X  :X1X}.;X:X:X:X0X.X1X3XS.3X1X:X:XXX1X  :X{.!.yXP j ",
"% { 7 }.,X:XXX  ~..X:Xo aX}.&X= O i :XXXiX XXX1X+X  1X:X&X1X1XF.1XR.dXqXXX:X  ;X<XXX3X}.:XS.XX1XqX3XJ. X5XR.{.+XrX  yX{.1X] { h ",
"% y %  X0X!.{.  yX3XE.d ; [.{.pX= :X}.$ V .X}.1XE.  rX,XXX3X8X+XOX:X.X;X,X.X  tXF..XC XXXXe.=Xq * rX1XXXOX<. X:X8X  p.+X.X5 %.k ",
"g 3X3X&X{.!.,X  :X3X:X8X1XyX&X1XN.].3X}.:X[.3XXX{.  E.rXyXqX5 j J p <X X|.3X  3X:X1X1X0X+X(.@ a.T wX3X:X~.OX3X~.rX  ^.:X[.:X8X5 ",
",XS. XF.Q.+X:X  0X1X:X.X1XF..XXX,X}.f.l.6X{. XwX:X  :X,X+X(.|.:X3X1XT.[.C.+X  (.F.3X:X&X&X+ 0 4.4 h P r.:X:X+X{.+X  H..X1X<XwXXX",
"^.S./ qX,.D.+X   .:X|.=X].:X|.w d [.XX:XXX.XXXQ.XX  XX3XXXV :X:X3X X1X}.L.1X  (.&X.X<X%X^ 0.z./ u ,._ E.3X:XXX{.3X  d.XX> p Q..X",
"0XeX:X+X}.:X:X   XS.XX:X3X X3X8.V ~.XX`.3X5.}.].{.  8X.X0X1X5  XuXf 1XyXrX3X  ,X]. X1XrX3XJ y <.s P /.+X3XK.,X.XC.  }.tX!.3X+X:X",
"o.3Xp ~ &X'.3X  XXH. X3X.XpX8X{ 0.{.4 %X3Xl.+XXX+X  {.1X*.3X3Xy < 1X&XS ;X3X  OXJ.3XY rXtX) a.J s ,.t 3X:X,X}.1X,X  :XqXL +X<.a ",
":X{.&XXX{.:X1X  :XW.E..Xs ,.0.3 T c.7.6 }.1XE.+X:X  ^.:X0Xb.1XrXM.(.:XA.XX{.  1X%XR.C.e.aX0.s 7.X 3 s  X:X+X+X3X+X  XX:X1X<X,X;X",
"d.p [.,Xs.,XC.  XX1XOX1Xg 7.%.4.2 Y 7.0.1X3X:XXXf.  yXXXqX1X!.:X:X:XE.+X3.XX  <X^.:X X[.3X3X&X7.w :XXX3XeXQ..XeXrX  3XXX{.!.V }.",
"q rX[.{.].F.3X  {..X:X{.X j.j.4.{ 4.j.p &XqXXX3XrX  .X{.3X|. X].3X+X}.0XE.F.  :Xl.[.3Xq rXXX1X$ E.x..X1XO :XXXl.tX  XX+XF.XXr.~ ",
"3X:XXX}.}.XX3X  1X XL yX1Xd ` 7.7.7.w :X+XL 1X3XXX  +XXX:X<X:X6 2.[.1X8X|.Q.  Q.1XZ.yX3XT 3 {.dX;XXX5 Q.3Xw XX:.1X  L.+X:X:X}.!.",
"F.B uXr %XXX+X  XXJ. X[ :X+XU.' <.5 E.Q.B 6X3X:X:X  XX.X1X5 B 5 k.5 3 .X1X3X  rX3XB XX[ y.}.$ ]..XJ 1XW.-.W 1XT.uX  :XQ.XXpX| 1X",
",.:X:XM rXH.Q.  1XqX* W %.L :X- 8 1X{.~ .XZ |.8X&X  6X6X:X3 j.H u ,.k.XX{.3X  ;XS.|.; [.+XqXXXpX~ V.XX0XW 3X+X}.Q.  ,X8XN &X[.(.",
"C.,XE..X}.S.[.  :X{.F.:X|.{.) %XtX&X1X1XH.H.F.[.}.  `.yXQ.[.j 3 H 3 A.3X1X(.  7XE.wX XH.}.` +XZ O.- B 1X].{.x.,X+X  [.1XR.XXT.{ ",
":X:Xe.{.[.R.tX  XX3X+X].3X3X:X!.+X2X0X;X}.+X+X].XX  ~.}.XX6 4.u ^ h.s &X[.1X  yX:X3X;X,X1XF.%.y M (.1X3XqX,X3X.XF.  1.B.+X^.e :X",
"m }.oX{.XX,X:X  1X3XS.r rXq qXXXF. XB ; [ ,XR.:XoX  rX~.0X}.O.6 c.P @ 3X+X^.  (.,XrXS.b.:X+X:XJ  X&X+X.X+XXXB.Y.(.  }.Q.3X[.yXL ",
"[.:X:X~.[.:X^.   X XXX3X1 XXtX[.0Xr 3XQ.y.Q.3XF.3X  8X.X^.3X[.k 5 XX:X XqXXX  %X^.0XY pX` !.,X_.&X3X3XB yX_ }.eX{.  %X3XF.8X:X; ",
"x.:X|.) !.c.{.  &X&X[.Z q +X X5 q Q.x.F.Z T.1X^.:X  XXXX~.1.3X}.:X+X X3X+Xc.  5XXX X+X6X:X+XXXuX&X].3X1XXX:X|.,X;.  :X.X) 5 Q.{.",
"}.C.| yX{ ].3X  XX{.{.[.1X8Xg.pXw.H.[.rX:X3XS.[.:X  :XR.Z d [.|.:X|.T @.XXf.  %X1X|.1X<X:XXX/ 3Xx wX1X[.:X0X:X%X3.  ,X:X~.XXw 3X",
"Q ; 8X3X,X1XH.  XX+X}.:Xl.F.J }.%XU ,XH.S.+X8X.XOX  3XyX1X[.<Xf.:X;XXX!.rX+X  :Xy.J.E W.yXG.w 5 [ =  X3Xz. .{.{.%X  XXH.}.+X0XsX",
"M G ) r f.:X:X  8X:X[ ].1X^.+ w r 3X%X&X:X<..X=Xh.  {.1X;.1X+X#.K {.|.}.:XXX  yX}.+X(.;XG.s ..0.7.L q W..Xp.XX(.F.  F.].) ~ D }.",
"Z :X{.XX^.].3X  XX:X X.X1X^.x.yXeX&X|.>.J.+Xf.r.OX  wX{.1X&XrX,X{.B.<Xs.:X[.  1X.X}.1X3X, j.{ $ s ,.z.:X3X:XXXG.C.  XX3XZ ,XeX) ",
"}.[.,X3XQ.3X3X  8XXX.XXXf.rXS.%X!.,X3X0X3XXXXX.Xu.  XXH.:XK m 1X0Xr  X X:X:X  0X}.+X,X1XQ.tX% y c.y 3XqX+X:X{.rXF.  :X^.].[.{.&X",
";.Z }.F. X:XrX  1X'.<X1 +X3X3X].yX+Xd.0X~ 0X@XXXrX  1X{.|.rX:XM Z 1X+XXX+X].  '.1X~.{.[..XS.<X3 * 1X[.+XE H.8X:X.X  :X+X{.1X3X3X",
"v XXQ.:X{.[.(.  XX XC >XL.}.,X] h..X3X}.~ XX'.&X X  {.C.:Xe.1XyX:X:X:X.XrX3X  :X.X1Xe 1X,Xd ; rX.Xd ; :XF R.XX3XXX  :X+X^.XXM ;X",
"u.,X1X.XXXE.~.  rX:X:X.X1Xg 0 3 G.f ~ R.+X^.&XH.:X  }.XX1X1Xt &XyX6 G.rX3X:X  {.XX:X!.{ [.y.H.n.V <X1X3X5 .XF.H.:X  3X3X+XE.+XW ",
"{.:Xf &XN.1X%X  XX{.3X&X0X$ [ h = { 7.+X,X{.F.].[.  wX%XqX[.{ ~ B K :X|.3X|.  3X<X:Xp I.V :X.Xq .X{.3XL S Z 0X:X].  [.].E.:X1X^.",
"{.p 1X0Xy.}.}.  }.:XrX&X1X.Xi +.5 h +X:XXX+XqX,X6X  3X3X:X3X[.3X3X3X!.Q.].3X  2X,XK  X:X:XJ.[.XXB.:X[.qX X:XL .X:X  [.:X3Xw p {.",
"( R.J d .XeXXX  |.3XY 3X3X0 0.% = j.[ {.+XE XX3X X  .X!.1XF.%X XQ.:X:X3Xh.].  $Xz.5 n '.1X{.R.f.|.|.:X}.1XZ .X3XXX  yXl.XXqX{.z ",
"y 5 }.!.f {.,X  :X+XC !.0X3 8 #.{ t.J 0X:XK .XXX[.  1X:X*.;XU :X3XJ <Xp ].+X  0X1X+XXX X:X,X1X9.L 3X.X[.1X6XXXrXS.  T.y.d /.i f ",
"; 0XXX^.# :XXX  XX6X0XXXrX8X<Xh ; +X3X{.:X3X+XXX:X  3X3X' 7X{.Y ,.F.& [ S.~.  rX&XR.:X3X+X- +X5.= 7X3XqXrX~.F.+XE.  S.!.yX3X+X3X",
"s ;X{.1X|.[.[.  XX3X:XwXW :X6X:X1X{.}.3XE.:X<XL.}.  F.{.1X1X1X].:X3X1X:X=X[.  %X:XZ.3X:X{.7.7.w = 4.9.:X3X{.v.].B.  F.V.D.(.S.J ",
"3X1X8X}.1XXXF.  XX1XiXa }.5 = }.1XtXm :Xp +X;X+X(.  H.!.B.1X1XXX<Xo.+X:X3X:X  (.0XrX:X6X&XU 7.% 8 E.&.1X:X[. X:Xl.  {.f.e.3X|.{.",
"= Z q x.>XqXXX  h.rXb  Xn {.:XV.:XXX|.K K.:X}.}.@X  1X1XXX1X+XL U G.1X:X:X+X  *X+X,X[ OX:X$ 7.8 2 p.S |.C.>.XXrXQ.   X1XXXB ) 3X",
"k :X[.[.XX}.XX   X%X:X:X:X%X].g 5 :X!.].K XX[.3X[.  !.XX%X0X:XN.uX^.r.{.f.{.  |.3X{.3X8X+X7.= 6 3 4.; {.:X3X:X+X3X  !.+XH.1XR.r ",
"4 L ,X:X3Xh.[.  H.:XE.%X:XqXR.yX.X1X].XX[.:Xf.3X1X  qXW m T h.+X{.T Z ' E.:X  XX:X%X{.{.:X'.3X<.3. XR.<X XXX:X[.3X  eX3X8X{.r w.",
"k 0XS.m C [.3X  {.|.1X:XwXU B :X`.U r XX}.g.:X.XXX  3X' :.z.XXtXy.1X}.3XK 1X  &X8X{.qX&X1Xd.=Xa y 8X{.C.{.:X}.}.qX  +XrXC :X+X! ",
"Q.3XXX[.3X,Xh.  XX!.3X,XrX&Xf.i.$ T.+X1XF.qX.X:XqX  3XR.1X}.XXY r.3X:X).Q.[.  :XS.,XJ u w :X:X%X*XD.XXJ Z qX[.1X:X  3XXXQ.x.~.>X",
"#XC.~ e ; s.3X  [.uXK rX) :X<X X&X+X3X- z.M q (.oX  3XL.<X&X.X].rX1XH.+X:X&X  .X+X(.7X+X'.{.M.p 3X}.3X~.:XZ [.,X{.  :X0Xp B }.1X",
"+X' +XG Z XX:X  1XrXQ {.3X:XT.XX1XXX:X:XXXB } 3XS.  :XL.:Xr ' '.[.v ,.{.3XH.  .X:X<X; ) [.:XpXI 8X1X3XXX@.; 8X8XF.  1Xw rX5X; {.",
"+X3X1X,XXX:X[.  :XwX3X0X1X X1X;XXXH.:XG..X[.}.3X+X  H.T.1X&X8XK $.XXF.{.H.XX  {.3X{.,XyXXX8X:Xt , 3X:X1X8.b XX+X:X  ^.+XQ :X[. X",
":X}.3XF.!.:X:X  3X:X}.{.OXr B eXXX{ L }.$.s.F.[.!.  [.1X:X!.8X,XXX:X:X3X3X[.  3X}.+XF.}.:Xm d 3XyXB ;X+X'.}.rX:X.X  &X:X3X1XQ.>X",
"XXB V F.(.Q.:X  {.&X3X XrX' 8Xi 5 +XK V.1X:X!.C.:X  R.wX' U _ ^.!.8.{ aX1X:X  C.+X1XXX3X.XXX1Xu.q XX:X XXX:X:X XQ.  1X:XF.i w ).",
"w (.P.Q.[.~.3X  :X:XY 1X,X|.:X:X}.OX+X1X:XY ,X&X~.  1X+XQ 1XrXV C +X[.Z :XF.  |.,X0X,.3X0X,X3XF 3X3XQ.pXh._ K.&X+X  {.,XXXF.3Xx ",
"O.yXr w.:X:X0X  H.R.1X3X&X1XL iX:Xr 1X}.XXXX{.XX:X  XX<X1X:XtX|.&X+X1XR.[.0X  7XXX[.] 3XXX XXXXX1XG.,X<XXX}.{.3X.X  XX}.%Xs w u.",
".Xa %XXXE.+X1X  :XqXB. X].:X{.B B XXQ.+XJ.+X^.oXJ.  '.x.3XH.+XV 3X1X(.rX[.3X  F.1X(.:X:XM.K a.:XtXc ] XXl.[.+X+X3X  3XXXXXG.XXi "
};
