/* XPM */
static char *Water_64[] = {
/* columns rows colors chars-per-pixel */
"64 64 237 2 ",
"   c #003773",
".  c #00557E",
"X  c #004889",
"o  c #004D8C",
"O  c #025789",
"+  c #004F92",
"@  c #025C98",
"#  c #05629A",
"$  c #02639C",
"%  c #236C94",
"&  c #035EA2",
"*  c #085BA0",
"=  c #0365A2",
"-  c #0B64A3",
";  c #026AA4",
":  c #0D69A6",
">  c #0061AC",
",  c #056DAC",
"<  c #0B6CAC",
"1  c #1265A3",
"2  c #176BAB",
"3  c #136CAB",
"4  c #0070A7",
"5  c #0471AC",
"6  c #0B72AD",
"7  c #1371AE",
"8  c #1A70AE",
"9  c #0A6EB7",
"0  c #126EB3",
"q  c #196FB0",
"w  c #0474B3",
"e  c #0D74B3",
"r  c #0C7AB5",
"t  c #0876B9",
"y  c #0D7CBB",
"u  c #1375B4",
"i  c #1A74B4",
"p  c #137AB6",
"a  c #1C7AB6",
"s  c #1376B9",
"d  c #1A77B9",
"f  c #147CBB",
"g  c #1B7CBC",
"h  c #227AAB",
"j  c #317AA8",
"k  c #2277B5",
"l  c #237DBC",
"z  c #0F7DC7",
"x  c #177EC2",
"c  c #217EC0",
"v  c #0D82BC",
"b  c #1582B7",
"n  c #1582BD",
"m  c #1B82BE",
"M  c #3082AB",
"N  c #2381BD",
"B  c #2685BC",
"V  c #69A8BF",
"C  c #1584C3",
"Z  c #1B84C3",
"A  c #1689C3",
"S  c #1D8AC5",
"D  c #1484C9",
"F  c #1B85C9",
"G  c #168ACA",
"H  c #1D8CCA",
"J  c #1C90C3",
"K  c #1E91CC",
"L  c #148FD5",
"P  c #1D8DD0",
"I  c #1F92D1",
"U  c #1393D9",
"Y  c #1C96DC",
"T  c #2285C4",
"R  c #2A85C3",
"E  c #228BC6",
"W  c #2989C6",
"Q  c #2286C9",
"!  c #238DCB",
"~  c #2A8DCB",
"^  c #3482C4",
"/  c #2391C6",
"(  c #2992C5",
")  c #2493CD",
"_  c #2A93CE",
"`  c #2698CE",
"'  c #2A99CF",
"]  c #3091CC",
"[  c #3C9DCA",
"{  c #238ED1",
"}  c #2B8FD2",
"|  c #2594D2",
" . c #2B95D2",
".. c #2699D4",
"X. c #2B9BD5",
"o. c #2695D8",
"O. c #2A96D8",
"+. c #239BDB",
"@. c #2D9CDA",
"#. c #3196D4",
"$. c #319BD6",
"%. c #3597D8",
"&. c #329DDA",
"*. c #3A9BDB",
"=. c #2EA1D7",
"-. c #2EA1DB",
";. c #32A2D6",
":. c #33A3DD",
">. c #39A3DC",
",. c #36A9DE",
"<. c #3AAADD",
"1. c #1593E1",
"2. c #2D9DE1",
"3. c #319FE3",
"4. c #2FA2E3",
"5. c #2AA9E5",
"6. c #35A4E2",
"7. c #3AA5E2",
"8. c #36AAE3",
"9. c #3BABE4",
"0. c #34A6E9",
"q. c #37A7EA",
"w. c #3CACEA",
"e. c #3DB1E6",
"r. c #30B3EF",
"t. c #3EB1EB",
"y. c #31BAF5",
"u. c #499BC7",
"i. c #4793CD",
"p. c #47A3CB",
"a. c #77B7CD",
"s. c #69B6D2",
"d. c #7BBCD3",
"f. c #46AAE1",
"g. c #42ADEA",
"h. c #50AFE6",
"j. c #42B2E6",
"k. c #43B3EC",
"l. c #4CB4ED",
"z. c #46B9ED",
"x. c #4BBBEE",
"c. c #58BBED",
"v. c #45B5F1",
"b. c #4AB6F2",
"n. c #46B9F2",
"m. c #4BBBF3",
"M. c #4CBDF9",
"N. c #52BAF4",
"B. c #51BFFC",
"V. c #71BEE4",
"C. c #78C3D5",
"Z. c #7BC2DA",
"A. c #45C1F4",
"S. c #4DC1F5",
"D. c #4FC3FC",
"F. c #52C3F5",
"G. c #57C7F9",
"H. c #53C2FC",
"J. c #5CCCFE",
"K. c #7DC7E2",
"L. c #69CBF4",
"P. c #68CFF9",
"I. c #7BD7F9",
"U. c #82BCD2",
"Y. c #85C3D3",
"T. c #8AC7D5",
"R. c #8EC8D7",
"E. c #82C5DC",
"W. c #85CADC",
"Q. c #8ACADC",
"!. c #99CDD3",
"~. c #92CAD9",
"^. c #94D0DE",
"/. c #9DD7DE",
"(. c #AAD6DB",
"). c #82C7E2",
"_. c #85CCE4",
"`. c #8BCDE3",
"'. c #8CCFEA",
"]. c #92CCE1",
"[. c #8CD2E6",
"{. c #84D2EB",
"}. c #8CD3EB",
"|. c #8BD8EE",
" X c #93D3E4",
".X c #9AD5E3",
"XX c #95D9E6",
"oX c #9DD9E7",
"OX c #94D5EA",
"+X c #98D5E9",
"@X c #95DAEC",
"#X c #9BDBEC",
"$X c #86D9F6",
"%X c #99D7F5",
"&X c #94DBF2",
"*X c #9ADDF2",
"=X c #A4D6E3",
"-X c #A5DAE5",
";X c #AADEE5",
":X c #A6D7EB",
">X c #A2DDEC",
",X c #ABDDEC",
"<X c #A1DFF3",
"1X c #9EE1ED",
"2X c #8AE5FB",
"3X c #96E2F5",
"4X c #9CE1F3",
"5X c #9CE4FA",
"6X c #9BEBFD",
"7X c #A4E1ED",
"8X c #ABE3EB",
"9X c #AFE9EB",
"0X c #B2E8EF",
"qX c #A3E3F4",
"wX c #ABE6F3",
"eX c #A5E8F7",
"rX c #ADE9F5",
"tX c #A4E6FA",
"yX c #AAE6F9",
"uX c #A3EAFC",
"iX c #ACEBFA",
"pX c #B5EBF4",
"aX c #B9EAF5",
"sX c #B1EBFA",
"dX c #ACF2FF",
"fX c #AAF5FE",
"gX c #B6F0F7",
"hX c #B4F3FD",
"jX c #BBF4FE",
"kX c #B4FAFF",
"lX c #BCFAFF",
"zX c #C1EBE7",
"xX c #C5F6F9",
"cX c #C3F6FE",
"vX c #C2FCFF",
"bX c #CBFEFF",
"nX c #D2FDFC",
/* pixels */
":.C r ! &...Z ! ! 3 3 < 7 3 d 3 3 >X8X6.k.q.G &.q.Z H...z.| S r ) X.@.Z.@XK F K T ! H &. .E R *. .R ) qX Xw.H E &.S &.$.n F H f ",
"&.X.S Z H v.f ! @.Z n #.8 = d ~ R OXW.:.t.H v.-.9.) T ! ..T $...@.d a.Z.x.@.) _ ~ :.f ! C ! T E _ e m Z +X1.K < Z F Z n.3.n ) g ",
"| H F ! ! w.X.H C C b %.X._ m T  .4XhXq.@.:.H &.! r  . .Z -. .) :.$ qX@.@.C ! C | C f _ X.) 6.k.| k.n x w.T.A ) ,.! ) n X.n :._ ",
"w.:.j.:.H.8.X.! :.S Z :.! | Z T X.}.jXX.w.k.Z @.< X.E H e n S Z |  XY K ! r 6 C 5 m g.9.S k.9.g.@.6.8.f ) OXjXH | &.| k.X.) X.b.",
"/ @.v.7.q.z.,.m.=.H ! S 9.:.! T T tXgXk.m.f ! 9. .) e 9.X.C n.bXhXqXS. .E < q.n E ) 8.9.H m...) ) t t.) ) <.`.<...C ! O.X.q.k.) ",
"9.| H.@.x.! w.,.! $.@.H S :.) Z E #XuXA @.Z ! , r p < ) 6.$ aX|.wXf X.$.Z E _ k.:.w.H w.7.F  .&.8.| @.m.8.| jXqXhX@.@.:.n. .e.q.",
"B...n.:.-.H.-.b.! @.! $.f @.X. .+X}.eXI 8.X.C S ! S 7.F *X#X@X#X1XhXr n ! Z ! X.j.:.| -.:.F 6.X.q.v.9...x ! wX5X|.pX@.| :.| :.g.",
"M.X.S ..S ! f T S &.Z ) C 9.) O *X@XqX!.:.7.6 9.! :.*XeX$X| y n E.>X!  .&.! :.w.8.) @.{ w.3.g.@.j.$.9.:.Z 8X X3XZ.,X+X&Xy C 6...",
"S.S -.f , ! d ~ ! Z w.K ..X.bX[.>X XtXiXqX[.U.;XcXQ.].! k.K 9.) 8.qX; w.< ) $.k.n 9.@.M.w.| ,.9.n.S n X.X.&Xh ..H -.! :.4XtX@._ ",
"..w.r Z g.Z K !  .v.n.H F hX.X Xq.:.&.= * M 4X5XqXt F N g : g.p *.h.oXd ! p -.$.k.| :.@.:.:.,.v.w.! ' ..*XbX7.W g u d g d rXtX .",
"}.C _ g.E @.g.:.) w C @.+X^.+.@.6.K a d %.m T jX#Xf k N f b.X. .! T hX..S ) :. .! H ) F.e.t.z.F.C ..>.tX`.3 R f k g l d g g +X#X",
"Q.5X).Y.H e  .S H _ +XoX=X' @.9.)  .m @.) g f i *X$ ) g.= ! T @.8.m XXs.} ..! :.r @.:...n.t 9.:.X.! ! qX! & &.) Z ) ' X.- u d 3 ",
"i - x aX4X@XdX(.d.sX-X_ 6.:.&.a m S ..q.) j.) s I.&Xg.S f X.! X.T i jXcX! Z X.m X.! k.H.O.) w.A E &.#X5XQ p e S y R w.C ! r i Z ",
"~ # - u a E.`..XqX( @.k.c d e g.F ) @.-.A ..6.) 2 E.r  .! _ H 9.w.= c pX4X; H Z H ! ) H.j.j., ! | p.[.E r :.S :. .&.R ! Z S @.3 ",
"..:.C a : 1 ^ iXqXn.X.Z T  .-.y ) ) | 6.z.X.` H 8 tXm &.e )  .X.= *.d p o pX>XS ) :.&.n } ) ! ) E rXZ.E d T ..! X.D 9.) Z ! C $.",
",.E )  .g - a zX+X:.u 3 z C ! 6.) f ! ) ) f  .) K Q.m n 9.S H n.@.@.n.K g l }._.6X@.g.6.! S $ >X.XjX4X| ..C z.@.:.| 8.b p &. .b ",
"&.! H F &.&.q [ pX$.m :.m.K ) 6 E ..F 6.w.5  .n ! iX< F X.@.@.@.K 6.6.9.6 S d `.>XrX:XqXrXjXsXrX`.sX@XaX) X.:.C t.) ..6.y ! f n ",
"S S &.Q g.~ T 9XnXf @.| ) X.C H H &.m , 6.6.! Z 0X<X:.A q.:.:.G C K t.6.,.x.! yXtX}.vX .k l ] u T T E.#X$.X.t.6.:.A q.' &.7.w.w.",
"A S ! Z $.! T 8X> 6 :.s w.! ! ) F  .m S ! f ! ) wXtXZ @.| :.;.X.v.@.m.b.6.z.:.1X X7 N a i $ 7 R ! _ i 0X_.f | w.t./ w.S :.G.| n.",
"n X.n S | m Z oX! | Z H r p Z @.r g.:.,  .| _ ; #X$ 9.b.X.F.8.k...O.O.:.v.S ) hX0 < n  .! , F m H X.g T 7X| Z @.8.H.F O.2.H n.&.",
"w.q.$.m E T 9X4Xy.D.! &.! 7.K -.D.A k.@.) m vXoX`.~.C 6.@.v.G @.w.:.) y H v.wX. C S F  .#.f g &.&.@.~ g  XE X.f :.t.@.q.@.@.w...",
"k.f g s Z ,XwX#XuXH S f X.n X.:.w.t.C | yX#X7XyXOX#Xw. .! n X.j.6.9.n | ) gXtXp m  .) Z ..A :.S C &.6.3 iXhX) f Z  .s O.:.:.w.-.",
"m f &.! T.+XrXgX[.pXf A ..| H  .6.A @.yX,Xs | Z ..@ _.C X._ ) 8.v.) X.) A gX$.T m ! ) C $.) 6.w.K C p m i.wX} Z ! C = n v | y | ",
"@.m T.rX8X:.b.H { Y.qXI 7.@.M.X.y :.+X  C R i i g R bX X9.Z H S &.q.8.9.-XD T f.p C ,.k.k.t.! n ) :.r  .@.T.eXH , @.#...g ' T X.",
"rXiX.XT u < T 3 i Z *X8X X..-.! lXqXo.n ! 3 W N l g i >XxX .$. .f 7.S X qXS ' 7.@.z.H G.9.t k.&.! C n :.:.iXqXwXaX2X| 6._ m O [.",
"cXd u i < R a < R k i s wX|.rX[.Q.&.l R _ X.Z _ ..W 8 < eXa.! ..&.e  .a.O n :.@.:.S S , ! ;.&.&., g ! C #X7X5.q.U 7X#XwXtX+XqXOX",
"p d a _ < *., $.Q @.u m R <X XqX1 = T &.) @.S _ s F N.d #.7X&X#XoX X`.rXu ! f | 8.w.X.o.n.:.O.-.9...g @.4XZ ) H.t.9.8.&.S OX[.g ",
"6 $.! n Z s  .H n Q H Z i ) hX4X3 m @./ ! w.H q.v. .Z m T 7 < : F qX8XrX! f  .X./ @.7. .t.@.q.....) C 8Xa.q.S < :. .T  .y ..Q.l ",
"7.S E E #.S @.S ) m H k.! _ Q.].) Z E E q.| O.k.| Q } $.F g N 8 g 3 & jX, e  .0 X.S m.n.8.6.o.M.) H Z. Xn.f Z = n 6 e ! g ! 5X:.",
"r Z $.f ) ! >.X...{ F :.p X.%X~.H m  .H F :.9.j.-.) H C S Z  .S  .i i 5XqXX.l.9.X.:.:.S.t :.I y C L.rXj.r ) :.e g.X.X.e Z @.>X:.",
":.! *.m k.C X.<.z.m.y q.&. .Q.`.~ -.H 7.A ,.H 9. .X. .X.! T 6.X.! f a l @X6.! ! 5 n v O.k.k.@.w.k.C.! j.! C !  .y :.9.s Z # [.r ",
"s :. .) :.) y X.| H C ) ) m (.Q.;.H X.:.q.F f S E Z 5 v.C ) @.f X.f ; E &X_. .Z Z :.Z H -.t.:.Z lX.XS ) g Z / n.! C I @.| ;XY. .",
"=.q.t @.E S J. .2.:.8.Z 8.>.kXOXX.) t...X.| &.0 E y Z 6.w./ @.:._ =.! S  XqX_.q.H &./ 9.k.x k.z.>XD ! &.:.&.w.A Z m.y A @.4XY o.",
"..@.9.) @.8.v.) :.v.C H k.:.C }.u ) ) m -.w.C @.k.) J.) m.:.9.F g.Z Z 6.7XuX|.K./.P.f , H >.! X.tXd X.! G...e A r @.-.6 q.#Xq...",
"@...) | | g.:.N.! &.@.8.K C :.-X4X| X.f C C 9.C :.w.8.:.:.@.F k.| m S Z tX[.L.F bXqX>XlX) Z @.<X+X) m.! H.k.6.z.Z :.| k.) rXt.y ",
"s ! ! ! Z  .w.H  ...@.X. .) p e @XE.p f X.y 6.H :.k.4.) f , 8.k.'  .} :.&Xk = c u 3 N +XqXeXwXlXoXF 9.k.) :.D q.w <.w.E :.qX@ ) ",
") s -.&. .f ) r v.Z g C ! q.e @.e [.|.bXh.$X; p t...9.H ..) v.p | r &.qX{.- , ! ! S E g l N >X#XuXv.:.H $.:.q.C n m :. .Z ~  X9.",
"7.= -.k...H f Z E _ ) Z < s :.Z F qXqX@XW.hX4X`.W.Z.F.w.4...Z 0 X.! n +X0 ) :. ., p C g k.i p 8 Q.).{ q.) / A :.C / ) f E $.>XlX",
"vX5 ) S s C X.7.|  .Z e ! T r m +X+X3 d g g p u 3 iX&XL.:.&.H &.| ! [.T Z f ) w._ ! y H #.! } ! g eXK @.) | q.C Z &.s e )  .[.#X",
"qX{.C ) S b q.m E @.X.D e.) d p.fXi : o - _ : < a m z  X*X2.w._ Q.^.O e K 6.H ) | -.9.9.y ,.C C l I.7X6 7.) m T m m g.>.! O.dXqX",
"B @XeX2Xn 6.) w.t.:. .| C n.P  X8 R &.*. . .) H < C 7 1 qX@X[.uXgXL p ! q.z.9.>.:.| :.v.p ! r H k.T tXX. .@.H n.< 6 $.#.@ #X#XT ",
"6 m #. XpX@.n.| v.H | ..k.P.qX9 ! $.$ X. .) X.Z 9.%. .) < $.4X XvX! &.! :.Z w.K @.) K 6.S S )  .n H #X#X=.f X.) X. ._ -X+X% T u ",
"b m i d W.8XD G @.) ) :.$ qXu.< @.f >.| E m e n #.d Z r  .< d uX@._  .f G.B.` w.S | ) k.x.| @.,.) @.T.5XOXe Z 7.E p |.}.h u n  .",
"$.9.| < u rX;X(.fXI.xX>XwXqXd Z )  .9.f  .Z O.F H.k.X.Z _ H  .).vXf 7 >.g.z.x.X.w.w.X.j.) , g w ;.o.}.pXE.]. X=X*X^.5XO ) ! 7. .",
"n ) &.m & g o ~.qX+XrXqXhXi e _ e f O.Z  .| C ) A O.9...q.a 9.7 =X) ) f X.Z } ..Z 6.S k.f :.! S P Q.@X@.-.&.:.;.o Q.#Xu _ ) C / ",
" .F  .w.; m i @ l d ;.X &X= ) 7.! ~ _ ! 6.8.H.B.,.X.w.H.:.9. .n.5X5 T p f w.:...$.| g 9.w.H n C y <X) k.P | _ 3 m m XXg ;.S ....",
"k.)  . .! g.Z H C ! : T c.&X$.e m 7.E ) 8.| ..S.n k...) 7.:.) @.K.#X..X.Z f n y f r ) Z 7.) | C C _.g i i N s N T Z kXE.q.:.X.q.",
"z.S &.m ! Z  .s -.f.f k ~ [. . .g C :.J.@.C J  .) D :.#.m.) q.v.6X*X4X'.C S S ! !  .S C S 6.@.9.sXuXd Z | ..T m.e :.Z d.-.y _ @.",
"9.w.@.@.n :.:.G ! ! 7. .9.qX! v.) 8.x.@.j.@.t.@.8.6.j.e.k... .qXjX[.O qXE.{.E.hX0 p  .) H ! $.) '.-.) @.:.f e ! Z p e +X6.v.4.@.",
"H.-.@.q. .@.F n. .X.@.@.$.tXV.n./ K q.X.T H  .n q.8.f !  . .e @X>.6.| q.:.&.%.cXsXV  . .e ! ! .XE.! X...$.E E m s Z f Q.D n P :.",
"9.6...7. .<.S 9.:.k.k.m ! #XqX` w.) ,.t.S ....X.w  .e f r 9.[.# e E R p T g T 7  .uXrX! Z 6. XE.~ X.8.) ) ) X.b.| x.X.K.y z.Z X.",
"m ..y Z -.F.$.F ) k./ g H +X7X;X9.q.Z @.n @.&.S  .@. .) ! 6X@XZ g W d a l $.S n m N '.{.8XC.>XH g @.) f t 6.;.H.) F.:.@Xq.@.w.@.",
"S :.| ..) ' @.e.H n  .7.u.#X`.*X`.&...) _ X.) 9.) %.Z ) f qX+ n ../ < ) e f m p  .S ] ! gX[.+X! Z _ 6 Z <.9.n.n.J.w X.&X< @.m ..",
"r ) 9.b.n.H ;.@.f H d $ 8XvXf Z  X&XU._ ! K r 7.! ! -. .m lXn.X.p X.n &.7.z.) T ! S n Z C OXiXn S C f ..&...g.! w.9.v.wX>Xm e ! ",
"! k.e Z X. .9.! ) f 2XhXf...S  .f @.R.#XnX, 7.Z ) ..:.6.Z.Q.X.k. . . .4.) ..| :.@.a &.!  .v `.! @.g.S y ..6.6.@.g.,.t.nX;X~ ) ~ ",
"y @.C ! v. .Q < %.x sX( D.@., k.; e &.m `.uX$ | y uXwX>X{.OX . .p g.O.S S ) D 2.y ..7.| | ) #XX.| b X.6.8.x.H -. .@.q.wX[.-XZ ..",
"4 e ..5 = p 9.f Z 3XU S.9.9.) | n $.~ n  .[. X^.8XsXA.b dX@XhX' :.@.e 9.k.q.X.O.:.A 6.q.S ..qX3X,.6.@.I -.:.| I C C &.5X[.OX@X#X",
"&X X4XkX! n ) S %X+X:.H q.X.H ..=.Z E ! E vXaXB C k.n.: m i.wXf ! r :.! z.C w.X.@.6.` 9.X.:.aX0X8.q.k.X.z.H | X.f ! >Xd.$.H f f ",
"N _ O.5X>X-XlX}.>XU 6.8.@.A 6.X.@.C H g b `.}.E T f u < f d #X-XX.S r m < -.3.6.x.) M.n.) =.=XW.y 6.! @.B.H Z  .@.gX7X;.:.:.d q ",
"p 8 #.1 o [.4X7XyX-X .X.@.K ) ) ) t.X.w.d.Y.- i - w.O.w.@.X. ._  XqX! g.&.Z m.q.@.w...9... .>XqXqXS r  .A ! b.O...#X..m.@.Z p n ",
" .) i : : 3 p a X .XtX:.M.:.w.A @.H.O.W.#XX.! y 8.| H q.t.w.k.g 3 jXwXm.X.) r C :.(.0XtX`.7X<XrXT.cX) Z S ! @...[.w @.) p Z n S ",
"f 5 d 6 7 3 g k i a K.OXpX| X.@.-...1X&X .@.M.O.A q.X.X.X.-.e.Z !  . XE _ f _ E.qXqX+.] 6.,.:.k.hX4X~.X.k._ + -Xr.M.( ) f r @.X.",
"X.@.S X...X.$.= 3 1 g j >X.XqXqXpXZ.+X6.| | H | ) @.6.X.8.n.S.r Z ! f. XfXlX&XyXZ S &.@.S Z @. .b.6.3X[.&XXX>X6.H ! ! ) y &.Z H ",
"! r n  .E X.H ! N l - < < l 2 $X*X*XQ.:.o.9.<.:.) m.A ..8.H -.! m ! f hX{.xX@.A X.v | O.@.f $.Q  .g.x.*XQ.6.6.:.Z !  .n  .g ) w."
};
