/* XPM */
static char *Weathered_Wood_64[] = {
/* columns rows colors chars-per-pixel */
"64 64 239 2 ",
"   c #000000",
".  c #0C0E09",
"X  c #170B03",
"o  c #151613",
"O  c #2A170A",
"+  c #291808",
"@  c #35240D",
"#  c #302615",
"$  c #37291A",
"%  c #37352B",
"&  c #2E3631",
"*  c #45290C",
"=  c #442B13",
"-  c #49351A",
";  c #563817",
":  c #473C29",
">  c #543D23",
",  c #593E27",
"<  c #63421E",
"1  c #5B4629",
"2  c #554834",
"3  c #514C39",
"4  c #644627",
"5  c #6B4E2C",
"6  c #704F27",
"7  c #73532A",
"8  c #664C33",
"9  c #684F3A",
"0  c #6C5335",
"q  c #665239",
"w  c #755632",
"e  c #745837",
"r  c #7A5B35",
"t  c #735B3C",
"y  c #7B5D3A",
"u  c #7B633A",
"i  c #2E5666",
"p  c #345C6D",
"a  c #48524F",
"s  c #6D5C44",
"d  c #775D43",
"f  c #635B52",
"g  c #7A6345",
"h  c #726958",
"j  c #586667",
"k  c #516E74",
"l  c #686D62",
"z  c #6F756F",
"x  c #86562C",
"c  c #85633B",
"v  c #826542",
"b  c #866A45",
"n  c #8A6842",
"m  c #836B4D",
"M  c #8C6D4B",
"N  c #8D714A",
"B  c #95754C",
"V  c #887357",
"C  c #957552",
"Z  c #957B54",
"A  c #997C55",
"S  c #997B58",
"D  c #A47956",
"F  c #78847B",
"G  c #97845B",
"H  c #9E805A",
"J  c #A2865E",
"K  c #978466",
"L  c #818278",
"P  c #A38462",
"I  c #A68B62",
"U  c #AA8C67",
"Y  c #A68C69",
"T  c #AF8F6A",
"R  c #B7966B",
"E  c #B29572",
"W  c #B69B77",
"Q  c #BFA179",
"!  c #C3A67C",
"~  c #396D84",
"^  c #3C738B",
"/  c #377898",
"(  c #46798E",
")  c #477D96",
"_  c #3A8DAE",
"`  c #4C8399",
"'  c #4B849C",
"]  c #53869D",
"[  c #59899E",
"{  c #798B8A",
"}  c #6C8A92",
"|  c #4B88A3",
" . c #548CA4",
".. c #5C8DA3",
"X. c #528DA9",
"o. c #598FA8",
"O. c #4C91AD",
"+. c #5290A3",
"@. c #5B90A5",
"#. c #5592AC",
"$. c #5B93AB",
"%. c #5D98AE",
"&. c #4A96B7",
"*. c #5E9AB2",
"=. c #5899B4",
"-. c #5E9DBA",
";. c #618FA4",
":. c #6694A7",
">. c #6395AC",
",. c #649AAD",
"<. c #6A9BAF",
"1. c #749CAA",
"2. c #6097B0",
"3. c #649CB4",
"4. c #6A9DB3",
"5. c #649EB9",
"6. c #729FB5",
"7. c #78A2AC",
"8. c #65A1B6",
"9. c #6DA2B6",
"0. c #65A2BA",
"q. c #6BA4BC",
"w. c #6DA9BE",
"e. c #72A2B6",
"r. c #73A5BB",
"t. c #75A9BD",
"y. c #79A8BA",
"u. c #7AABBD",
"i. c #7CB1BC",
"p. c #559DC3",
"a. c #58A4C3",
"s. c #6DA6C1",
"d. c #66A8C7",
"f. c #6DAAC3",
"g. c #72A6C1",
"h. c #79A6C1",
"j. c #74ACC4",
"k. c #7BADC3",
"l. c #75AEC9",
"z. c #7BAEC8",
"x. c #6BB4CD",
"c. c #75B1C6",
"v. c #7DB1C5",
"b. c #76B2CB",
"n. c #7CB4CB",
"m. c #7DB9CE",
"M. c #6CB7D4",
"N. c #74B5D2",
"B. c #7CB6D1",
"V. c #75BCD3",
"C. c #7DBAD2",
"Z. c #77BDDC",
"A. c #79C1DC",
"S. c #77C8E7",
"D. c #8D9490",
"F. c #9EA19B",
"G. c #A0A090",
"H. c #839DA5",
"J. c #84A1A4",
"K. c #9AA9A9",
"L. c #83ADBD",
"P. c #8AACBA",
"I. c #81B0BE",
"U. c #9AB3B7",
"Y. c #A6B9BD",
"T. c #CEBBA5",
"R. c #81ADC4",
"E. c #81B2C6",
"W. c #8BB5C4",
"Q. c #82B5CB",
"!. c #8AB7CC",
"~. c #85B9CD",
"^. c #8ABBCD",
"/. c #91BDCD",
"(. c #83B6D1",
"). c #84BBD3",
"_. c #8ABDD3",
"`. c #85BEDA",
"'. c #8CBED9",
"]. c #92BED7",
"[. c #8EC0CE",
"{. c #95C2CF",
"}. c #84C1D6",
"|. c #8CC1D5",
" X c #86C2DA",
".X c #8CC3DA",
"XX c #8EC9DE",
"oX c #93C3D5",
"OX c #9AC6D6",
"+X c #92C5DB",
"@X c #95C9DD",
"#X c #9ACBDE",
"$X c #9AD1DD",
"%X c #B0CBCC",
"&X c #A8CCD3",
"*X c #A1CADD",
"=X c #AAD2DA",
"-X c #84C4E3",
";X c #87C8E3",
":X c #8ECAE3",
">X c #95CBE2",
",X c #94CAE5",
"<X c #9ACDE3",
"1X c #8BD3EB",
"2X c #95D1E5",
"3X c #9DD1E5",
"4X c #95D2EB",
"5X c #9CD3EA",
"6X c #9BD9EE",
"7X c #97DCF4",
"8X c #A1CEE1",
"9X c #A2D3E6",
"0X c #A8D8E7",
"qX c #A2D5EA",
"wX c #A5DAED",
"eX c #AADAEC",
"rX c #B7DAE5",
"tX c #A6D7F0",
"yX c #A4DAF2",
"uX c #ABDCF1",
"iX c #B0DEF0",
"pX c #9DE0EF",
"aX c #A8E1ED",
"sX c #B9E2EC",
"dX c #ACE2F6",
"fX c #BBE5F3",
"gX c #B2E4FA",
"hX c #B7E9F8",
"jX c #B5EAFD",
"kX c #ADF0FF",
"lX c #BAF2FE",
"zX c #C4CCC1",
"xX c #C5E0DE",
"cX c #CCE9EA",
"vX c #C3EBF2",
"bX c #C6EBF4",
"nX c #C6F2FB",
"mX c #D6F3FA",
"MX c #E1FCFF",
/* pixels */
"dXg.$.n._._.t.Q.Q.E.z.k.u.9.            #X@Xq.Q._.>.eXE.+Xk.k.r.k.m.`.5..Xg.2.j._._.Q.#X|._._.<X+X_.Q.+Xu.+Xr.k.>X~.+X<X>.6.r.k.",
"              sX<X>.4.<XE.,.n.qX9XQ.4._.|.k.<Xv.@X@X_.~.|.e.>X).>Xk.]  .5X!.k.@X+X>Xu.Q.E.~._.).@Xr.Q.).z.n.k.O.pX# - V f 3 xXvX",
"+Xv.z.~.!.4XhX                a 3X.X>X+XW._.!.*XoXL.#X>Xb.V.:X!.+Xq.|.~.|.e.+Xu.m.~.k.+X@X_.|.@XQ.vX- o { * . OXXX_.9.4.@Xr._.oX",
">X~.>X_.tX#XQ.z.+Xv.<.+X~._.!.+X<X).<X^.+X<Xv.+X[ @X_._.;.u.W.z.|.e.>.u.E.e.e.k.@.k.#X                          cX<Xr.+X<X_.+XuX",
"9._.3X+X@X_.+X<X+X2 e C.4XaXd |._.<X#X9XwXt._.wX+X+X,.uX#Xt.uX9X3X_.0X+Xk.<.qXv.^.n.@X+X~.qX_.E.Q.) oX|.|.dX9.Q._.3.~.~.Q.+X<Xi.",
"vXfXMXC.9X4.vX% y 8X+X8 &XaXn E.aXQ.oX0.              oX5Xz.wXv.oXE.!.*Xb.x.A.7XfXU.o                 9X.XQ.qX@X+X_._.N.kXrXcX).",
"qX9.<X+X_.uX|.jX~.3X$ +Xe.z >X|.z.yX=Xk 3 y.k.k.^.E.tX>X!.j.Q.~.~.+X4.r._.v.).Q._.+X~.|.Q.0._.~._.>X_.Q.e._.@X@Xv.#X~.n.!.v.Q.<X",
"3Xj.>.Q.w.%XJ.l 0X<XE.= /.~.|.X ~._.+Xe.~.j.,.qX(.qX<X+XjX_.k.@.>.j.Q.|.#X).>X_.@Xv.~.k._.>X+X~.@X~.^.#XQ.+Xz.<Xw.@XE._.#X<.!.!.",
"          2XrXoX|.E.{.: 0Xn.{ t._.v.<X3X>Xv.4.Q.tXk.4.!.<X~.#XE.m Y v R [ oX+X<X.._.k.+X#Xj.~.@X>X9.>.<X+X|.+X|.n. XN.!.;X      ",
"z.eX4.k.qXQ.t.~.Q.eX3X4.4.9Xr.v.3X).5X .e._..X>X+X:.z.oX).4.uXv.qX'.n.u._.4.5X+X>Xj.~.+X~.~.^.5X=Xc J 6 ; U R T `.~.~._.Q.<X>X~.",
"                                                                                                                                ",
"0.B.o.%.3.$.(.#.w.c.$.*.j.3.j.B.2.C.n.).4.j.f.j.A.j.w.,Xp r.h F.1Xg.f.5Xc.C.n..X$.n.g.q.:X) v.n.C.k.w.). X| ).j.w.l.m.C.` j.w. .",
"x ; , P t 0 bX5.^ .X8.t.c.n.j.c.j.5.w.l.s..X5.0.XXs.5Xw.3.).k.c.j.0.`.2Xw.3.`.5.c.4.).2Xx.4.E.s.t.N.M.x.M.=.@.q.X.Q.2X%.(       ",
".X@.o.8.).5.5.3.).5.n..X`.s.3.n.,.8.b.f.o.q.C.8.0.) X.n.a.0X/.7X2X.._.XXn.t.3.8.w.C v R I C.| 5.n.$.$.C.^ .Xw. XC.C.n.j.w.w.C.j.",
"  ).5.j.*.f.:X5XyXnXOXm.n.n.c.) 3.w.f.).).).n.g.g. X5.`.2.0.q.f.p _.f.,.,.C.U.                U.Z.}.| v.3.n.c.j.                ",
"  t.f.n.%.o.m.>Xw.l.w.3.' ' 0. Xn.h &XsX&X&.%X                  s.j.4Xf.j._.j.o.n.C.yX:Xw.w.n.s.8.5X).n.C.+XlX  4 4 G 6 7 E s = ",
"E     | ,X.Xq.3.:X.Xc.j.,Xs.j.' n.B.g. X X^ `.%.g.n.( 3.s.w.c.5.%.n.3.n.] 5.).@.j.`.q.j.C..X`.).j.).j.g.j. Xq.  e h N P ; H 4 w ",
"- 8 >   5Xv.).j.      x.V.sXd.x.a.Z.=./ S.:X).3. .n.C. .B.c.j.5.| *. X).n.).n.).%       k J.lXn.oXl.&.{.D.D.%X_.          v Y 2 ",
"      j.).      $ w U   4Xr.z.n.s.g.@.3.w.3.5.(.n.5.6.              hXfX0XbXb.q.w.g.`.j.n.] 5.).C.:Xs.$.8.5.w.).).*.`.0.B.      ",
"@.$.~.=X  - - u               S.$.).n.^ |.c.j.f.g.w.>XdXj.2Xc.|.q.j.f.n.6X| 2.:Xn.%.8.`.m.` w.@.5.:Xs.C.). Xq.g. X5X] c.s.*..Xn.",
").n.`.0.0.       XmX;XU d :X3.c.4X%. Xw.5.$.                $.n.).f.$. .]  X,X& p 2X~.6X<XX.2..X).-X>XC.q.c.m.q._..Xj.l.j.j. Xf.",
").0.q.' $.z.l.w.`.w.8.@.B.$.w.j.).}.$.3.l.8.k.'.  2 T C b y   ~.n.n.' 0.3. X.X3.w.).n.w.B.%.`.w.4._.`.o..XC.n.X.8.).' l.j.g.`.5.",
"                                                                                                                                ",
"V 1 d.B Z P lX0.R.[ _.j.+XE.@XE.>.v.v.3. X<X_.z.k.>X<Xk.3X!.j.z.qX+X|._.a.K.n.yXv w C lXG.:X_.~.|.5Xo.#X|.$.<Xv...+X@X_.Q.~.Q.`.",
"<X<X+ g = C._.9._.z.E.+Xv._.|.r.<X@X3Xv.5Xu.oXoX_._.~._.qX+X#X).r.uX!.;.~.|.~.+X^.I r ! oX..>X<X_.sX&X                  W.z.9.v.",
"Q._.).E.k.<X~.q.<XoXt.).+Xm.>XE.Q.eXr qXF M E.+X|.<Xu.k.2X] E.oX].<._...|.k.+XE.Q.4.e.[ E._.^.z.] R.    _._.~.<Xv.|.Q.+X>X~._.Q.",
"j.n.^.>Xe.0X .>X_.+Xt.~.+X_.k.|.      r     ).oXe.n.jXn.qX+X!._._.t.R.#X4._.r.n._.+XE.Q.qX).!._.    O P       gX3X4.@X+Xe._.u.C.",
",.3X^.u.Q.r.|.~.e.|.~.Q.^.>XgX  P b N   8 T   >X<X|.k.k.<Xk.k.u.+X#XoX@XQ.u..XoXe.~.Z.Q.<X_.|.  1 N = N   U 8   <X3X_.@Xz._.9.#X",
"<Xn.Q.^.+Xu.#X^.|.L.~.0XoXoX9.  C g H 4 I M   @X~._.*X*X              0Xr.t.>Xe.+Xj.wX>X.X_.~.qX  b w - E N   ` eX              ",
"e.v.+Xu.~._.#XE.u.E.e.<Xk.|.].  ; w n y ;   hX@X|.n.~.z._.v.{.v I j.k._.+X>XuX#X|.+Xj.XX^ ).c.[   K P Q 5 g   4.wX<XqXk._.|._.<X",
"c = mX0XeX3.v.^.qX<X4.3X3Xs q 1.  d v A   _.t.`.(.+X5X                |.n.>XQ.E.[ 4.$.n.>X>XQ.  C r 1 Q , M   ^.4._..Xt.k.=X!.; ",
"@.@Xk.n.^.k.9.n.!.k.9.k.3Xv._.4.-       @XX n.Q.Q.8 ,.qXr.e.E.v.5XQ.~ _.|.k.@Xn.9.|.).9.v..X^.e.    $ S     u.5Xv.u.j.Q.k.v.9.qX",
"n.+X` n.r.v.dX)._.+X|.r.t V Q.E.|.b.@Xj.5 +X+Xe.2 $ y.+X>Xu._.|.<X|._.E.Q.|.4.3X_.<X|.<X3Xr._._._._.    >X<X} . 4.3X>.k.|.[./._.",
"k.E.bX}.uXlX>Xj.+XqX9.q.@X>Xk.4.Y.@ 7 k.V lX5 |.9Xz.jXk.qX|.|.v.<X!.v.qX@X9XQ.k.~.gXr.@.~.3X0 +XoX_._._.0Xx...9.* ~._.4.+X~._.k.",
"^._.k.k.k.<X+XdX_.(.~._.Q.~.>X_.|._.}.> z.4.wX4.|.wXlXfX0X=X8XuXv.E._.z.>XE.q.Q.@X_.).>X~.E.3X-X!._._._.lX@XoXq k.+X).@Xk.5X3X;.",
"2.)._./._.u.              0X3.4.|.$.u.9.oXt.|.r._.>X_.z.r.[ |.<Xv.|._.<XD.sX0.Z.~.L./.(.<X8X_.5XE.t._._.k._.g.>X4.|.|.).N.hX_.n.",
"E.e.XX3X@X  K w W * C b b   q.qX|.E._.tX~.<X) u.|.qXvX9.^.y.wX4.|.r.5X5X~.,.>.).).~.+XQ.+X_._._.3X>XQ.v.~.~.|.4.4.k.3X+Xv.+Xk.>X",
"                                                                                                                                ",
"j.) j.0.] s.`.<XC.`.g.0.n.v.' 3.8.j.w.0.c.n.f.0.9.m v H N P m a d.w.q.9.w.w.j.,Xj.).$.q.|.n.n.).j. X8.v.3.w.).%.w.`.2.3.n.n.8.w.",
"n.8.=.n.k.| A.=.d.;X            k l.@.( 2.c.^  .w.8.B.*.N.c.6Xn.w.o.b.             .M.S._ A.#.-.n.3.j.k.eX3X$XP.q.3.).`.j.n.yXc.",
"_.e.v..X3. Xl.|. Xj.g.5.] :X@.5.@.).).>X).).c.d.) -.g.q.n.n.3.).C.7.  4 8 e 2 c -     ). .c.$.f.}.B.).C.n. Xw.yX[ $.).~.X.r.l.j.",
"$.n. X0.0.j.}.0.                       Xn.c.m.w.,X X`.w.g.jX        U N S 7 S g   3.8.g.2.2.C.).3.f.n.m.x.#.n.n.8.l._.j.w.N..X0.",
"+.l.j = & }.*.*.j.5.=.[.i J.5X3.).8.5X5.n.3.o.5. X>.w.o.).) 5.,Xj.k.~.          0.5.%.j.|.3.8.w.3.Q.' N.0.OX5.C.8.X.-.d.v.5.8.n.",
" X}.c.      q.j.2Xm. Xg.c.C.g.g.f._..X@.`.w.j.$.4X`.j.2.n.f.n.0.f.0.` .X@X)..Xw.).m.q.m.j.~ 3.~ j.0.0. X' 3.0.o.j.@.c.c.3.r.5X(.",
"<.j.  1 O 2               f.] c.&.8.|.R.~.s.-.z             }.j.5.n.).5.}.8.`.C.w.f.%.`.m.b.#.o.4.[ v.V.                ).j.q.w.",
"n.  D W ; I c 0 C M Z C 4   c..X8.g.n.g.~.XX.X5Xc.0.n.yXj. X0.qX`. X4.$.q. X).b.C.n.q.~.).` @. .p w.j.  , 5 J r G Y c T.    3.3.",
">X2.                      j.`.#.8..Xf.5.C.3.g. X .).8.8.l.j.&.{.H.                  f.8.).o.8. .o.0.m.<.  S > A 5 C E 5 P B   `.",
"iX7.<.,.w.8.c.o.}.@X%.j.n.>.).`.3.f.v.5Xl.] 8.q.q.%.j.|.>X$.).:X Xl.B. .0.n.f.5.).c.8.0.5..Xd.b.l.4Xj.w.n.    E + V         M.4X",
"m.C.0.q.[ d.C.p.}.Z.;XC.5Xs.3.`.*.).}.w.|.s.|.j.m.~.).i..Xb.j.                  s.] C.n.j.w.n.j.5.b.n.n.;X5.]        .w.s. Xn.g.",
"fXf.s.N.=.5.5.>X=.b..X X_.`.l._.8.%.z.c.z.j.$. .g.V.#.q.).C.  t C U y E H C T f   / b.B.' d.8.3XX.n.C.N.B.f.w.0.$.f.u.[.& . +Xj ",
"I J y , l `.4.|.^.oXeXE.Q.Q.'.v.+Xq.oX8X1.W.u.@X$.'.u.k.>.<XE.                  5X|.>X'.).@X              u._.*XQ.@X~.d.[ mX5 M ",
"-.I.>.t.|.5XQ.t.e.qX~.j.v._.~.<.+X+X    >.u.@Xk.@X+X@Xv._._.~.).Q.T.rX1XZ.-XV.v.oX_._.~.|.,. X~.!.>Xn.N. .>XE.qXk.qX|.~.OX!.oX~.",
"~._.v.j.C.~.~.oXh.R._.<X!.~.9.Q.    M -     |.9Xj.K.2 - # % 1 . .X^.;._.9.q.P.L.@XL.2X7Xq * p E.Q.|.Y.                    +Xr.|.",
">._.gX<X3Xk.E.v.j.j.k.n.~.+Xu.  Y 9 < y 8 *   3Xk._.>X+Xv.uXwX3Xk.+X!.+X!.qX_.E.^.v.u.Q.).~.uXr.~.~.u.j._.j._.j.|.@X5X|.|.v.e.E.",
"_.3Xe.E._.R.3X~.Q.r._.uX|._.~.  y H r S C   eXe._._.+X3X>..._.wX_.-XxXY.0XK.O D.=XrX<X_.>X..n.|._.<Xv.3.n.|._._.tX+X>X<Xk._.^.+X",
"8.<XQ.oXdX@X_.<.<Xk.wX~.qXE.;.  + u m N >   n.k.L 0 V O A.d.`.@X7.uX~.9.4.W.0.1XO.V.yXM.j.R./.L.g.;.k.|.|.<Xv.).        +X+X+XsX",
"t...@X@.` e.@X                  e ! C 1 U   k.9.~.+X3Xo.n.                |.~.~.Q.9._.|.4.v.+X~.~._.k.v.n.mX{   - 1 s s         ",
"  _.v.j.^.k.Q.Q.).k.oXt.<X@X4._.    c t   #X+X<X>.qX3Xz.  w Y 0 K # h 4 :         |.v.+Xv.0.>X_.|.+X@XQ.+Xn.  S 5 S S 5 E M v g ",
"_.<X>X,X&X} vXgXhX;X|..X!.<.d d j 4.    v.4 s nX+Xu.r.9.j.    # g @ r n * =   ~.9Xk.3X>Xt.n.).,.9.|.u._.uXn.v.    K b B A I     ",
"r.^.qX4.u._._.|.3X!._.Q.~.1 E.9._.g fX#Xe.;.r.Q.k.<X_.|.+X|.eX  + 0 > m d 1 m       aX@XQ.k.sXvX} % 1.bXwX(.uX+Xv.          v.t.",
"@X|.E.k.Q.r.~._._.v.@X!.9X: s 9._.gXH.X '.v.% @ |.k.t.>X+X3X+XQ.              >X>X>X|.<Xn.|.+X|...!._.E.~.~.|._.k.3.|.|.4.~.9.k.",
"                                                                                                                                ",
"<X~.k.~.|.3X@Xa j a jX Xz.oX@X|.oXr.e Z.|.|.v.!.~._.+X!.>XwX3X4.k.Q.<Xk.Q.<X^.>XQ._.>X+XQ.E._.P.5X^.r ).~.t.!.|.v.Q.`.n.g.!.~.v.",
"          @Xk._.#X+X@.k.k.|.k.Q.|._.<.oXE.#X^.@Xz.qX4.e.@Xt.j.v.k._.>.3Xv.|.!.r.).8.E._.z.o v l -XjXzXt O _.#X^.E.oX~.k.|.e._.>X"
};
