/* XPM */
static char *Weathered_Bricks_64[] = {
/* columns rows colors chars-per-pixel */
"64 64 253 2 ",
"   c black",
".  c #0A0000",
"X  c #150100",
"o  c #1E0000",
"O  c #240200",
"+  c #290400",
"@  c #270801",
"#  c #2A0A00",
"$  c #360C01",
"%  c #2F1300",
"&  c #391602",
"*  c #3C240B",
"=  c #4A0602",
"-  c #580702",
";  c #431501",
":  c #431B02",
">  c #4B1D06",
",  c #571801",
"<  c #670D01",
"1  c #641301",
"2  c #6C1401",
"3  c #661902",
"4  c #6C1B00",
"5  c #731502",
"6  c #751C01",
"7  c #7A1D01",
"8  c #492606",
"9  c #572807",
"0  c #5B340B",
"q  c #4C2B14",
"w  c #502D17",
"e  c #593619",
"r  c #692703",
"t  c #742201",
"y  c #7C2301",
"u  c #772B05",
"i  c #7D2902",
"p  c #66340A",
"a  c #783809",
"s  c #673917",
"d  c #743D16",
"f  c #4A3422",
"g  c #5C3A26",
"h  c #663D24",
"j  c #784509",
"k  c #7A4616",
"l  c #6C482E",
"z  c #784826",
"x  c #841D03",
"c  c #822401",
"v  c #852B01",
"b  c #8B2C02",
"n  c #882904",
"m  c #932C02",
"M  c #853102",
"N  c #8C3203",
"B  c #8D350B",
"V  c #893809",
"C  c #933403",
"Z  c #9A3503",
"A  c #943904",
"S  c #9B3B04",
"D  c #943509",
"F  c #9B3708",
"G  c #943B0B",
"H  c #9C3D0C",
"J  c #8C3913",
"K  c #963E13",
"L  c #A33C04",
"P  c #A23E0A",
"I  c #A03E14",
"U  c #9B3F22",
"Y  c #89490D",
"T  c #9D4106",
"R  c #94420B",
"E  c #9D420C",
"W  c #8A4917",
"Q  c #9B4314",
"!  c #994716",
"~  c #935819",
"^  c #A44205",
"/  c #AA4405",
"(  c #A3430B",
")  c #A9450B",
"_  c #A6490C",
"`  c #AB4B0C",
"'  c #B44B0A",
"]  c #B24C0C",
"[  c #AC540C",
"{  c #B4520D",
"}  c #BC560C",
"|  c #A34513",
" . c #A84614",
".. c #A54A14",
"X. c #AB4C14",
"o. c #A44B1B",
"O. c #AC4D1B",
"+. c #B24D13",
"@. c #B34A16",
"#. c #AD5115",
"$. c #A5531B",
"%. c #AC521B",
"&. c #B45214",
"*. c #BB5515",
"=. c #B65915",
"-. c #BC5A15",
";. c #B3541B",
":. c #BB561B",
">. c #B55A1C",
",. c #BC5B1C",
"<. c #94641B",
"1. c #B5611B",
"2. c #864E24",
"3. c #9A4A22",
"4. c #975426",
"5. c #875838",
"6. c #A44C23",
"7. c #AC5422",
"8. c #AB5827",
"9. c #B45625",
"0. c #B45B23",
"q. c #BB5C24",
"w. c #B55D2B",
"e. c #BC5D2B",
"r. c #A95C37",
"t. c #B65B32",
"y. c #986624",
"u. c #916B35",
"i. c #A7662B",
"p. c #BC6124",
"a. c #B76328",
"s. c #BD632B",
"d. c #A5732B",
"f. c #A76336",
"g. c #BD6533",
"h. c #B76837",
"j. c #AA7834",
"k. c #B67839",
"l. c #C4580F",
"z. c #C35B14",
"x. c #C35C1B",
"c. c #C85A1A",
"v. c #C3621D",
"b. c #C9631B",
"n. c #D5681A",
"m. c #D46F19",
"M. c #C35D22",
"N. c #C15D29",
"B. c #C46324",
"V. c #CA6524",
"C. c #CB6925",
"Z. c #C4642C",
"A. c #CA6629",
"S. c #C46A2C",
"D. c #CC6B2D",
"F. c #D56B24",
"G. c #D26C2C",
"H. c #CB712E",
"J. c #DB7527",
"K. c #D4732B",
"L. c #DA742D",
"P. c #C36433",
"I. c #C56B33",
"U. c #C76A36",
"Y. c #CC6C33",
"T. c #CA6D3C",
"R. c #D16D33",
"E. c #D16F3B",
"W. c #CE7234",
"Q. c #C77639",
"!. c #CB723B",
"~. c #D37334",
"^. c #DA7434",
"/. c #DB7A35",
"(. c #D4743B",
"). c #DA753B",
"_. c #D57A3C",
"`. c #DC7B3C",
"'. c #E87A2A",
"]. c #E37D36",
"[. c #E37D3C",
"{. c #825F46",
"}. c #926D4F",
"|. c #B27446",
" X c #CA7543",
".X c #CB7146",
"XX c #D37442",
"oX c #D47A43",
"OX c #DB7C42",
"+X c #D87B49",
"@X c #E37D43",
"#X c #B3813A",
"$X c #C08437",
"%X c #DA843D",
"&X c #E7843B",
"*X c #F38B3D",
"=X c #BB8747",
"-X c #B98B4A",
";X c #B28465",
":X c #C58C4B",
">X c #DD8243",
",X c #DC844B",
"<X c #DA8948",
"1X c #CF924F",
"2X c #C8944C",
"3X c #DB8755",
"4X c #CA9655",
"5X c #D69A59",
"6X c #E38344",
"7X c #E98543",
"8X c #E48A45",
"9X c #EB8B45",
"0X c #E4854B",
"qX c #E5894B",
"wX c #EB8C4C",
"eX c #F18B46",
"rX c #E8924B",
"tX c #F5964C",
"yX c #E48A53",
"uX c #E58A54",
"iX c #F28E53",
"pX c #EC9354",
"aX c #EA9559",
"sX c #F59856",
"dX c #F49B5B",
"fX c #CCA25A",
"gX c #DAA45C",
"hX c #F8A458",
"jX c #FAA35C",
"kX c #EA9661",
"lX c #F59B63",
"zX c #D0AA64",
"xX c #DBA867",
"cX c #E5A767",
"vX c #FAA667",
"bX c #FBB367",
"nX c #E6AF72",
"mX c #F9AB73",
"MX c #EBB874",
"NX c #F9B877",
"BX c #EEC27A",
"VX c #F4C57C",
"CX c #D8B984",
"ZX c #F8BD82",
"AX c #EFC280",
"SX c #F7C986",
"DX c #FAD48A",
"FX c #FBCF94",
"GX c #FAD997",
"HX c #FEE39C",
"JX c #FEE8A6",
"KX c #FFF7BA",
"LX c #FDFFCB",
/* pixels */
"                                                                                                                                ",
"5X X0.V 8XFX: C eXx #   4.o 4.uXhX&.; S G 8 iX..pXaXXXi 9.Z P.+.q.H 2 4 S.;.) 6X;.3X  2X, L z.z.J.$.! ' , v $.6 ..Z 8 jXM.m pXx.",
"^.] :.`.' tXY.M ] @.{   8 ..B.Z.>X0X6XN.q.E O.dX).T (.T.{ 0.wXX.].y ~.Q o.t x.6 I.Q   MXQ.T ,.0 I.b.` b wX- 4 v T e.6 b qXn L Y.",
"6XH A.X.vX_.$ ..&.A y   & *.A.7.OXB sX;.).wXS s.< !.K V 6 ,.; n 3.6 < C b 6 Z y = b   MXi d _ ~.9.O.Z.c `.2 jXy aXD.q.OXb.) ;.mX",
"b w..X@.w.wX,.V.=.`.9.  z ,.7.O... X`.0XvXv &.hX:.R.- vX`.b dX>XW.( sXY.C 7 !.Z ` y   FXN OX& L | 1 B.p.(.wXC b.S.y `.X.+.qXOXa ",
"X.K lXt G.N s.^ e c.(   * p pXS jXq.P.2 Z.] ,XB T L 2 ; {.b vX$.C.M.l.eX;.L *.9X+.o.  GX+XG | ,.B q.;.9X6X .jX`.wXq.| x.XX&.=.N.",
"XX6 q.q.;.0Xo.vX&.p.C   ; ;.! a.8 H aXv >X0.N *.A.L ;X!.7.^ O.=.=.X.c Z o.;.K #.*.S.  xXH 1 h.M oXsX .Z.c g.Y.0X7.eXq.5.C V ..+X",
"S.c y N y -.S 8.^ qXv   & A.q.6 w.&.| L K.e.7 *Xw.>XuXI.uX..m c X & *.I.`.XXsXS (.C   cXz.|.P.g.V.F.D.^.;.=.( ,X1 [.( N.D.N ( R.",
"aX1 0.J - %.H ~.Z.c G.  q A O.i #.y s.lXOX( v -.iXZ 2 q.`.( &X` ) E.b &XD ~.Y.0X- +.  DXL.R 8 Y.s.y - e D...T.7.Z { u Z ^.`.;.Z ",
"c kX3 C lX! v K Z aX,X  $ 6Xb i .Xb !.3 J &.yX+XY.2 ) g.B.y NXG iX+X^ %.Z.i <XiXG.B   MXb.G.&.kX8Xy A.^ ..G.+XY.6.*.) D.( ).OX>.",
"G v W h.i Q a q.i = X   ZXb m 9.s.$.] !  X*.> J.~.A H D.] sXaX6X(.Z.wXoXt G $.oX3XG   DXs wXvX&X4 ;.h.o.c x :.&.0X`.*.Z :.>.,.p.",
"                                                                                                                                ",
"+ $ & 5.q # p $ X z # $ e s s q 0 $ q > e z 8 @ }.g }.gX  GXFXu.xXcXGXKX-XzXk =XJX& h 5.# O s q 9 z q % & + # + . w 0 % X   xXq ",
"tXZ c b ].b X.Z wX/ pXY.uXe.;. .B C o.B i b l m._.r R DX  d B vXsX5 uXjXI...y T Y.G b _.B.%.o c Z.b y A.2 p.S pX8 `.w.s.0.  JX).",
"U.&.S ` v e.eX/.w.pX9.A.).6X-.- C ( 8.e R l a.h._.NXQ.NX  8 / B.- @X&.S Z 7Xq.A E kX~.N z , D._ wX0X6 X.K :.8 v.z.b N.C 0.  4XwX",
",.;._ P.T c Y.jXq.@.H -.- < n 6XB.H <XrXcXQ.8XbXrX[       + E dX| W.9X%.B.,XU.6 7XS.NX]._ ;.E.` ^ vXI. .Y.f jXY.B.o.Y b n   MX7 ",
"+Xe u b aXiXC _ dXdX-. .wXX.O.5 /.7.%.pXDXr bX1._.    Q   > ;.] t :.Y.^ b %.+X7 *.6XR.N L.6XR.D.I.A.e.z.A.f Z - >Xm 0.U.<   2XM ",
"b =.#.R.sXT.!.L.-.K *  .0.6XP.,.V q.S < bXuX8XQ.>.Q p.2   9 | G 7 i ^.oX_ &X(.7XR.7.v.G.^ x.vXb V.( |  Xl `.I.).+.v pX6 )   KX..",
"= N 6.].L.E.7 F.G v B.Z mX( | ~.M.8.Z T ..H ^ N.B.K c `   g S ` sXp.wXXXZ.vXS.T b 8.aX,.B.6 C T.A.eX| y K ( $.R.~.N e N s.  FXwX",
"c c 6 V.R Z Z A &.M C b 6 ] D.oX/ A.`.- rX^.B.} A.a 9XnX  z 6.Y.Z | e.`.NX2 c sXT.2 v  XG.y q.S H tXP `.%XQ.Z A.+X0X7 8.9.  JXX.",
"0...e./ D b hXZ.oXvX;.T.oXuXb D.+XC A.| S b S ] c b W vX  z B Q X.%.6 7 G yX).;.G ..H p.^.D +.aXyX8.iX`.^ [ %.7.,.>XZ.~.9   MX_ ",
"q.Q | 3 V O.( v .Xb $.b F.Z G +.&X_.G P X.S M.A.X.X.wX7.  $ ,.' e.oX1 e.` wXdX' >.g.z.;.*.A (.B.G uX,Xm qX0X(.1 G 7X- ) D.  SXc ",
"                                                                                                                                ",
"AXd.d.4X5XSXHXj k.p cX  xXgXDXy.i.:X:Xk xXSXZX5X4X4XGX4XJX5X4X:XJXMXBXMX<.SXy.JX4Xd.  SXNXHXSX-XgXJXY DXVXy.DXnXW #XcXgX=X4XxX4X",
"U.I.T ..A E ( r >.@.$   X S.Y.Z vXrXsX=.vXD @XC.f.o... .].,.Y. .B aX&.< X.! s.g.g._.  HXpX- eXjX*.N E n.V.oX:.`.*.i 7.T.( { N W.",
"/ N..XR i Y.{ + yXw.y   s $.6Xs.p.NXA.sXq.yX` p.M.).7 a q - H S.M.6 A.5 F.A A.C X.t   Y ' K.x.m 5 H 7.7 p S.e Z...9.| W U.X.E %.",
"c X.[._.E g.- @Xo.M.i   0 ] Z ;.s.c O.x.Y.(.+.`.b X.lX) iXA.9.` -.c C 7Xb Y.c v ..+X  xXF.E O.v.#.A c 0X%.Z ,.|.3Xz.n.Y.y (.c 0.",
"6 &X-.A q.7 o.A y XX0.  9 Z.mX7Xq.( yX/.( M.e.XXN.).b A ^.Z ) S U./.].A.T X.B `.C h.  4XgXhX& 8 >.B.6 S   ).*.b vX`.q.sXQ A.O.(.",
"0XM ] } [.C 6X#.g.Z b   w B.c Z X.B D.b ,XB o.dXC .Xc.^.v ].W.) o.M.i G.b N +XN 0X5   DX%XrX<X3XH v b N 7X  i - ] N c !.B (.N.*.",
"c n Z.X.A.| Y.C v o.m   ; w.U ` _ 6 Z C 2 @.#.].e H ,.D ` ( -.b ].y B 0.qXw.sX&Xv.eX  HX, bX1Xj o q.R.6Xt _.  N vXP.pXZ L.| x.aX",
"G.0.mXS 7Xy S s eXOXv   z ;...D 6.w.! x.i ^.H _ M.+X(.9.X.^ sX<X6Xb v.I.B F.( ,.1 6   4XD.Y.Z D.>XG M dXY.N.8 B.y D.V.c b y S b ",
"6 /.` ` ` ] N O.B B.v   ; ..z.2 b.5 ! @.V.D M ( ..B.6 dXM Z | ..OX*.- L.E   oXv 1 G.  =XZ 8.E c S @.e. .X...{ dXM N H b V / H vX",
"( P.= ,.Z ) sXc.I OX>X  0 ,X` ( p.X.S.G v._.[.B { y C U.Y.Z (.B.q.x.p b G $.  0X#.U.  SX^.M ;.,.^ N | >XU.s ^.1 &./.b 4 ;.0.OXq.",
"%XU...u R R mX<XdXsX#   VXd 3.a ! h.W 8.3XMX X,Xi.t gXH.mXN pXQ.jXr t 3Xz f.V   H.=X  <.0 %XN ,.e.1 -.W.jX8.O r 2 R <XA >X8 6.& ",
"                                                                                                                                ",
"$ 9 0 e d > d ; 9 ; l 9 p 8 % # 0 # 8 8 k & q : 9 s g cX  W 0 z 8 9 w z > s + 8 8 $ p 8 s z a u.9 & p s 8 0 ; k # j s 9 d   y.9 ",
",.Z W.D.h.o X.6 |.C U.X.( dXc L.Y.5Xg.aXK ^.- N ;.oX(.7.  : sX2 7.G 3X,Xf 3 < H o.X.B.v qXx.*.Z.+XsX^ C -.v >.- 1 i dX7X,.  :XJ.",
"0X= `.vXI.n < ,.F.F./ T C Z qX7.Z P.~.7.N vXs.c 4 7 &X6X  8 t.Q oXZ C O.D.a.aXA o 2 T o.pX+.p.%.7 H ! t.( # , 9 x L._ 6 ^   2XsX",
"=.7 p.0.x b qXvX(.6XZ.&.A.X.4 ] C &.P C ,.) A.X.I.e.N 8X  g o.8.o.] ..Z ) b v.&XB.!.A ` sXB r.^.:.pX..` $X1.bX2Xg.R.C =.p.  zX$ ",
"Z.H c 7X^ 7 D.^ ( w.V.= wXv v 7 dXR.b < S $.2 S T N J ,   & uXe.G b ^.b 7.oXc b ;.~.A.&X6 L.6 G G.b z.) sXa #X$ s.X.uXM.B.  LXH ",
",.& =.kX^ R.P 0XY.A.] C v dXb ` b g.^.OXD.`.9Xi.2 u X.=   e R 9.v.u 2 ] XX7X` z.`.b ` @Xc X.v A K.(.U.Z.Z.`./ NXb c W.0X<   FXX.",
"c #.'.X.( 0.0X9.5.2.O ` dXZX0.3.C.wX4 R.Z.I._ o.oX(.U.9   l | C A 4 W q.q.b Z.C Z H.i.OXT Z `.R.S 3 _.>Xb.7 @.q.N E OXH >.  MXN ",
"t M.qX..) %.o.i  ./ / A.7 s.vX( 8Xp.qXv &.Z v i 6Xc E 3   X M mXz.i.F.) vXvXS +XC n R 6X&Xc R b.,.`.n .XZ (.X.(.[ y G w.~.  k.;.",
"3X9Xo.; Z dX-.z.mX`.wXA.D.~.) w K.a sXb 7.) w.X.vXB.B.G   w A.D G P c [.sXsX/.;.XXOX#.b.,.- O.- &.H b D.y v >Xm ..c X._ S   JX).",
"y ` Z.7 = o.-.+.^.X.dXpXdX7.O ` i ! l *.#.C c / i 0.A.,   o S.X./ (.W.K oXG +X3.E b b q.;.B.c m N 2 ( _ $.Z $.#.> b e.b [.  k.} ",
"                                                                                                                                ",
"cXk.2Xj.MXJX4XzXy.DX~   nX5XGX|.5XHXgX1XfX:XMXSX~ MX=X$XMX:Xy.xX=XGXgXgXSXgXBXp j d.  5XAXY 5X:Xa |.DX~ =XBX4X5X:XxXGXj.MX5X4XAX",
"lXv +.N T A G 4 F._.;   s c (.6XL q.#.hX| Z A S x.G F D.`.L 0.S.f.G 6.4 # q.q.c D.#.  5X$ 7.G ` *.}.].C.O.q.Z.bX- aXy - G , ! q.",
",.0.Z p.t S O.t C o.yX  }.A D R.c I.9X,.eXC aXS.S.Y.n.v.6Xg.L.>.Y.t + ,.A a.N aXM.C   MX} C a.7.J ,.S.q.3.N 5 oX&.0.7 n.b.sXh.B.",
"vX-.!.I.S ! C U.A >. X  d >Xq.eXv i ;.b.Z.D v 5 ;.I.^ V.7X,X_...F.qXv wXL.b.7X9 U.2   MX6 O.L X.5 ;.6X,XE.:.9.P C o.E ) n 5 | J.",
"Y.).b +.P.d 5 ..| Y.vX  q _ ..{ ] v p.pX7 ,.Z k.6 OXZ +.x 6XO.V.) &XsX^ >X=.~.{ T.>.  nX] >.XXC A._.cX-.` Z :.wXZ.tXX.b - [.y P ",
"5 N b ` I.7X' + A oX{   % &.^ S @XY.( X.7 N _.C D.e.T.T B.8.%.B P OX^.-.; 9.C T X._   4Xn.N D.G (.W.C L =  Xl.yX` jX[.b B.!.b.] ",
"t.X.G Z ,.B.B.S.7 b X.  ; ..b n C +.8.+ *.D.q.OX&.(.D.~.Z ;.8.v U.v.4 ~._ 6 y _ ~.S   GX'.m T Y.S &X6 T l.r hX(.bX2 ( ;.B Z.N @.",
"y q.NXsXtXZ } S 0.S C   0 X.$ | oXt.< K.Z.z.A oX6 (.&Xe.>.k dXdXZ /.*.Z.e.d W v N G   xXC Q yX( X.X.S c M.G OXJ %.W.mX`.D.8 c ] ",
"o.sXL ( ..*.6.E q.C `   5.! Z :.O x.y Z.x.y wXc ).` z.7X7 7 G.bXD.^.G.yX_ G Q  .O.4   cXQ.2 M I.$.@X..C ^ o.| s.vX`.!.wX8 ).{ :.",
"v 7X .OXmX6X).n lXV [.  5.b 2 uX, & pXZ Z.3XC b d f.tX&.N C ,.(.7 iXQ / o C B f.6 A   2XG Z A S 6 2 ,.oX%X&Xb 0.A ! ! ( E Z c X.",
"                                                                                                                                ",
"SXMXd.j.k.y.fX=X4X=XDXd.GXHX:XcXd.4Xk.xX5XVXNXDXd.HXSXxX  =XDXy.GXd.DXGXBXy.:X1X=X4X:XNX5XSXGX2XDXMXMX:XMX5Xy.xXi.AXBX~ SX#X-X-X",
"d 4.aXnX4.,X>Xh.8XcX .V.P o z f.4., > H =.M L.B.pXN W &   5X7.-.5XV t M O ~ 3.8 *X/ VXiXv Q.; a , 8 V MXr : & a 4.i.9 r j   MX= ",
"C ,.jXn N ! K x.^.c.D.X.v.N L 9 B 7.b s.6 + D Q Z Z.q.].  g vX(.N :.T }.K G 2.W.e.q._ b.( S X.`.( D.v q.0.| iXr.N q ,.wXZ   GXz.",
"(.S.D.& 8 S L q.T.( Y.^.sXP. .c w 5.N A ).S @.< V.! b 6.  * &X` v [.-.NX8.; S ( q.' #.T.B b.M.M.7 X.S.) G &.s Z.V c | D.b   -X] ",
"a < t./ OX^ g.^.7.[.C G 0.m ) o.` ! p.4.) D.lX@.v B.G C.  q { 0.a ,XL v D.2 ].! p.!.`.:.0XrXK.R.;.N V.-.sX,.- L wXsXm.K.`   KXW.",
"$.H _ Y.0.dXO.Z c ` O.-.F v o.N.OXC S.;.q.U.S &./ X.U.Z   {.H.< u C vXX.,.U.%.B.E %.0XK.;.O 8 = vX;.! s.9.i X.&.C #.Z.M y   VX-.",
"..1 5 M.7X/.v g.K.S.7 ,.) &.S ` :.P.y ,.%.~.m.Z.Z  X6 W   8 v c M e.< 7XQ b.( B :.t c ;.c.1 *.C S uXtX| x G.N.` D D...C /.  CX~."
};
