/* XPM */
static char *Weaving_64[] = {
/* columns rows colors chars-per-pixel */
"64 64 238 2 ",
"   c black",
".  c #180002",
"X  c #280800",
"o  c #371300",
"O  c #450C02",
"+  c #441802",
"@  c #581903",
"#  c #611F00",
"$  c #4A2303",
"%  c #582804",
"&  c #57340D",
"*  c #652401",
"=  c #6B2500",
"-  c #6A2B01",
";  c #6B3509",
":  c #753502",
">  c #7B3503",
",  c #753805",
"<  c #7C3A04",
"1  c #71350B",
"2  c #7D3C0D",
"3  c #7E4008",
"4  c #76491C",
"5  c #7A4F2D",
"6  c #7C512B",
"7  c #802C02",
"8  c #823C02",
"9  c #863B06",
"0  c #844302",
"q  c #8C4402",
"w  c #8D4A04",
"e  c #84440B",
"r  c #88470C",
"t  c #8C4B0B",
"y  c #904503",
"u  c #934C03",
"i  c #994E04",
"p  c #924E0C",
"a  c #8D510B",
"s  c #955203",
"d  c #9B5504",
"f  c #9D5A05",
"g  c #94520C",
"h  c #985709",
"j  c #9D5B0C",
"k  c #8D4D13",
"l  c #894A15",
"z  c #924E13",
"x  c #914E1C",
"c  c #945314",
"v  c #9A5613",
"b  c #9D5B15",
"n  c #94541A",
"m  c #99561B",
"M  c #955919",
"N  c #9C5B1C",
"B  c #A35D06",
"V  c #A35C0B",
"C  c #A8590B",
"Z  c #A45C13",
"A  c #A75C15",
"S  c #A25C1B",
"D  c #A4630C",
"F  c #AA650D",
"G  c #A6680A",
"H  c #AB6B0D",
"J  c #B3690D",
"K  c #A46214",
"L  c #AB6514",
"P  c #A76912",
"I  c #AC6A13",
"U  c #A4631C",
"Y  c #AC661B",
"T  c #AB6A1D",
"R  c #B16614",
"E  c #B26C14",
"W  c #B86C16",
"Q  c #B36D1B",
"!  c #B76D1C",
"~  c #AE7012",
"^  c #B47315",
"/  c #BA7415",
"(  c #B87A16",
")  c #B5731B",
"_  c #BA741C",
"`  c #B67A1B",
"'  c #BB7A1D",
"]  c #895A2C",
"[  c #9C5C22",
"{  c #975928",
"}  c #A35F24",
"|  c #9B6329",
" . c #8B603E",
".. c #A46323",
"X. c #AB6623",
"o. c #AC6B24",
"O. c #A5642B",
"+. c #A8672A",
"@. c #AC6B2C",
"#. c #B76B22",
"$. c #B36D23",
"%. c #B26D2B",
"&. c #AE7025",
"*. c #B57224",
"=. c #BC7423",
"-. c #B77A23",
";. c #BD7B23",
":. c #B5742B",
">. c #BB752B",
",. c #BC7B2A",
"<. c #AD6C32",
"1. c #AA6A37",
"2. c #B16D35",
"3. c #AF743A",
"4. c #B37233",
"5. c #B97636",
"6. c #BD7C33",
"7. c #B3723C",
"8. c #BC7A3A",
"9. c #C27816",
"0. c #CB7B17",
"q. c #C17B1E",
"w. c #C27623",
"e. c #C27C24",
"r. c #C57A2B",
"t. c #C37D2B",
"y. c #C37D32",
"u. c #C97E31",
"i. c #C27E3B",
"p. c #976B42",
"a. c #AE7242",
"s. c #BB7B42",
"d. c #BC7A48",
"f. c #C17E44",
"g. c #BD811D",
"h. c #BE8223",
"j. c #BF832B",
"k. c #BF8039",
"l. c #C2821F",
"z. c #C38324",
"x. c #C98325",
"c. c #C58926",
"v. c #CA8926",
"b. c #C5832B",
"n. c #CA842C",
"m. c #C68A2B",
"M. c #CB8A2C",
"N. c #D48D2C",
"B. c #CD912D",
"V. c #D3932C",
"C. c #C58233",
"Z. c #CB8533",
"A. c #C68933",
"S. c #CD8B33",
"D. c #C5833C",
"F. c #CB863B",
"G. c #CC8B3B",
"H. c #D08533",
"J. c #D28C34",
"K. c #D1843D",
"L. c #D38D3B",
"P. c #D88F3D",
"I. c #CE9133",
"U. c #CE9437",
"Y. c #D39335",
"T. c #D49A36",
"R. c #DB9836",
"E. c #D5933A",
"W. c #DA953C",
"Q. c #D6993B",
"!. c #DB9B3C",
"~. c #E09E2F",
"^. c #E19D3E",
"/. c #DCA13C",
"(. c #E8A33B",
"). c #F3AA3A",
"_. c #B68A54",
"`. c #C88646",
"'. c #D48D42",
"]. c #D88E49",
"[. c #CF9249",
"{. c #D69342",
"}. c #DB9544",
"|. c #D49C44",
" X c #DD9C42",
".X c #D5934B",
"XX c #DC9749",
"oX c #DC9C4B",
"OX c #D08F52",
"+X c #CB9059",
"@X c #DA9B55",
"#X c #E49745",
"$X c #E29C44",
"%X c #E39C4A",
"&X c #E39B53",
"*X c #DEA243",
"=X c #DFA843",
"-X c #E3A344",
";X c #E9A446",
":X c #E4A945",
">X c #EAAB46",
",X c #E4A44A",
"<X c #EAA54C",
"1X c #E5AA4A",
"2X c #EBAB4D",
"3X c #F1AC4E",
"4X c #EBB14D",
"5X c #F8B24C",
"6X c #E5A352",
"7X c #EBA552",
"8X c #E7A952",
"9X c #EDAC52",
"0X c #E9A85B",
"qX c #F1AD53",
"wX c #F2AB58",
"eX c #EDB253",
"rX c #EEB459",
"tX c #F2B355",
"yX c #F4BA55",
"uX c #F4B45A",
"iX c #F9B75D",
"pX c #F5BA5C",
"aX c #FABC5C",
"sX c #D8A363",
"dX c #F4B463",
"fX c #F8B965",
"gX c #FABB64",
"hX c #FDBC6A",
"jX c #E4B070",
"kX c #F7BA72",
"lX c #F8C15D",
"zX c #F7C464",
"xX c #FBC164",
"cX c #FDC46C",
"vX c #FECA6B",
"bX c #FFD26E",
"nX c #FCC974",
"mX c #FFD178",
/* pixels */
"4.t ,   Y.E.b.W.z.J.M.A.  : z x Z   z.L. X{.< =.@.- OX  8Xq.  Q E.!. XY <.c e   6.=.z.XX  t.r.&X<...v +.;.,X  j 9XS.1X2X: > q 8 ",
">XN.J   G.mXc ;.qX0 d gX  u N.<X).  B ).).9.5X9.(.5XdX  G.W   !.9Xr.i P pXW J   0.~.9.(.  yXaXtXaX/ J R t.b.  w J.z.b.pXsXn.(.w.",
" X;.w.  S.tX4.) ;.v g.wX  H.Y.W.9X  yX9XW.Y.S.uX$XE }.  v.E.  J.<X_ -XJ.>.A W.  1XE.n.2X  !.*X>Xn./.^ } rXG   c.4XW.) R [.H x.#X",
"        cX2X..J.-Xe.F ;X                                      w.J.D 9 ) o.V J                                                   ",
"H L.7X  ,XtX-.yX/.!. X!.  !.S.E.S.9XtXpXaXh.;XvX,X!.8 0X<X'   <X2X=.aX<X*.w 9X  Y.m.<X9XY.uXZ.l.b.7  XC.*XxX' Y.X.F E.S.$.$X2Xy.",
"Y.u.hX  2X' %X!.F.;X!.M.  ;XW.x.xXn.,XI -XB.9XE ) F > t.pX;.  t.^.T.N.qXQ g.W.  Y.!.V eX'.U :.>.m.u.U D.rXJ.lX2X5.W.E.W..Xb.E.L.",
"qXH D.  Q.gX!.vXK 2Xx.<X  Q. XY.n.E.G...tXJ.E M.Y.' hXD.Z.S.  &.T.Y.F ( o.=.X.  *.t.!./.J.-.<Xx.$XqXE.>.R E.,X<X..3XY. X} n j i.",
"2X_ f   ) !.q.P.M.tXe.z.  !.Y.d C T.9Xz./.2XD yXL.qX&XG.6XI.  0 I ^ J.$XXXP.2X  -Xc.E.u.-X7X7XE.$XN.E. XE.E.e.<Xa %XK P.G.C r.Y.",
"        : J.r.$XW.F $X`                                       ' !.,X) tXk 0XcX                                                  ",
"k `.2   gXn.F S.' gXuXW   D.0 r OX  oX< S b.'.].2.* z   E.d   ;.uX.XB.=...: 5.  L.b t t.  O.,.0X4.0 4.U *.$X  $X#.M.z.{.m 2.7.[ ",
"k < +.  n.L.9XQ.D - q _   8 t O.}.  S.G.gX!.C.-XO.n x   =.gX  9X!.o.uX&Xk ..8.  oXI g 3X  @.pX4X* ..`.@.A s   v.%XL.H.! } U v n ",
"r 7.<   L j '.s e.t.K f   g N @.)   W.%X_ H.Y.F.[ 0 c   O =.  XX Xc -.wX..U @.  g {.J.w.  - Q.Y.4.N c @.E.0   ;.Y -.Y.G.= v t * ",
"                                    z.!.g >Xb.b._.6 jX                                    g W.S.3.kXjXkXmX,X                    ",
",XF B ) ;X' n.c.2XM.,XqX7XZ._ t.e.   XS.8 ' ,Xg.o.< f   n./.I.yXlXF 9XtX XA.I ) L.b.b.vX  D.d z.D.V R -Xd eX  tX2XtXW.W.S.M.$XC.",
"6.E.^ J.) W.qXuXC.8XH./.$XW.M.: '   G.$X9X2XT.b.{ 8.p   e.z.N.Q.8 qXY.' Z ,.c a j.uX;Xb   =XW.Y.oX;Xs n.=.E.  !.!.! ,Xc.r.'.) %X",
"S.b.I.$X_ ' -XyXW.W.S.x.g q =..X X  Y.-X X' $X-X*.d B   -X' S.uXT. X.XU.Y.%XS.g -X,XnXD.  J.$XY.t dXoXn.$XW.  -XC.X.-.H ^ 9X$Xh ",
"@XXXb.p .XC.Z T.pXpX XE.pXS.n.0 ^.  M.uXgX0 ;X` *.L.q   Y.Y.-.b._ -X XY.B b.XXg J.tXY.S   iX;X<X:. XH.Y.!.7X  G pXl.E.,Xj }.D P ",
"L S.E.E.aXW.0XQ.!.M.J.H.W.,Xu.,.A.  ' q pXxXY.;.t $.,.  %XQ.E.A.E ' 2X%XM.:XE.}.,XL.T.<X  Q.pX( F.Z.Q L.uX,X  F.t.z.uXE n.*.i.o.",
"t I F.J.;X,X' *X;.^ -XW hXZ.=.G.L.  H l.M.w.c. XF.t._   J.,XY.Y.pXJ.uX3XL.uXQ.T c.J.9XW.  f z.%XC.9Xr.Y S.z.  2X4Xc.2Xx.-XaXw.,X",
"s E F R.T./ z.l.=XI.x.A.D x.Z.G.=.  #X0 9X!.J.I.y.n.tX  E.xX-XqXx.Y.S. XcXd R rX'.s _ 7X  f S.^ T yXr. X-X,X  Y.9XaXF  XE.' tXG.",
"<.<.4.v Z L -Xy.G.0X$.'.} f.r | zX   Xt./ F M.M.< > 2   *.C.K ..C.*.3 w l s.@.N X.A.;.!.  Q ' dX8.<.i.4.K ,.  U b. Xy.t.m n 4.M ",
"4.k m - D Z.S.K XXI y.V $.0 N ..,X  K =.n._ J.-Xm N 8.  %.^ Y.;.L. Xw >.a k.s.p ;.L.I.e.  F %XZ.l 7.s.> ,X$X  w V ,Xq ) N ..<.2 ",
"w w 4.@.W t.!.2Xd 7Xd ) 2 x n r C.  Q F.=.< F.Q @.n e   }.R.!.-X$XR Z.^ < i.<.l u S.E.L   E ,XgXc l > z %X!.  =.W.V q L , x O k ",
"                                    4 | _.@X+X| l $ %                                     4 6 & 4 & X & ,XD                     ",
";X,XH   b.I.*X^ E.r.b ;X  S. X^ aX  tXT.zX=.;X$X%Xn.Z.  xX;X  E.#.gXx.i *.t.E.  W.eXh.lX  u qXtXY._ _ L.<XwX  2X(._ Q.gX$.e.C J.",
"x.>.[   b.tXT.E G.#X) }.  >.D.O...  -XgXY.qX$.>.u.<XC   xXxX  ,X2Xf !.f b.) -X  T.I W B   /.R.e.i #.r.g G.!.  2XM.W.n.-Xf.,.E.A.",
"I r.W.  ;.qXd tXW.-X' E.  e.;.E.S.  !.<X X9XY.$XF z.cX  gX-X  Y.T.H w.2X< +.s   W.<XW.E.   XJ.E.E.' L G.E.q.  hXtX!.-X,Xt P.A L.",
"        E.) !.T.P <XE.!.                                      m.2XtX^.2XT =.`                                                   ",
"tX,.z.  <X^ eXT.,Xz.m.vX  G.D ) E.=.*XB.2XS. XeX) K.'.XX,.-X  Y.E.M.' uXV P %X  y.s {.eX1X!.H.wXh.Q V K 9XS.Q 8 M.F 0 -XU }.W.Q.",
"Q _ W.   Xn.tXn.;.H.q.9X  E.K.^ B.E M.e.s -X-X-XE.t.M.X.W.M.  b.:XL _  X{.'.hX  :XeXT.pX8  XJ.d d {.E.}.P  X9XD cX,XpXm.e.S.!.7X",
"        iXD b.T.tXuXL 7X                                      2X-X^ !.$X..!.b.                                                  ",
"= 6.z   M.x.L b.r.M.V e.  N $.- Y.  *.C.+.S z *.z N -   P F   =.-Xe.: -X@.k 7.  0 S.>.V   S.b Y S N O.m u.t.  uXM Y ! ) e b < f.",
"c <.O   J =.cXJ.u. X XI   s.U z {.  *Xb.N {.,XZ S : <   ].F   E.L.Y.L.E m @.:   b.}.!.XX  K 6.W.v r M s. X,X  0 w >Xi ) [ [ } { ",
"v x %.  C.S.OX=.L.6Xs s   5.x 2 X.  Z.w.A.cXZ.L.3.c @X  XXt.  $.$X=.Z 0X2.a.n   S.nXV f   ;X;. XO.< T U 9X*.  w - ;.Z.w @.v +., ",
"                                    K E R V dXV ] + nX  +                                 q.%X,X4 6 ] X  .;                     ",
"g n.J.L.<Xx.,XS.M.n.$XY.W.T.d h *X  g Q >X)  XW $.$X}.  J 9 Y.tXB.n.}.2Xn.#Xs :.M.w.!.S.  7X$XvXQ L W.,X;.!.  eXV eX,XE.!.P.d ,.",
",.Q 1XtX!.V *X;.uXj E.n.*..Xr 6.,X  X.gXb.4Xw W 6.Z.$X  T =.pXP ,X' 9X7Xy.V s t. XY.*XI.  Y./.-X.X9XV.) Q.c.  P % M.uX9XK 8.Q  X",
"'.@  XiX,Xb.s T.-X(.z.c.R R ,X%.e.  6.Z.` gX*X=.h V 9X  ,XY.$X=.pX_ / n.W.M.wX:.d F b.Z.  J.B.J.t *.y.{.) g.  x b.-XY.B x.<X;.dX",
"t.s Y.S.V e.9XxX-X,X!.x.Q.e.u L B.  S.b.T.!.Y.b.:.y.>.  T.9X X9XQ.Y.Y.q.x.E S.6X!.-XH I.  H.'.2X*.<X^ J.( :   U.H.9Xe.b.Y.W.) Q ",
"F.*.V -Xx.H tXM.!. XW.p eXF V s gX  e.u ;.!.s R *.;.F.  8X-XvX$Xx.' *XR T.%XB Z S.Q.-XyX  >X) b.t.I Y.W iX X  x.J.M.9X;XE. XhX,.",
"}.u.Y.gXz.tX!.qXeX!.Y.b.A pXZ -.C   <XqX!.<X-XE.9 Y n.  -XW.M.$X1XE.E J.XX1XS.Z.-XE Y.9X  Y.Q E.!.E.}. X$X2X  bX/ E ,X<XV J.L.C.",
"B E.;XJ.M.E.tXJ.gX' _ c.uXcXF.S Q.  s ;X$X!.-XS.%X,X$X  ) tXW.x.e.J.3XE.S.H E.I ;.n.;.W.  I -X,XI c. X$X/.F   Q.M.Y.2Xn.J.!.W.K ",
", ..<.m K Q S g x Q I b.@ O.OXt 1X  3XF Y.;.j Q 5.< v   D.> l 0Xe.,.J.Y [.`.g 7.) v ` ,X  r m.B.c @.> 1.V :.  {.E g K >.@.l v ..",
"d.D.[ > ;.7Xz.V.@X X<XZ.<.4.S ..c.  tXL ,X;.>.$..X%.+.  n.' X.>.` Y u 9X`.8.6.m ].:.=.-X  = ! 8 U z e 4.y F   C =.B C.m.M ..OX4.",
"e U 4.e @ b.N.' W.n.tX7X`.m : U j   `._ C.! y ) 9 [ &.  @X/ oXM.~  X X$.7.c 2.O.o.n s G.  X.j V 2 < n +. Xb.  *XL H u.D 5.T 8 U ",
"                                    o o 5 p.; p.% $ 5                                     X X . . X $ 4 y.z.                    ",
"2XW J.  {.xXG.G.' :XI  X  t.<XL Y.  !.M.1XM.T.tXF -X)   %XY.  E.t -XJ.W.D._ S.  B ' T.S.  E n.=.d Q W.Z u.!.  W.t.Q.uXV D.b.z.}.",
"9XE n.  n.S. XE 1XuX! H.  Z }.<Xe.  Q.xXE./ g.z.Y.P =.  xX'   tX6.!.-XI &.C.S.  -XY.;.Y.  <XJ.!.-XgXE.F.,X X  bXj wXN w .., K Z.",
"!.E.)   V T.*.=.n.J.gX%X  b ,.<Xb.  yXY.yXS.uX!.-XW.R.  uX*X  2XxX) 8 1Xb t.I   S.^ -X-X  M.,XY.=.T.!.A.rXS.  ,Xz.M.t J.,.6X{.S.",
"        ;.J.;.9Xz.*X9XeX                                      x.-X9Xh.pXS.J.9X                                                  ",
"-X$XE   oXQ.^ Y.!.-XvXv.  e.%.Y.!.h./.pX^ !.c.2Xs  XI X.L eX  ^.E.2XqXM.@.K -X  9X,XeX,X!.:X}.) S.8XgX;.!.' n.iXJ.eXS.Q = ;Xf n.",
"s F f   |.pXv.E _ tXT.;.  r.z.H ;X$XM.Q.I h.2X' -XP.%XQ  XY.  A.J.#X-XT.k.].q.  n.Y.M.S.:XH !.b.P. X;.L q -XB.pX' pX^.E y.Z. Xz.",
"        E. X+.-X^ ;.E.uX                                      ) 6XY.d !.h d C                                                   ",
"1 ..OX  eX=.K e.t.t.! M.  4.e z 6.  > S.r.,.u oXt <.:.  A.tX  .X) $Xz.$XO.5.O.  Q *.j *.  T 6XL m n t g Z.)   Y Q.-XgX1X@.c > N ",
"{ `.q   A.w.8.=.S.L z.gX  ..b %.K   d L.n.e 7XD <.U $.  q 0   8XJ.W.J.XXp [ n   {.i ,Xn.  u T {.1.f.e < ) S.  Z.gX!.{.9Xt @...+.",
"3 5.z   kXE.{ i &Xm $Xt.  c = +X0   qXz.u.6X;.E 4.`.6.  N D   G.u 9X$.D < p 9   u w.}.z.  q.e.c., # N 1.G.-X  b.K 5.C.;.k g < ..",
"                                    J.b <Xe.e.` M a.|                                     '  XE.1 1 4 X 4 sX                    ",
"D.C.^ ` J.h.T.Y.!.h.;X' 7X,XQ >.c.  ' >.J.$X-XqXw uX;X  M._ eX` qXg.4X7X,XF b.*.z.Y.g.^.  $X2X-XF.}.,Xe. Xn.  9XE -X!.D uXm.;.j ",
"C.L.$XuXS. X!.E.*X9XZ.-XM.u W.D.{.  E S M._  XW.F.I Z   Q Y.Q.U.eX' Q z.8 B.'.C.yXc.tXeX  I.M.V g E.C J.gXZ.  /.9X1XJ.V.R.$XE.>.",
"D r.aXJ =.E.X.*XtX!.W.M.Y.Y ' j S.  M.%XC B ) u.k 8.L.  %XW.gX<Xz.W.M.gXW.n.eX`.P.$Xz.^.  g.J.-X,.J.H  Xm.J.  ;XI.E.S.uX;.F ! ) ",
"G.E.!.C Y._ I.W.-XY.;X}.%XXXS.t Y.  b.^ $Xc.n.0 C.,.F    X2X>XJ.! aX<XvX;Xc.F b  XV.Y.%X  !.1X*Xu ,.J.w.=.Y.   Xe.Q E.$XF J.0 c ",
"b s w.^ ,XM.A.y. XeXw.;.E.W ;.:.Z.  W.!.x.!.gXE.h  Xz.  o.o.,.Y.-X9Xq.n.;Xu ^.o.*X<XeXW.  tX1X9X6.Q n.Y.xX!.  Y.yXzX/.-Xe.u 7X.X",
"6.;._ W. XtX<Xh.r.x.L.!.e.G $XA.%X  Q.W.E.H.b.E.) S.}.  2XhXpXF ;.Y.uXe.L ,Xr.E.S.b.<X-X  b.W.' 0XZ.A. XS.I    XM.Y. X;.Q H.b.j.",
"                                    F J.t.;XR.W.V ^.V                                     D ^.=.E <X(.W C V.                    "
};
