/* XPM */
static char *Wood_Planks_2_64[] = {
/* columns rows colors chars-per-pixel */
"64 64 50 1 ",
"  c black",
". c #6E370B",
"X c #6E390C",
"o c #733B0D",
"O c #783F0F",
"+ c #743C11",
"@ c #793F11",
"# c #7D410E",
"$ c #7C4113",
"% c #834514",
"& c #884714",
"* c #874916",
"= c #8D4B16",
"- c #804419",
"; c #874818",
": c #8D4C19",
"> c #924E16",
", c #924E19",
"< c #955017",
"1 c #9A5317",
"2 c #955119",
"3 c #995218",
"4 c #9B5318",
"5 c #98541B",
"6 c #9A551B",
"7 c #9D5518",
"8 c #9D5618",
"9 c #99531C",
"0 c #99541C",
"q c #9E571C",
"w c #9E581B",
"e c #9B581E",
"r c #9F581D",
"t c #A15717",
"y c #A35917",
"u c #A05719",
"i c #A0571D",
"p c #A05819",
"a c #A55B1A",
"s c #A35C1B",
"d c #A65C1A",
"f c #A65D1B",
"g c #A0581C",
"h c #A15A1E",
"j c #A45B1C",
"k c #A85E1B",
"l c #935220",
"z c #9B5620",
"x c #9F5920",
"c c #A35B20",
/* pixels */
"w764767776777476467276477476772<p7p46766277767q47277<77764q67677",
"66447q+Xo++X2274464pp74622:%$oooo+XX$$4q27>@oXooo.oo++oooO>77704",
"                                                                ",
"7pp7q2+4q*,7$7o6q6g27p42*:<69274<4267467977q77777474744:262r774q",
"76927p%ww   q7<47777p47g7p2g7q70q4677<747767<7476,766q477q64477,",
"7qg64+47 **  74777427u22742pw4s<qp7p777w7i<742u4   gq7u    777p7",
"74q64g7 47767  2<70449<477q7p7442:2:<22<7>      67u    4<7  7<77",
"77<4774277<42p7 q7777*:p74607747447407p424777,67777p747224744,:>",
"r77<2p7up7a77p74777rj44ag77774d7pp7p>7w79p2p74upg776p6u647740g7u",
"7646p76g7eg71dtpgddq>d77p6q7g6d6g6g247paa6a7p7pgp77p7p674pjjd7r7",
"ppqxppgd7447uuppp7p7rppdp7pdpdzjadgqppx2%$:rapjd4d7puiapp7p7app>",
"776pa7p7da7paaapwpp7ppu4$     2gp7pjpaad2ippu7duqupaa7pgppap7awq",
"pu7jo%ap7ap7paa7dpapapppg7d677upqakdapa7d9pc>02<67p7p777p,jp7upp",
"%%>pag7ppapd7puj77pgppapp7pdpw=66>>677pppuppkg4p777p7ppp7a622*  ",
"adpa7<r602%:02p4ppaajpgp77pr7upd,pdp7dpp7gpp6a42gg777ppaa7d7p ap",
"apaauapk7a7pq7udp77pgpda7u7pwppapq2        gp7pa7grwq:       pap",
"       pdgaud6kppp6gp07            y4g7updauad    7aapa9qyp7u   ",
"p7pap49pkd7d6a7uwgp7gpppgpdupap7ppappdap77pgddupajuppaaauugpaajj",
"                                                                ",
">>=<<>><7:>2,4><>>>::,<<><42>22 >>>>9>22:2<:>:4><62<2,:<,2,:>,24",
">22<<222>:-:*2:,,>,:*     ;:,,= <>&=><2<        2,<:>: ooo  >,,>",
"2*>>:<6<22>,>>>44>><4<<2<<<,:<4 *>*&>:>><><,,>2>:,4=>2:   ,>>,2>",
"><<4><14*22>,,><<><2<>22>>=:2>2 ::2>>2>>=4<>4<<     2<>=,=**>  <",
"2>*<4<>=>:,>2:<>24>:22,<2&4<2,= 4><<><4:><<4<2>><,2:<2<=:X,  2>4",
",2<<2>2><<*<>>>>,,2<2><2,>><4>4 >:<><=2<,<<22*4,,><4< >    2<>>>",
"    244>,:>*<*2,:2>,>:%><4*$$*: $    *6<<>>>=<<>*><>22 :,:24*   ",
",=<6>:,224><,*     >2>2<=<9642> <2=2>>2=>2>=2,><2<>2>><,,>4,,>:>",
">6,><>,>>=>>>42><<><>4,22:2>4>< ,:4<=><>>>24,<22,>=<:2<,4<><:2:,",
"                                                                ",
"7papapj777upudjaddpuuaakpppdg7kpd77aagjaddad4ppi7gpppkd7jappaadq",
"dp9djppdpg42lw7paaw7>2pddgddpddr66dapdpa2   gp    :dpppaaadppj77",
"agpkkapp7ppadakpdgdddu47pd7p2oa7pupp67dp4kaagpppgapjpupq0gpppa4q",
"        7dpapdp      9p7d777gjdkpkpaar4d7gpwp7ap6   :667pkp7p   ",
"pqau7aqp kpaddugpqgpk077gpgagpdppj764g64pg67ddpaugkpd7p7gpd  7ap",
"qpappa7d2     agppp7u6a4uapapppg7pappu0padddg7patjapcagap  dwgg7",
"7papg7dpdpppuapup7*qw7p7pdpp72ppkaua&     6670pd7p7apaa  padppup",
"77dd74ddp77aak7adp7cad7uapg7p7dpk7rg77pagapdpdadj:##$%p77aadtpud",
"                                                                ",
"<>2<><22222,,>=><<4>>><,>,,>6,>,>>>=,><22,*2>: <>,>>2><2>4=>>>:2",
"@*22>,4<2,>:<&*            >,>44>>2=<:*%%%>222 >::<,22:>*>22>:%o",
">222>      :;2>>>:<:<2<2==2><::24>2<:2<22>42><       2<22>>><<<2",
"&  o>>2>,:=>X2>,=<,4292:><>>=4>>:>2<<>2<>=:<>: ><4>24><>>22>>6><",
"2>>>>o::<<o<=<:>><>:2<>=4=>>2*:2<22222>:>><26: <<:       =><%2<4",
",4<2<<4*24:<6,<:,<2>2>,*24<<24<><>,4421<<22<>= :><>2><><><,42><2",
":>,>:%<<<444           %=>4>>><<42>22>,2<=,2>< <,:>>2<26>>,=   <",
",>26:2>&>>2<::>212<:224    2<2<,2,>>>2:$$*><2> >:*          6,<>",
"4<2<>62:22<222<>244>2>=222<>><<>>2><><>>=>>>4> >2:4:::><4<4>>2<=",
"                                                                ",
"dgpp2pu7u7pgddpgp7g46::0puagp7pad6,pp76dppaappgp7adada7ppwppkppp",
"p7pw7476ppgpdpadappp76j7pp7adgppp7q6dujpdup6*    7u7pa77777@o>7p",
"ppudap7udppppdjdappp7p7p77d77ap7papapkjpagadpd77ppaadpappkau7kpu",
"gdupadup7ga7gap1quappauqapdpa77apapw      4pa7p4      6c1kaup7ap",
"       paaaaaapuuq7p7aujpapaudaara7ap7ppaapdpp77apuadpapp77g7:*2",
"4aqja7pau77apd               2gp6pgagdappp77ppqupppjppa7g7jda7pa",
"4d7        gdgpauappu<auadd744ajppappawag4ppp77pdd7pppp7ga7gappp",
"7pu17p6a06q7pp7g4pra7ragdzdp4ppp7ppp1777gpgp7ppawadpakupp7pdpd7p",
"                                                                ",
"<22<<<422>2>22>2<:>:2246922,622< ,<:7<:22>47<246446>74264=4>242>",
",22242,<22>62>,>2>><,2<2<4:  >24 >>4*<2<7<24<4,2>2>42><2<2,4    ",
"224<,,222>          =4>*   9,:22 <42426222>2<4444422<77<<<7422>4",
"2,&    <<6246642>9,* 42 <2264<4> 46z<      =<>46<:>:  :>=>24<>  ",
"22,2<<26,2<<04%2222&%  2     44< 2>2 >2>626>,<4722= 6<26,,442224",
"2242<206=>26<7672>>2<2<276472264 6  %2>6<>7<4<2<   4<<2     :<44",
"724,4442922>44<2>2><<242244>2>2> 4,6>27<22>:$;426722,4244<4444>6"
};
