/* XPM */
static char *Wood_64[] = {
/* columns rows colors chars-per-pixel */
"64 64 85 1 ",
"  c black",
". c #4D2606",
"X c #462308",
"o c #48240B",
"O c #53270C",
"+ c #542B0C",
"@ c #5A2E0A",
"# c #5D310D",
"$ c #542F15",
"% c #5D3112",
"& c #62330D",
"* c #633412",
"= c #663816",
"- c #6C3B14",
"; c #6C3D18",
": c #733E13",
"> c #703E1A",
", c #7D4416",
"< c #75431A",
"1 c #7B451B",
"2 c #7E491D",
"3 c #7F4A21",
"4 c #854316",
"5 c #884717",
"6 c #8D4B17",
"7 c #84451A",
"8 c #89471B",
"9 c #844A1C",
"0 c #8D4C1C",
"q c #924E17",
"w c #914E1C",
"e c #8D511D",
"r c #925017",
"t c #94521D",
"y c #99561E",
"u c #9B591F",
"i c #A15C1F",
"p c #834C23",
"a c #8C4D22",
"s c #914F20",
"d c #875024",
"f c #8D5223",
"g c #87502E",
"h c #8A552A",
"j c #955421",
"k c #995620",
"l c #995624",
"z c #995724",
"x c #955924",
"c c #9B5820",
"v c #9C5820",
"b c #9C5821",
"n c #9E5D23",
"m c #9B5924",
"M c #9C5B27",
"N c #9F5C24",
"B c #925628",
"V c #955729",
"C c #995629",
"Z c #94592A",
"A c #9A5928",
"S c #9D5C29",
"D c #9C5D2A",
"F c #9D5E30",
"G c #A05D23",
"H c #A35E22",
"J c #A05B26",
"K c #A15C24",
"L c #A05E25",
"P c #A05E2A",
"I c #9E632A",
"U c #996030",
"Y c #A36126",
"T c #A46227",
"R c #A86226",
"E c #A96426",
"W c #A26029",
"Q c #A4612B",
"! c #A76429",
"~ c #A3612C",
"^ c #A4602C",
"/ c #A9652A",
"( c #AA672D",
") c #A76533",
"_ c #A86630",
/* pixels */
"Luj6ccbcycunu0cy9.+jbkycL*$O@+oO:0nwkcjc71bkzbMzMjbbtJkbctPMbjkc",
"jMt0b~k6MjjMywyjtytG1Odtkkjckjckbtt0LjtD0Myyt             tNkbMk",
"atjcbDp0tkyCkjunAbPMyyMNc0Bp,jkkQ0nktzbtjj   kcutRwsLMtcNt      ",
"bbLcDjkjLw0LjLbtMt!jbLtm4cyzj8bt8wayjj    uNbbjz       azykPGtjI",
"utmkmTc(f     ytkcMcTtyYcna^LLmzMwB   mjcyyk    j7bjkPt  MyttNc0",
"      jbtkbukGjyWzt0kbtwzt0L#tT0NGyLbbkYb   atuty0tGQkTcJ       ",
"MwMkyPGPubkyyGwbtcmjtz0jkyDkMbsybjjjjj   cknDk         j0Lbty6uk",
"GyttybwayMkusGb0zcNtujjntjjzMywtjwbf  WyjwbM  zkcbkTkty   kyj8zt",
"Djc0aG9       jtmykANw01          cL6tMMab  cjkbQmjkGjMtjb   bkb",
"    Ly0myDDw6LtyjGbj8ujjb0kkLtTtYkL8tjbb  Gtu  ZntcL  jc0nMLGtg9",
"bjjCbmDYja8ktynkktcwmLkTMyjnbQVLbMDjkb  atcQ UWG8Gzktz  bjktbbkw",
"tk0yN        0NGcbztjjc0=bnTay0DMf   LbL8MM mjL     Ltbm  Yctntk",
"ykwLwtLy0bnkybbtG     9yMwMttkjjsbGQbubtL  Qw ktbbby ttkja   tkN",
"Lt8ybAwbjutMwyybtqkMtyLc     utYNcjGbjj  kyc ma   jbj ybjb0jtGNy",
"bncnywLMcm6nMju8ynujLMNytjtzjttu7cnywLkbjzk jG jMM t0 unb0Lwtzuk",
"n                  kzyLbwt0ktkyMkjnkcmtsucV c kbtW kN ctu  tkkbz",
"kkyjtLtbNPutLbLjbywDLjbkjMawLcu1       jyLb nT    tb jba tykjk0j",
"yjjkL8juGbwbtbjtjky0DckybyYtkky8tkGjtWb  tbb QMbnNy jbMfjjMtkbNc",
"1tMtNjtn6NG8Z1*<fmkwtkybkjkkh2eujtYDNLkbt  tM      Mc ucnk     m",
"wttbntyyEjtMjLtutycjtckGybYAtYNbyt  ~kmYjbb  jGycYM  zjuz tjkkLb",
"yMkuybGcyz0DtNykmwcjbtLbyj0Abzwyny4w  LujccMy      jybk  btbwjzu",
"G5ttabQpZbka**9nbjtyLjbLcf2   GuyMw6kjjy9tbjutNywkN8k  8tkatyNNy",
"tkbbtuGL8NbtyjtkuwbkbykMkywwbynmytb14Myt0Gn          ujwk06tktay",
"f9>9jfMjb0ktNjGyNLktJLAff1DcTk0yRbbbybnjtnGLcGjyczM0LPj      jf9",
"bbuuMybeB7%<         dNuAyyM                           zmtmNyy0t",
"ktjtbGGtcsk bwDa8!jkyctubNwyc0kjzjDtyjTjbjtwtnbt0tktkbyMjtkLjyjj",
"tw5,       3kyty8ybx    0yPLLLtyuk8bwkbwjDk0nktbc1       kbjkjjt",
"jYktkwjutjkkkPPyjkykyLzk    txMytjin0tytttzujubbjtwb0kktYkt  c0j",
"    ayMyjuMP0NtyjjbGyyMNymtNtnzbyytLY0jtmbkYjttjjyttYyj0ytty0   ",
"0tkjbtcwt6   Bzccuyt    jkybmtbyG06yNjMm         mctjLbwDcmjycLj",
"NyCkDt    0zmbjuy  yycjN   LkbYWbybyjnkbjww0GGykbjj/kytbycGkbmt0",
"jD    ttwtjtubT9xDybut0tjbtm0tb0f0xLj0Mt8Lkycy,j       D0Bjjjb0z",
"jz0bn0NGjn   ^N0yjB  zM6utw0kLbTtTuykz6NyjkjcwnbktNcNkytyYt009jj",
"jjyjjMC   tkNMjjtjcjY   BkNuMjNykmwj0Aaax^j0nckbtziyNjjwmyutuwky",
"       Ytyby8  >B  ww0m6yckmjttktttcctaxbNTNm5wcybbyDnzbtc      ",
"0ybjztMtntj  ue  0s z0kwjLktw8kcbytby0jkbtGLkjkWwtjMyukN6cbuuktj",
"ttNNa8N    Nu=0bN9jFkLsjZfftksLkJ8zj00kkMukbkuubmB    GjtcMLtjtL",
"c0cNku bckMyt Mty+t yAjwjwMMjt00jjyjkcctjj88Dttwtt0j0kjjJct   bM",
"b0    MLLbLjbw kc  tk bktjjkTjtjyyy6ktbLbj0bjtabyktwcwbbtL kyttk",
"ztMnyjLk   ab00  yttwcj,    jt~bttntua99fjxLDb5tttbkMG    NMkkjb",
"kmMDyQujNbt   tctj    LM88MtbwjbGtjbzLGmcrbPtyskLyjMbbbDktkjcucL",
"bjb  yWwkwayjP    tNbDbwcbky0Lt00zNycjkbyttMyjkjbGycYtkttzbwtTwk",
"jttky      b0yjycct6jkj0Z     fWb    BjzjcccT0cnyjt0jtGFyttytmtn",
"jnjjybicDLb     jjZ   ajDJycknuwywjLLLYtjcjnt80atjtM0ytytytLmkkb",
"      bkbbYLMkkbbtjyyc0ytyTyttcyMLjjAtjNy8kbtb0yzjwjcumYtyztyGyc",
"MtM/0c       twMYzba                                            ",
"bkcytPcejbynN       ckwNjMutjccytujyjuyj0jttLtytm0n0sjybMcPwtcy0",
"Lutwwyc0GM0wk0kktM6Pt0jjbwybWuMDjtkcyjue+,0utwwnLDGukMMQac0jc0jb",
"&;tb8njt0jjzNJjMcyYbbtzNbp             PctncyjMctb  Ny0jtjttQh<j",
"kjytttt0jkjkLjkLftjy60LjjctyNzctbkzjLjLy   b0b  t8yjm  9wttt8ttG",
"cMtbLkwjbkMbtbknbcykwctywjb0wbkwcMbcmY  kzbbjcjtj NbbyjmjEy04Ljw",
"Cy,9Z_yt              jzcckyMwwkykn   ujjc     9w    mG^wLcwjjby",
"jtyjjjtbkybMkuywtjwytcjMykycwNB9hb0bkwjtNccLcjj  cjbI  0Dawzjccn",
"X:zDL0uctjwGknttycsGtjwckbtjwjDmbncbmnbtNk tcy tcyyMycMfmt      ",
"a~MyMf#kcktDD               w6bLkkyjykjbN0 bc fyWWtyyyctMbjDcbjk",
"tkj0jyjypjzjmy0A0tjbwVycYVuy0jytaB    0j yz   ku ccjbLjZxwkbtywu",
"ctwzj8LtjtjLLMktwGmJkwbbykkyycjkkNtMMM tb  zkj  Qkb jVtzkymazytt",
"-amywtNjmtctjjwbbDbbbMm       bt0jbaLwj  tuGy cGN L QytMk6b0NDff",
"mkbmbMjyMkwLc0jjj0wjjtjktP0tjy      9umjT  Ntb           9jGybuy",
"jmNkw0jcbL0tb0byyzyj0bt0tL0Ps0mcjkuM  TzkjwkyyyMbN %+JQjyyGJkjtL",
"Mbt      NLGTM      bbj+ymkMbtLw6bG)kb  tGu8ttNL  jj8cMk0sjbyj0u",
"jjskkymLtmtjAyyjkjjwtGmmtmcy6     tytwcw     pGLcj MYyzbjsbymjck",
"ktMcyjML8jmGkLbLkttkyttyGbyimznktLDtycwGywYbytyyDw9   jGuyMjjcub",
"YVbkuf       duyyktttB@jtMc0zwjwtbjn0bbwyjt0tjkkmLjjjummy,+@%ajL"
};
