/* XPM */
static char *Wood_Planks_1_64[] = {
/* columns rows colors chars-per-pixel */
"64 64 42 1 ",
"  c black",
". c #874A10",
"X c #8E4E14",
"o c #945216",
"O c #995417",
"+ c #945318",
"@ c #995619",
"# c #9D591A",
"$ c #A35D1C",
"% c #A95F1D",
"& c #A6601F",
"* c #AC621E",
"= c #B1651F",
"- c #B6681F",
"; c #A25E20",
": c #A66122",
"> c #AC6421",
", c #B36621",
"< c #B46A22",
"1 c #B56A22",
"2 c #B46A23",
"3 c #B76C23",
"4 c #B56824",
"5 c #B56B24",
"6 c #B76C24",
"7 c #B86821",
"8 c #B96B22",
"9 c #BB6E23",
"0 c #BC6C23",
"q c #B96B24",
"w c #B96D25",
"e c #BC6F24",
"r c #BA6D28",
"t c #BD7024",
"y c #BC7026",
"u c #BC7027",
"i c #BE7127",
"p c #BF7229",
"a c #C07225",
"s c #C27427",
"d c #C07328",
"f c #C17529",
/* pixels */
"                                                                ",
"i5=1ipi9iewiiwwww99i9wwwwaiiiwiiiww9iwwrww1119wwe8e0iew80weiwwww",
"e9iiii    9iieeiwiiwiiaww111wweia9iw1699ew9wewe8waw5wwwii9wwpwww",
"iiaii ieae9ii+iwiiawia9i1ieiew003ww9eew0w0iieeei1opwiiww:   iwwp",
"16w  aiiiiweiieeeiies9efiiwpiiiii9iii9iei111,:o1wwew     ie911>>",
"eidiiiew1999>:>1wwiwiie           :>16iiii9iwwiwe>w6ww%#i 9eieii",
"dwawwiapeiieiawiwiieew9ei0piaewiiwiwwww0iaiiiewwie$ww1131+ wi9ie",
"111eie$weiiiwiwwieiwwwwiewieeewewwiwpeaww9wii5w>O9ei1,*>9w9    1",
"iiew5aweiiieeie9w9wei11ap0eee9aiiiii8>#$$&$5ewiipi1OO%%oX,99wiwi",
"                                                                ",
"8,151w8e,1,88w99w111w9ww918ewiww9wwq11 ,,,8qwqww,9181111111,81,,",
",,#%,,8,w1%#::$oO>111991w0wiwe         ,%::#o$,188880,81,>1**815",
"111w1888188199e108990w99w#i9www9q00988 1818w1q8=118,811,,,811,18",
"8,,888     >:*+o11we81e8w1908e8ew90>*: 8988q08,81118118818,18881",
",*    >88wO >#$,*10ee118          98,e 81w,***81wq11,888889,=>*,",
"888818801 , 1,*e8%89w9ee1888899ew8e989 188q88888*         8,,101",
"8881*,%, w* 810,X18ww,8889181e981981,, :*,1,8ew88818188,581118$8",
"8qq89,,88  1181,,o#,ww99w1e8809188888e w189890q89w1,1881,,1188ew",
",181w1191191w91w1w989w9w918ww99918eeww 91881e889ww19118881q15w9w",
"                                                                ",
"9ew89wieiewieieeiwiiewiiw$%:#$99ee1wwii0wwwe99911,i99i09ieeewww9",
"i199wii9eiww>         iieeew99ii9iw9ew6111,,,1i9wwe11w919eew9iw9",
"9eiiw9aa1ie9eieiiweeiewiwwwwi1w11169iiew9iiwieiii909aew9i99eewwe",
"iww:o    1111wwiiiw9iiew%   ww9iaweieeiw9eaaiiew              ii",
"eiiie0ieie8ew9w9wwiiewiiwwwii0iiiwiwwwiwwwepiwiieweieeeia9iiiw9w",
"wwieaaiwi5we,$        *11w9wi1#weww111ew99w=#OO;1wi9ii9iw9eae9ee",
"     5wewiwew09e8weei9ie8eiaiieiii9i99e1wieweeweiiw>            ",
"waewi9ww9w9weiww9ewwwiwewwe9i9e9w6iiwwiwwwweeeie19we5wi9ie9i1iww",
"                                                                ",
"188189081,1118988911899e81181,818,,181q18,##$=15,8,8188,q8118 w5",
"$>58w8w09911q9,***#oooo:888q111:*$*     ,,*%18,   ,911,8*$$Oo X@",
"8w88918   188808888081,,18,1#,1=,= ,>,8, 81*   ,,,,11,18,,,1, 15",
"81111= ,%*   e8111q,,18,8,,11118,1, , ,1 ,  ,%O,,,,181,,88,,8 18",
",511, 588 1888,181w1w5,,;       *,=, 1,,* ,*,,,>X$8-1,,,5,818 ,*",
",18818 e81 1,,11,,111,q,,,11,1,1,,,,1,,,,11>%%=,=,1,5,18,1,8, 11",
",1115,9   ,,,1*,=,,,511,1818,,118%            O>,,,11=        11",
"1,88,,881,,1,e,88,1r88,,,,,,,,q,1,1,,,18511,8111q8818881,1891 1w",
"                                                                ",
"ewi09wieewe9w91eweiw990 1ww9wwww919189eeew1ew96e9e9ww8ew9i9w9w9e",
"ewwie5wiiww1i99>>:*,1ww @$:$:wpe9>,>>1>1>1wwww1ww19>#     1111ii",
"wieiwdeww13w5w6993959w9 11wwiw5ieww9weewe9ii90w9i9wiieiiewwww0ii",
"iweii>.3w113  1wwewiwww w9w09ie98we9eww99w9iwwww9iiii000wei9wi9i",
"w1>1wew1&31 wewwe0w19w9 e119w11w00e9weww618wi5       1ipe99wew9w",
"wiwi0ia91w e$ wwwewwe9w we90w091915wiwiwiwww919w1ewe99e09ewiwwie",
"www91>O#11,  w91>%;*998 99w918e99iwew8we91ww9w89w1w199wi11:%1w19",
"wwwiww919ww99119iwe51we 1,1w9w8www1**>:**>>ww99959w918w19w9eiw9w",
"                                                                ",
"w91111919e115www1e,w1113w399iwwwi1w9959911191119wwi9iewi1w1w915e",
"ew9w,9w19wwwew11>&*>w9www9wwww99i51www,iw0we9w61,113i9ww9w9wiw9w",
"w5iww1w&ewwwewwie99911w15wwew%99w31139e9i9we3eew919we9999111,999",
"ww9ee98wewww9eeiew9w999e99i91ew1weeewie9w,w9* 599wiei9iewiewwiw9",
"w1      ,599we09iwe19eew9ww9w99e9eweiwiw9    9 1ww11>>111i9wew69",
"w1ww9w8e999e9ew996w910weewww1ew1601ww1ww >9w31 9ewweiweie9wewiwi",
"59wie999w98093*         ww161wiwewwiwiw w911w rww93e9wwwwww61119",
"wpweieeee11wiw9e9e9w91iweeeww1061,1>1wwei9 w wwwii9w9ww*19wwwwww",
"1w61w6ww611ww11w,35w1w9ww69911w11ww11115w9w 11w9w9wwwi1wwww93911",
"                                                                ",
"1888881%$$>,q81q81898189185188981,1>q,,1,18881 98891w11e9,9,q18,",
"**,8881818198,181,,1,,1111,111$q8888,15108q81* ##%,8w1-11980898,",
"1588,,8188,,,*>*,q11,81,181q1,ww,90qq891811881 818118801889w8118",
"q81>1>**88889q81,5,=111,*       *11r111,,88,-, 8,,81,1q,     ,*1",
"11,1118818818811118,,818,11,,88,,8,8,,1=11>ooo oo#%19,q81,811   ",
",,181158=,,,      %,11,18888558819e1,8,81,e888 1q,,8111811818888",
"1,,,888,5,,,818,,,,11,81,,1,1,,,,%O+@$$@%1,815 110,1,1,118581q,1"
};
